P3 256 50
255
92
4
19
92
4
19
92
4
19
92
4
19
92
4
19
92
4
19
92
4
19
92
4
19
92
4
19
92
4
19
92
4
19
92
4
19
92
4
19
92
4
19
92
4
19
92
4
19
92
4
19
92
4
19
92
4
19
92
4
19
92
4
19
92
4
19
92
4
19
92
4
19
92
4
19
92
4
19
92
4
19
92
4
19
92
4
19
92
4
19
92
4
19
92
4
19
92
4
19
92
4
19
92
4
19
92
4
19
92
4
19
92
4
19
92
4
19
92
4
19
92
4
19
92
4
19
92
4
19
92
4
19
92
4
19
92
4
19
92
4
19
92
4
19
92
4
19
92
4
19
92
4
19
92
4
19
108
23
30
108
23
30
108
23
30
108
23
30
108
23
30
108
23
30
108
23
30
108
23
30
108
23
30
108
23
30
108
23
30
108
23
30
108
23
30
108
23
30
108
23
30
108
23
30
108
23
30
108
23
30
108
23
30
108
23
30
108
23
30
108
23
30
108
23
30
108
23
30
108
23
30
108
23
30
108
23
30
108
23
30
108
23
30
108
23
30
108
23
30
108
23
30
108
23
30
108
23
30
108
23
30
108
23
30
108
23
30
108
23
30
108
23
30
108
23
30
108
23
30
108
23
30
108
23
30
108
23
30
108
23
30
108
23
30
108
23
30
108
23
30
108
23
30
108
23
30
108
23
30
108
23
30
108
23
30
108
23
30
108
23
30
122
36
40
122
36
40
122
36
40
122
36
40
122
36
40
122
36
40
122
36
40
122
36
40
122
36
40
122
36
40
122
36
40
122
36
40
122
36
40
122
36
40
122
36
40
122
36
40
122
36
40
122
36
40
122
36
40
122
36
40
122
36
40
122
36
40
122
36
40
122
36
40
122
36
40
122
36
40
122
36
40
122
36
40
122
36
40
122
36
40
122
36
40
122
36
40
122
36
40
122
36
40
122
36
40
122
36
40
122
36
40
122
36
40
122
36
40
122
36
40
122
36
40
147
59
59
147
59
59
147
59
59
147
59
59
147
59
59
147
59
59
147
59
59
147
59
59
147
59
59
147
59
59
147
59
59
147
59
59
147
59
59
147
59
59
147
59
59
147
59
59
147
59
59
147
59
59
147
59
59
147
59
59
147
59
59
147
59
59
147
59
59
147
59
59
147
59
59
147
59
59
147
59
59
147
59
59
147
59
59
147
59
59
147
59
59
147
59
59
147
59
59
147
59
59
147
59
59
147
59
59
147
59
59
147
59
59
147
59
59
147
59
59
147
59
59
147
59
59
147
59
59
147
59
59
147
59
59
147
59
59
147
59
59
147
59
59
147
59
59
147
59
59
147
59
59
147
59
59
147
59
59
176
85
83
176
85
83
176
85
83
176
85
83
176
85
83
176
85
83
176
85
83
176
85
83
176
85
83
176
85
83
176
85
83
176
85
83
176
85
83
176
85
83
176
85
83
176
85
83
176
85
83
176
85
83
176
85
83
176
85
83
176
85
83
176
85
83
176
85
83
176
85
83
176
85
83
176
85
83
176
85
83
176
85
83
176
85
83
176
85
83
176
85
83
176
85
83
176
85
83
176
85
83
176
85
83
176
85
83
176
85
83
176
85
83
176
85
83
176
85
83
176
85
83
176
85
83
176
85
83
176
85
83
176
85
83
176
85
83
176
85
83
176
85
83
176
85
83
176
85
83
176
85
83
176
85
83
176
85
83
176
85
83
176
85
83
92
4
19
92
4
19
92
4
19
92
4
19
92
4
19
92
4
19
92
4
19
92
4
19
92
4
19
92
4
19
92
4
19
92
4
19
92
4
19
92
4
19
92
4
19
92
4
19
92
4
19
92
4
19
92
4
19
92
4
19
92
4
19
92
4
19
92
4
19
92
4
19
92
4
19
92
4
19
92
4
19
92
4
19
92
4
19
92
4
19
92
4
19
92
4
19
92
4
19
92
4
19
92
4
19
92
4
19
92
4
19
92
4
19
92
4
19
92
4
19
92
4
19
92
4
19
92
4
19
92
4
19
92
4
19
92
4
19
92
4
19
92
4
19
92
4
19
92
4
19
92
4
19
92
4
19
108
23
30
108
23
30
108
23
30
108
23
30
108
23
30
108
23
30
108
23
30
108
23
30
108
23
30
108
23
30
108
23
30
108
23
30
108
23
30
108
23
30
108
23
30
108
23
30
108
23
30
108
23
30
108
23
30
108
23
30
108
23
30
108
23
30
108
23
30
108
23
30
108
23
30
108
23
30
108
23
30
108
23
30
108
23
30
108
23
30
108
23
30
108
23
30
108
23
30
108
23
30
108
23
30
108
23
30
108
23
30
108
23
30
108
23
30
108
23
30
108
23
30
108
23
30
108
23
30
108
23
30
108
23
30
108
23
30
108
23
30
108
23
30
108
23
30
108
23
30
108
23
30
108
23
30
108
23
30
108
23
30
108
23
30
122
36
40
122
36
40
122
36
40
122
36
40
122
36
40
122
36
40
122
36
40
122
36
40
122
36
40
122
36
40
122
36
40
122
36
40
122
36
40
122
36
40
122
36
40
122
36
40
122
36
40
122
36
40
122
36
40
122
36
40
122
36
40
122
36
40
122
36
40
122
36
40
122
36
40
122
36
40
122
36
40
122
36
40
122
36
40
122
36
40
122
36
40
122
36
40
122
36
40
122
36
40
122
36
40
122
36
40
122
36
40
122
36
40
122
36
40
122
36
40
122
36
40
147
59
59
147
59
59
147
59
59
147
59
59
147
59
59
147
59
59
147
59
59
147
59
59
147
59
59
147
59
59
147
59
59
147
59
59
147
59
59
147
59
59
147
59
59
147
59
59
147
59
59
147
59
59
147
59
59
147
59
59
147
59
59
147
59
59
147
59
59
147
59
59
147
59
59
147
59
59
147
59
59
147
59
59
147
59
59
147
59
59
147
59
59
147
59
59
147
59
59
147
59
59
147
59
59
147
59
59
147
59
59
147
59
59
147
59
59
147
59
59
147
59
59
147
59
59
147
59
59
147
59
59
147
59
59
147
59
59
147
59
59
147
59
59
147
59
59
147
59
59
147
59
59
147
59
59
147
59
59
176
85
83
176
85
83
176
85
83
176
85
83
176
85
83
176
85
83
176
85
83
176
85
83
176
85
83
176
85
83
176
85
83
176
85
83
176
85
83
176
85
83
176
85
83
176
85
83
176
85
83
176
85
83
176
85
83
176
85
83
176
85
83
176
85
83
176
85
83
176
85
83
176
85
83
176
85
83
176
85
83
176
85
83
176
85
83
176
85
83
176
85
83
176
85
83
176
85
83
176
85
83
176
85
83
176
85
83
176
85
83
176
85
83
176
85
83
176
85
83
176
85
83
176
85
83
176
85
83
176
85
83
176
85
83
176
85
83
176
85
83
176
85
83
176
85
83
176
85
83
176
85
83
176
85
83
176
85
83
176
85
83
176
85
83
92
4
19
92
4
19
92
4
19
92
4
19
92
4
19
92
4
19
92
4
19
92
4
19
92
4
19
92
4
19
92
4
19
92
4
19
92
4
19
92
4
19
92
4
19
92
4
19
92
4
19
92
4
19
92
4
19
92
4
19
92
4
19
92
4
19
92
4
19
92
4
19
92
4
19
92
4
19
92
4
19
92
4
19
92
4
19
92
4
19
92
4
19
92
4
19
92
4
19
92
4
19
92
4
19
92
4
19
92
4
19
92
4
19
92
4
19
92
4
19
92
4
19
92
4
19
92
4
19
92
4
19
92
4
19
92
4
19
92
4
19
92
4
19
92
4
19
92
4
19
92
4
19
92
4
19
108
23
30
108
23
30
108
23
30
108
23
30
108
23
30
108
23
30
108
23
30
108
23
30
108
23
30
108
23
30
108
23
30
108
23
30
108
23
30
108
23
30
108
23
30
108
23
30
108
23
30
108
23
30
108
23
30
108
23
30
108
23
30
108
23
30
108
23
30
108
23
30
108
23
30
108
23
30
108
23
30
108
23
30
108
23
30
108
23
30
108
23
30
108
23
30
108
23
30
108
23
30
108
23
30
108
23
30
108
23
30
108
23
30
108
23
30
108
23
30
108
23
30
108
23
30
108
23
30
108
23
30
108
23
30
108
23
30
108
23
30
108
23
30
108
23
30
108
23
30
108
23
30
108
23
30
108
23
30
108
23
30
108
23
30
122
36
40
122
36
40
122
36
40
122
36
40
122
36
40
122
36
40
122
36
40
122
36
40
122
36
40
122
36
40
122
36
40
122
36
40
122
36
40
122
36
40
122
36
40
122
36
40
122
36
40
122
36
40
122
36
40
122
36
40
122
36
40
122
36
40
122
36
40
122
36
40
122
36
40
122
36
40
122
36
40
122
36
40
122
36
40
122
36
40
122
36
40
122
36
40
122
36
40
122
36
40
122
36
40
122
36
40
122
36
40
122
36
40
122
36
40
122
36
40
122
36
40
147
59
59
147
59
59
147
59
59
147
59
59
147
59
59
147
59
59
147
59
59
147
59
59
147
59
59
147
59
59
147
59
59
147
59
59
147
59
59
147
59
59
147
59
59
147
59
59
147
59
59
147
59
59
147
59
59
147
59
59
147
59
59
147
59
59
147
59
59
147
59
59
147
59
59
147
59
59
147
59
59
147
59
59
147
59
59
147
59
59
147
59
59
147
59
59
147
59
59
147
59
59
147
59
59
147
59
59
147
59
59
147
59
59
147
59
59
147
59
59
147
59
59
147
59
59
147
59
59
147
59
59
147
59
59
147
59
59
147
59
59
147
59
59
147
59
59
147
59
59
147
59
59
147
59
59
147
59
59
176
85
83
176
85
83
176
85
83
176
85
83
176
85
83
176
85
83
176
85
83
176
85
83
176
85
83
176
85
83
176
85
83
176
85
83
176
85
83
176
85
83
176
85
83
176
85
83
176
85
83
176
85
83
176
85
83
176
85
83
176
85
83
176
85
83
176
85
83
176
85
83
176
85
83
176
85
83
176
85
83
176
85
83
176
85
83
176
85
83
176
85
83
176
85
83
176
85
83
176
85
83
176
85
83
176
85
83
176
85
83
176
85
83
176
85
83
176
85
83
176
85
83
176
85
83
176
85
83
176
85
83
176
85
83
176
85
83
176
85
83
176
85
83
176
85
83
176
85
83
176
85
83
176
85
83
176
85
83
176
85
83
176
85
83
92
4
19
92
4
19
92
4
19
92
4
19
92
4
19
92
4
19
92
4
19
92
4
19
92
4
19
92
4
19
92
4
19
92
4
19
92
4
19
92
4
19
92
4
19
92
4
19
92
4
19
92
4
19
92
4
19
92
4
19
92
4
19
92
4
19
92
4
19
92
4
19
92
4
19
92
4
19
92
4
19
92
4
19
92
4
19
92
4
19
92
4
19
92
4
19
92
4
19
92
4
19
92
4
19
92
4
19
92
4
19
92
4
19
92
4
19
92
4
19
92
4
19
92
4
19
92
4
19
92
4
19
92
4
19
92
4
19
92
4
19
92
4
19
92
4
19
92
4
19
92
4
19
92
4
19
108
23
30
108
23
30
108
23
30
108
23
30
108
23
30
108
23
30
108
23
30
108
23
30
108
23
30
108
23
30
108
23
30
108
23
30
108
23
30
108
23
30
108
23
30
108
23
30
108
23
30
108
23
30
108
23
30
108
23
30
108
23
30
108
23
30
108
23
30
108
23
30
108
23
30
108
23
30
108
23
30
108
23
30
108
23
30
108
23
30
108
23
30
108
23
30
108
23
30
108
23
30
108
23
30
108
23
30
108
23
30
108
23
30
108
23
30
108
23
30
108
23
30
108
23
30
108
23
30
108
23
30
108
23
30
108
23
30
108
23
30
108
23
30
108
23
30
108
23
30
108
23
30
108
23
30
108
23
30
108
23
30
108
23
30
122
36
40
122
36
40
122
36
40
122
36
40
122
36
40
122
36
40
122
36
40
122
36
40
122
36
40
122
36
40
122
36
40
122
36
40
122
36
40
122
36
40
122
36
40
122
36
40
122
36
40
122
36
40
122
36
40
122
36
40
122
36
40
122
36
40
122
36
40
122
36
40
122
36
40
122
36
40
122
36
40
122
36
40
122
36
40
122
36
40
122
36
40
122
36
40
122
36
40
122
36
40
122
36
40
122
36
40
122
36
40
122
36
40
122
36
40
122
36
40
122
36
40
147
59
59
147
59
59
147
59
59
147
59
59
147
59
59
147
59
59
147
59
59
147
59
59
147
59
59
147
59
59
147
59
59
147
59
59
147
59
59
147
59
59
147
59
59
147
59
59
147
59
59
147
59
59
147
59
59
147
59
59
147
59
59
147
59
59
147
59
59
147
59
59
147
59
59
147
59
59
147
59
59
147
59
59
147
59
59
147
59
59
147
59
59
147
59
59
147
59
59
147
59
59
147
59
59
147
59
59
147
59
59
147
59
59
147
59
59
147
59
59
147
59
59
147
59
59
147
59
59
147
59
59
147
59
59
147
59
59
147
59
59
147
59
59
147
59
59
147
59
59
147
59
59
147
59
59
147
59
59
176
85
83
176
85
83
176
85
83
176
85
83
176
85
83
176
85
83
176
85
83
176
85
83
176
85
83
176
85
83
176
85
83
176
85
83
176
85
83
176
85
83
176
85
83
176
85
83
176
85
83
176
85
83
176
85
83
176
85
83
176
85
83
176
85
83
176
85
83
176
85
83
176
85
83
176
85
83
176
85
83
176
85
83
176
85
83
176
85
83
176
85
83
176
85
83
176
85
83
176
85
83
176
85
83
176
85
83
176
85
83
176
85
83
176
85
83
176
85
83
176
85
83
176
85
83
176
85
83
176
85
83
176
85
83
176
85
83
176
85
83
176
85
83
176
85
83
176
85
83
176
85
83
176
85
83
176
85
83
176
85
83
176
85
83
92
4
19
92
4
19
92
4
19
92
4
19
92
4
19
92
4
19
92
4
19
92
4
19
92
4
19
92
4
19
92
4
19
92
4
19
92
4
19
92
4
19
92
4
19
92
4
19
92
4
19
92
4
19
92
4
19
92
4
19
92
4
19
92
4
19
92
4
19
92
4
19
92
4
19
92
4
19
92
4
19
92
4
19
92
4
19
92
4
19
92
4
19
92
4
19
92
4
19
92
4
19
92
4
19
92
4
19
92
4
19
92
4
19
92
4
19
92
4
19
92
4
19
92
4
19
92
4
19
92
4
19
92
4
19
92
4
19
92
4
19
92
4
19
92
4
19
92
4
19
92
4
19
92
4
19
108
23
30
108
23
30
108
23
30
108
23
30
108
23
30
108
23
30
108
23
30
108
23
30
108
23
30
108
23
30
108
23
30
108
23
30
108
23
30
108
23
30
108
23
30
108
23
30
108
23
30
108
23
30
108
23
30
108
23
30
108
23
30
108
23
30
108
23
30
108
23
30
108
23
30
108
23
30
108
23
30
108
23
30
108
23
30
108
23
30
108
23
30
108
23
30
108
23
30
108
23
30
108
23
30
108
23
30
108
23
30
108
23
30
108
23
30
108
23
30
108
23
30
108
23
30
108
23
30
108
23
30
108
23
30
108
23
30
108
23
30
108
23
30
108
23
30
108
23
30
108
23
30
108
23
30
108
23
30
108
23
30
108
23
30
122
36
40
122
36
40
122
36
40
122
36
40
122
36
40
122
36
40
122
36
40
122
36
40
122
36
40
122
36
40
122
36
40
122
36
40
122
36
40
122
36
40
122
36
40
122
36
40
122
36
40
122
36
40
122
36
40
122
36
40
122
36
40
122
36
40
122
36
40
122
36
40
122
36
40
122
36
40
122
36
40
122
36
40
122
36
40
122
36
40
122
36
40
122
36
40
122
36
40
122
36
40
122
36
40
122
36
40
122
36
40
122
36
40
122
36
40
122
36
40
122
36
40
147
59
59
147
59
59
147
59
59
147
59
59
147
59
59
147
59
59
147
59
59
147
59
59
147
59
59
147
59
59
147
59
59
147
59
59
147
59
59
147
59
59
147
59
59
147
59
59
147
59
59
147
59
59
147
59
59
147
59
59
147
59
59
147
59
59
147
59
59
147
59
59
147
59
59
147
59
59
147
59
59
147
59
59
147
59
59
147
59
59
147
59
59
147
59
59
147
59
59
147
59
59
147
59
59
147
59
59
147
59
59
147
59
59
147
59
59
147
59
59
147
59
59
147
59
59
147
59
59
147
59
59
147
59
59
147
59
59
147
59
59
147
59
59
147
59
59
147
59
59
147
59
59
147
59
59
147
59
59
176
85
83
176
85
83
176
85
83
176
85
83
176
85
83
176
85
83
176
85
83
176
85
83
176
85
83
176
85
83
176
85
83
176
85
83
176
85
83
176
85
83
176
85
83
176
85
83
176
85
83
176
85
83
176
85
83
176
85
83
176
85
83
176
85
83
176
85
83
176
85
83
176
85
83
176
85
83
176
85
83
176
85
83
176
85
83
176
85
83
176
85
83
176
85
83
176
85
83
176
85
83
176
85
83
176
85
83
176
85
83
176
85
83
176
85
83
176
85
83
176
85
83
176
85
83
176
85
83
176
85
83
176
85
83
176
85
83
176
85
83
176
85
83
176
85
83
176
85
83
176
85
83
176
85
83
176
85
83
176
85
83
176
85
83
92
4
19
92
4
19
92
4
19
92
4
19
92
4
19
92
4
19
92
4
19
92
4
19
92
4
19
92
4
19
92
4
19
92
4
19
92
4
19
92
4
19
92
4
19
92
4
19
92
4
19
92
4
19
92
4
19
92
4
19
92
4
19
92
4
19
92
4
19
92
4
19
92
4
19
92
4
19
92
4
19
92
4
19
92
4
19
92
4
19
92
4
19
92
4
19
92
4
19
92
4
19
92
4
19
92
4
19
92
4
19
92
4
19
92
4
19
92
4
19
92
4
19
92
4
19
92
4
19
92
4
19
92
4
19
92
4
19
92
4
19
92
4
19
92
4
19
92
4
19
92
4
19
92
4
19
108
23
30
108
23
30
108
23
30
108
23
30
108
23
30
108
23
30
108
23
30
108
23
30
108
23
30
108
23
30
108
23
30
108
23
30
108
23
30
108
23
30
108
23
30
108
23
30
108
23
30
108
23
30
108
23
30
108
23
30
108
23
30
108
23
30
108
23
30
108
23
30
108
23
30
108
23
30
108
23
30
108
23
30
108
23
30
108
23
30
108
23
30
108
23
30
108
23
30
108
23
30
108
23
30
108
23
30
108
23
30
108
23
30
108
23
30
108
23
30
108
23
30
108
23
30
108
23
30
108
23
30
108
23
30
108
23
30
108
23
30
108
23
30
108
23
30
108
23
30
108
23
30
108
23
30
108
23
30
108
23
30
108
23
30
122
36
40
122
36
40
122
36
40
122
36
40
122
36
40
122
36
40
122
36
40
122
36
40
122
36
40
122
36
40
122
36
40
122
36
40
122
36
40
122
36
40
122
36
40
122
36
40
122
36
40
122
36
40
122
36
40
122
36
40
122
36
40
122
36
40
122
36
40
122
36
40
122
36
40
122
36
40
122
36
40
122
36
40
122
36
40
122
36
40
122
36
40
122
36
40
122
36
40
122
36
40
122
36
40
122
36
40
122
36
40
122
36
40
122
36
40
122
36
40
122
36
40
147
59
59
147
59
59
147
59
59
147
59
59
147
59
59
147
59
59
147
59
59
147
59
59
147
59
59
147
59
59
147
59
59
147
59
59
147
59
59
147
59
59
147
59
59
147
59
59
147
59
59
147
59
59
147
59
59
147
59
59
147
59
59
147
59
59
147
59
59
147
59
59
147
59
59
147
59
59
147
59
59
147
59
59
147
59
59
147
59
59
147
59
59
147
59
59
147
59
59
147
59
59
147
59
59
147
59
59
147
59
59
147
59
59
147
59
59
147
59
59
147
59
59
147
59
59
147
59
59
147
59
59
147
59
59
147
59
59
147
59
59
147
59
59
147
59
59
147
59
59
147
59
59
147
59
59
147
59
59
176
85
83
176
85
83
176
85
83
176
85
83
176
85
83
176
85
83
176
85
83
176
85
83
176
85
83
176
85
83
176
85
83
176
85
83
176
85
83
176
85
83
176
85
83
176
85
83
176
85
83
176
85
83
176
85
83
176
85
83
176
85
83
176
85
83
176
85
83
176
85
83
176
85
83
176
85
83
176
85
83
176
85
83
176
85
83
176
85
83
176
85
83
176
85
83
176
85
83
176
85
83
176
85
83
176
85
83
176
85
83
176
85
83
176
85
83
176
85
83
176
85
83
176
85
83
176
85
83
176
85
83
176
85
83
176
85
83
176
85
83
176
85
83
176
85
83
176
85
83
176
85
83
176
85
83
176
85
83
176
85
83
176
85
83
92
4
19
92
4
19
92
4
19
92
4
19
92
4
19
92
4
19
92
4
19
92
4
19
92
4
19
92
4
19
92
4
19
92
4
19
92
4
19
92
4
19
92
4
19
92
4
19
92
4
19
92
4
19
92
4
19
92
4
19
92
4
19
92
4
19
92
4
19
92
4
19
92
4
19
92
4
19
92
4
19
92
4
19
92
4
19
92
4
19
92
4
19
92
4
19
92
4
19
92
4
19
92
4
19
92
4
19
92
4
19
92
4
19
92
4
19
92
4
19
92
4
19
92
4
19
92
4
19
92
4
19
92
4
19
92
4
19
92
4
19
92
4
19
92
4
19
92
4
19
92
4
19
92
4
19
108
23
30
108
23
30
108
23
30
108
23
30
108
23
30
108
23
30
108
23
30
108
23
30
108
23
30
108
23
30
108
23
30
108
23
30
108
23
30
108
23
30
108
23
30
108
23
30
108
23
30
108
23
30
108
23
30
108
23
30
108
23
30
108
23
30
108
23
30
108
23
30
108
23
30
108
23
30
108
23
30
108
23
30
108
23
30
108
23
30
108
23
30
108
23
30
108
23
30
108
23
30
108
23
30
108
23
30
108
23
30
108
23
30
108
23
30
108
23
30
108
23
30
108
23
30
108
23
30
108
23
30
108
23
30
108
23
30
108
23
30
108
23
30
108
23
30
108
23
30
108
23
30
108
23
30
108
23
30
108
23
30
108
23
30
122
36
40
122
36
40
122
36
40
122
36
40
122
36
40
122
36
40
122
36
40
122
36
40
122
36
40
122
36
40
122
36
40
122
36
40
122
36
40
122
36
40
122
36
40
122
36
40
122
36
40
122
36
40
122
36
40
122
36
40
122
36
40
122
36
40
122
36
40
122
36
40
122
36
40
122
36
40
122
36
40
122
36
40
122
36
40
122
36
40
122
36
40
122
36
40
122
36
40
122
36
40
122
36
40
122
36
40
122
36
40
122
36
40
122
36
40
122
36
40
122
36
40
147
59
59
147
59
59
147
59
59
147
59
59
147
59
59
147
59
59
147
59
59
147
59
59
147
59
59
147
59
59
147
59
59
147
59
59
147
59
59
147
59
59
147
59
59
147
59
59
147
59
59
147
59
59
147
59
59
147
59
59
147
59
59
147
59
59
147
59
59
147
59
59
147
59
59
147
59
59
147
59
59
147
59
59
147
59
59
147
59
59
147
59
59
147
59
59
147
59
59
147
59
59
147
59
59
147
59
59
147
59
59
147
59
59
147
59
59
147
59
59
147
59
59
147
59
59
147
59
59
147
59
59
147
59
59
147
59
59
147
59
59
147
59
59
147
59
59
147
59
59
147
59
59
147
59
59
147
59
59
176
85
83
176
85
83
176
85
83
176
85
83
176
85
83
176
85
83
176
85
83
176
85
83
176
85
83
176
85
83
176
85
83
176
85
83
176
85
83
176
85
83
176
85
83
176
85
83
176
85
83
176
85
83
176
85
83
176
85
83
176
85
83
176
85
83
176
85
83
176
85
83
176
85
83
176
85
83
176
85
83
176
85
83
176
85
83
176
85
83
176
85
83
176
85
83
176
85
83
176
85
83
176
85
83
176
85
83
176
85
83
176
85
83
176
85
83
176
85
83
176
85
83
176
85
83
176
85
83
176
85
83
176
85
83
176
85
83
176
85
83
176
85
83
176
85
83
176
85
83
176
85
83
176
85
83
176
85
83
176
85
83
176
85
83
92
4
19
92
4
19
92
4
19
92
4
19
92
4
19
92
4
19
92
4
19
92
4
19
92
4
19
92
4
19
92
4
19
92
4
19
92
4
19
92
4
19
92
4
19
92
4
19
92
4
19
92
4
19
92
4
19
92
4
19
92
4
19
92
4
19
92
4
19
92
4
19
92
4
19
92
4
19
92
4
19
92
4
19
92
4
19
92
4
19
92
4
19
92
4
19
92
4
19
92
4
19
92
4
19
92
4
19
92
4
19
92
4
19
92
4
19
92
4
19
92
4
19
92
4
19
92
4
19
92
4
19
92
4
19
92
4
19
92
4
19
92
4
19
92
4
19
92
4
19
92
4
19
92
4
19
108
23
30
108
23
30
108
23
30
108
23
30
108
23
30
108
23
30
108
23
30
108
23
30
108
23
30
108
23
30
108
23
30
108
23
30
108
23
30
108
23
30
108
23
30
108
23
30
108
23
30
108
23
30
108
23
30
108
23
30
108
23
30
108
23
30
108
23
30
108
23
30
108
23
30
108
23
30
108
23
30
108
23
30
108
23
30
108
23
30
108
23
30
108
23
30
108
23
30
108
23
30
108
23
30
108
23
30
108
23
30
108
23
30
108
23
30
108
23
30
108
23
30
108
23
30
108
23
30
108
23
30
108
23
30
108
23
30
108
23
30
108
23
30
108
23
30
108
23
30
108
23
30
108
23
30
108
23
30
108
23
30
108
23
30
122
36
40
122
36
40
122
36
40
122
36
40
122
36
40
122
36
40
122
36
40
122
36
40
122
36
40
122
36
40
122
36
40
122
36
40
122
36
40
122
36
40
122
36
40
122
36
40
122
36
40
122
36
40
122
36
40
122
36
40
122
36
40
122
36
40
122
36
40
122
36
40
122
36
40
122
36
40
122
36
40
122
36
40
122
36
40
122
36
40
122
36
40
122
36
40
122
36
40
122
36
40
122
36
40
122
36
40
122
36
40
122
36
40
122
36
40
122
36
40
122
36
40
147
59
59
147
59
59
147
59
59
147
59
59
147
59
59
147
59
59
147
59
59
147
59
59
147
59
59
147
59
59
147
59
59
147
59
59
147
59
59
147
59
59
147
59
59
147
59
59
147
59
59
147
59
59
147
59
59
147
59
59
147
59
59
147
59
59
147
59
59
147
59
59
147
59
59
147
59
59
147
59
59
147
59
59
147
59
59
147
59
59
147
59
59
147
59
59
147
59
59
147
59
59
147
59
59
147
59
59
147
59
59
147
59
59
147
59
59
147
59
59
147
59
59
147
59
59
147
59
59
147
59
59
147
59
59
147
59
59
147
59
59
147
59
59
147
59
59
147
59
59
147
59
59
147
59
59
147
59
59
176
85
83
176
85
83
176
85
83
176
85
83
176
85
83
176
85
83
176
85
83
176
85
83
176
85
83
176
85
83
176
85
83
176
85
83
176
85
83
176
85
83
176
85
83
176
85
83
176
85
83
176
85
83
176
85
83
176
85
83
176
85
83
176
85
83
176
85
83
176
85
83
176
85
83
176
85
83
176
85
83
176
85
83
176
85
83
176
85
83
176
85
83
176
85
83
176
85
83
176
85
83
176
85
83
176
85
83
176
85
83
176
85
83
176
85
83
176
85
83
176
85
83
176
85
83
176
85
83
176
85
83
176
85
83
176
85
83
176
85
83
176
85
83
176
85
83
176
85
83
176
85
83
176
85
83
176
85
83
176
85
83
176
85
83
92
4
19
92
4
19
92
4
19
92
4
19
92
4
19
92
4
19
92
4
19
92
4
19
92
4
19
92
4
19
92
4
19
92
4
19
92
4
19
92
4
19
92
4
19
92
4
19
92
4
19
92
4
19
92
4
19
92
4
19
92
4
19
92
4
19
92
4
19
92
4
19
92
4
19
92
4
19
92
4
19
92
4
19
92
4
19
92
4
19
92
4
19
92
4
19
92
4
19
92
4
19
92
4
19
92
4
19
92
4
19
92
4
19
92
4
19
92
4
19
92
4
19
92
4
19
92
4
19
92
4
19
92
4
19
92
4
19
92
4
19
92
4
19
92
4
19
92
4
19
92
4
19
92
4
19
108
23
30
108
23
30
108
23
30
108
23
30
108
23
30
108
23
30
108
23
30
108
23
30
108
23
30
108
23
30
108
23
30
108
23
30
108
23
30
108
23
30
108
23
30
108
23
30
108
23
30
108
23
30
108
23
30
108
23
30
108
23
30
108
23
30
108
23
30
108
23
30
108
23
30
108
23
30
108
23
30
108
23
30
108
23
30
108
23
30
108
23
30
108
23
30
108
23
30
108
23
30
108
23
30
108
23
30
108
23
30
108
23
30
108
23
30
108
23
30
108
23
30
108
23
30
108
23
30
108
23
30
108
23
30
108
23
30
108
23
30
108
23
30
108
23
30
108
23
30
108
23
30
108
23
30
108
23
30
108
23
30
108
23
30
122
36
40
122
36
40
122
36
40
122
36
40
122
36
40
122
36
40
122
36
40
122
36
40
122
36
40
122
36
40
122
36
40
122
36
40
122
36
40
122
36
40
122
36
40
122
36
40
122
36
40
122
36
40
122
36
40
122
36
40
122
36
40
122
36
40
122
36
40
122
36
40
122
36
40
122
36
40
122
36
40
122
36
40
122
36
40
122
36
40
122
36
40
122
36
40
122
36
40
122
36
40
122
36
40
122
36
40
122
36
40
122
36
40
122
36
40
122
36
40
122
36
40
147
59
59
147
59
59
147
59
59
147
59
59
147
59
59
147
59
59
147
59
59
147
59
59
147
59
59
147
59
59
147
59
59
147
59
59
147
59
59
147
59
59
147
59
59
147
59
59
147
59
59
147
59
59
147
59
59
147
59
59
147
59
59
147
59
59
147
59
59
147
59
59
147
59
59
147
59
59
147
59
59
147
59
59
147
59
59
147
59
59
147
59
59
147
59
59
147
59
59
147
59
59
147
59
59
147
59
59
147
59
59
147
59
59
147
59
59
147
59
59
147
59
59
147
59
59
147
59
59
147
59
59
147
59
59
147
59
59
147
59
59
147
59
59
147
59
59
147
59
59
147
59
59
147
59
59
147
59
59
176
85
83
176
85
83
176
85
83
176
85
83
176
85
83
176
85
83
176
85
83
176
85
83
176
85
83
176
85
83
176
85
83
176
85
83
176
85
83
176
85
83
176
85
83
176
85
83
176
85
83
176
85
83
176
85
83
176
85
83
176
85
83
176
85
83
176
85
83
176
85
83
176
85
83
176
85
83
176
85
83
176
85
83
176
85
83
176
85
83
176
85
83
176
85
83
176
85
83
176
85
83
176
85
83
176
85
83
176
85
83
176
85
83
176
85
83
176
85
83
176
85
83
176
85
83
176
85
83
176
85
83
176
85
83
176
85
83
176
85
83
176
85
83
176
85
83
176
85
83
176
85
83
176
85
83
176
85
83
176
85
83
176
85
83
92
4
19
92
4
19
92
4
19
92
4
19
92
4
19
92
4
19
92
4
19
92
4
19
92
4
19
92
4
19
92
4
19
92
4
19
92
4
19
92
4
19
92
4
19
92
4
19
92
4
19
92
4
19
92
4
19
92
4
19
92
4
19
92
4
19
92
4
19
92
4
19
92
4
19
92
4
19
92
4
19
92
4
19
92
4
19
92
4
19
92
4
19
92
4
19
92
4
19
92
4
19
92
4
19
92
4
19
92
4
19
92
4
19
92
4
19
92
4
19
92
4
19
92
4
19
92
4
19
92
4
19
92
4
19
92
4
19
92
4
19
92
4
19
92
4
19
92
4
19
92
4
19
92
4
19
108
23
30
108
23
30
108
23
30
108
23
30
108
23
30
108
23
30
108
23
30
108
23
30
108
23
30
108
23
30
108
23
30
108
23
30
108
23
30
108
23
30
108
23
30
108
23
30
108
23
30
108
23
30
108
23
30
108
23
30
108
23
30
108
23
30
108
23
30
108
23
30
108
23
30
108
23
30
108
23
30
108
23
30
108
23
30
108
23
30
108
23
30
108
23
30
108
23
30
108
23
30
108
23
30
108
23
30
108
23
30
108
23
30
108
23
30
108
23
30
108
23
30
108
23
30
108
23
30
108
23
30
108
23
30
108
23
30
108
23
30
108
23
30
108
23
30
108
23
30
108
23
30
108
23
30
108
23
30
108
23
30
108
23
30
122
36
40
122
36
40
122
36
40
122
36
40
122
36
40
122
36
40
122
36
40
122
36
40
122
36
40
122
36
40
122
36
40
122
36
40
122
36
40
122
36
40
122
36
40
122
36
40
122
36
40
122
36
40
122
36
40
122
36
40
122
36
40
122
36
40
122
36
40
122
36
40
122
36
40
122
36
40
122
36
40
122
36
40
122
36
40
122
36
40
122
36
40
122
36
40
122
36
40
122
36
40
122
36
40
122
36
40
122
36
40
122
36
40
122
36
40
122
36
40
122
36
40
147
59
59
147
59
59
147
59
59
147
59
59
147
59
59
147
59
59
147
59
59
147
59
59
147
59
59
147
59
59
147
59
59
147
59
59
147
59
59
147
59
59
147
59
59
147
59
59
147
59
59
147
59
59
147
59
59
147
59
59
147
59
59
147
59
59
147
59
59
147
59
59
147
59
59
147
59
59
147
59
59
147
59
59
147
59
59
147
59
59
147
59
59
147
59
59
147
59
59
147
59
59
147
59
59
147
59
59
147
59
59
147
59
59
147
59
59
147
59
59
147
59
59
147
59
59
147
59
59
147
59
59
147
59
59
147
59
59
147
59
59
147
59
59
147
59
59
147
59
59
147
59
59
147
59
59
147
59
59
176
85
83
176
85
83
176
85
83
176
85
83
176
85
83
176
85
83
176
85
83
176
85
83
176
85
83
176
85
83
176
85
83
176
85
83
176
85
83
176
85
83
176
85
83
176
85
83
176
85
83
176
85
83
176
85
83
176
85
83
176
85
83
176
85
83
176
85
83
176
85
83
176
85
83
176
85
83
176
85
83
176
85
83
176
85
83
176
85
83
176
85
83
176
85
83
176
85
83
176
85
83
176
85
83
176
85
83
176
85
83
176
85
83
176
85
83
176
85
83
176
85
83
176
85
83
176
85
83
176
85
83
176
85
83
176
85
83
176
85
83
176
85
83
176
85
83
176
85
83
176
85
83
176
85
83
176
85
83
176
85
83
176
85
83
92
4
19
92
4
19
92
4
19
92
4
19
92
4
19
92
4
19
92
4
19
92
4
19
92
4
19
92
4
19
92
4
19
92
4
19
92
4
19
92
4
19
92
4
19
92
4
19
92
4
19
92
4
19
92
4
19
92
4
19
92
4
19
92
4
19
92
4
19
92
4
19
92
4
19
92
4
19
92
4
19
92
4
19
92
4
19
92
4
19
92
4
19
92
4
19
92
4
19
92
4
19
92
4
19
92
4
19
92
4
19
92
4
19
92
4
19
92
4
19
92
4
19
92
4
19
92
4
19
92
4
19
92
4
19
92
4
19
92
4
19
92
4
19
92
4
19
92
4
19
92
4
19
92
4
19
108
23
30
108
23
30
108
23
30
108
23
30
108
23
30
108
23
30
108
23
30
108
23
30
108
23
30
108
23
30
108
23
30
108
23
30
108
23
30
108
23
30
108
23
30
108
23
30
108
23
30
108
23
30
108
23
30
108
23
30
108
23
30
108
23
30
108
23
30
108
23
30
108
23
30
108
23
30
108
23
30
108
23
30
108
23
30
108
23
30
108
23
30
108
23
30
108
23
30
108
23
30
108
23
30
108
23
30
108
23
30
108
23
30
108
23
30
108
23
30
108
23
30
108
23
30
108
23
30
108
23
30
108
23
30
108
23
30
108
23
30
108
23
30
108
23
30
108
23
30
108
23
30
108
23
30
108
23
30
108
23
30
108
23
30
122
36
40
122
36
40
122
36
40
122
36
40
122
36
40
122
36
40
122
36
40
122
36
40
122
36
40
122
36
40
122
36
40
122
36
40
122
36
40
122
36
40
122
36
40
122
36
40
122
36
40
122
36
40
122
36
40
122
36
40
122
36
40
122
36
40
122
36
40
122
36
40
122
36
40
122
36
40
122
36
40
122
36
40
122
36
40
122
36
40
122
36
40
122
36
40
122
36
40
122
36
40
122
36
40
122
36
40
122
36
40
122
36
40
122
36
40
122
36
40
122
36
40
147
59
59
147
59
59
147
59
59
147
59
59
147
59
59
147
59
59
147
59
59
147
59
59
147
59
59
147
59
59
147
59
59
147
59
59
147
59
59
147
59
59
147
59
59
147
59
59
147
59
59
147
59
59
147
59
59
147
59
59
147
59
59
147
59
59
147
59
59
147
59
59
147
59
59
147
59
59
147
59
59
147
59
59
147
59
59
147
59
59
147
59
59
147
59
59
147
59
59
147
59
59
147
59
59
147
59
59
147
59
59
147
59
59
147
59
59
147
59
59
147
59
59
147
59
59
147
59
59
147
59
59
147
59
59
147
59
59
147
59
59
147
59
59
147
59
59
147
59
59
147
59
59
147
59
59
147
59
59
176
85
83
176
85
83
176
85
83
176
85
83
176
85
83
176
85
83
176
85
83
176
85
83
176
85
83
176
85
83
176
85
83
176
85
83
176
85
83
176
85
83
176
85
83
176
85
83
176
85
83
176
85
83
176
85
83
176
85
83
176
85
83
176
85
83
176
85
83
176
85
83
176
85
83
176
85
83
176
85
83
176
85
83
176
85
83
176
85
83
176
85
83
176
85
83
176
85
83
176
85
83
176
85
83
176
85
83
176
85
83
176
85
83
176
85
83
176
85
83
176
85
83
176
85
83
176
85
83
176
85
83
176
85
83
176
85
83
176
85
83
176
85
83
176
85
83
176
85
83
176
85
83
176
85
83
176
85
83
176
85
83
176
85
83
92
4
19
92
4
19
92
4
19
92
4
19
92
4
19
92
4
19
92
4
19
92
4
19
92
4
19
92
4
19
92
4
19
92
4
19
92
4
19
92
4
19
92
4
19
92
4
19
92
4
19
92
4
19
92
4
19
92
4
19
92
4
19
92
4
19
92
4
19
92
4
19
92
4
19
92
4
19
92
4
19
92
4
19
92
4
19
92
4
19
92
4
19
92
4
19
92
4
19
92
4
19
92
4
19
92
4
19
92
4
19
92
4
19
92
4
19
92
4
19
92
4
19
92
4
19
92
4
19
92
4
19
92
4
19
92
4
19
92
4
19
92
4
19
92
4
19
92
4
19
92
4
19
92
4
19
108
23
30
108
23
30
108
23
30
108
23
30
108
23
30
108
23
30
108
23
30
108
23
30
108
23
30
108
23
30
108
23
30
108
23
30
108
23
30
108
23
30
108
23
30
108
23
30
108
23
30
108
23
30
108
23
30
108
23
30
108
23
30
108
23
30
108
23
30
108
23
30
108
23
30
108
23
30
108
23
30
108
23
30
108
23
30
108
23
30
108
23
30
108
23
30
108
23
30
108
23
30
108
23
30
108
23
30
108
23
30
108
23
30
108
23
30
108
23
30
108
23
30
108
23
30
108
23
30
108
23
30
108
23
30
108
23
30
108
23
30
108
23
30
108
23
30
108
23
30
108
23
30
108
23
30
108
23
30
108
23
30
108
23
30
122
36
40
122
36
40
122
36
40
122
36
40
122
36
40
122
36
40
122
36
40
122
36
40
122
36
40
122
36
40
122
36
40
122
36
40
122
36
40
122
36
40
122
36
40
122
36
40
122
36
40
122
36
40
122
36
40
122
36
40
122
36
40
122
36
40
122
36
40
122
36
40
122
36
40
122
36
40
122
36
40
122
36
40
122
36
40
122
36
40
122
36
40
122
36
40
122
36
40
122
36
40
122
36
40
122
36
40
122
36
40
122
36
40
122
36
40
122
36
40
122
36
40
147
59
59
147
59
59
147
59
59
147
59
59
147
59
59
147
59
59
147
59
59
147
59
59
147
59
59
147
59
59
147
59
59
147
59
59
147
59
59
147
59
59
147
59
59
147
59
59
147
59
59
147
59
59
147
59
59
147
59
59
147
59
59
147
59
59
147
59
59
147
59
59
147
59
59
147
59
59
147
59
59
147
59
59
147
59
59
147
59
59
147
59
59
147
59
59
147
59
59
147
59
59
147
59
59
147
59
59
147
59
59
147
59
59
147
59
59
147
59
59
147
59
59
147
59
59
147
59
59
147
59
59
147
59
59
147
59
59
147
59
59
147
59
59
147
59
59
147
59
59
147
59
59
147
59
59
147
59
59
176
85
83
176
85
83
176
85
83
176
85
83
176
85
83
176
85
83
176
85
83
176
85
83
176
85
83
176
85
83
176
85
83
176
85
83
176
85
83
176
85
83
176
85
83
176
85
83
176
85
83
176
85
83
176
85
83
176
85
83
176
85
83
176
85
83
176
85
83
176
85
83
176
85
83
176
85
83
176
85
83
176
85
83
176
85
83
176
85
83
176
85
83
176
85
83
176
85
83
176
85
83
176
85
83
176
85
83
176
85
83
176
85
83
176
85
83
176
85
83
176
85
83
176
85
83
176
85
83
176
85
83
176
85
83
176
85
83
176
85
83
176
85
83
176
85
83
176
85
83
176
85
83
176
85
83
176
85
83
176
85
83
176
85
83
92
4
19
92
4
19
92
4
19
92
4
19
92
4
19
92
4
19
92
4
19
92
4
19
92
4
19
92
4
19
92
4
19
92
4
19
92
4
19
92
4
19
92
4
19
92
4
19
92
4
19
92
4
19
92
4
19
92
4
19
92
4
19
92
4
19
92
4
19
92
4
19
92
4
19
92
4
19
92
4
19
92
4
19
92
4
19
92
4
19
92
4
19
92
4
19
92
4
19
92
4
19
92
4
19
92
4
19
92
4
19
92
4
19
92
4
19
92
4
19
92
4
19
92
4
19
92
4
19
92
4
19
92
4
19
92
4
19
92
4
19
92
4
19
92
4
19
92
4
19
92
4
19
92
4
19
108
23
30
108
23
30
108
23
30
108
23
30
108
23
30
108
23
30
108
23
30
108
23
30
108
23
30
108
23
30
108
23
30
108
23
30
108
23
30
108
23
30
108
23
30
108
23
30
108
23
30
108
23
30
108
23
30
108
23
30
108
23
30
108
23
30
108
23
30
108
23
30
108
23
30
108
23
30
108
23
30
108
23
30
108
23
30
108
23
30
108
23
30
108
23
30
108
23
30
108
23
30
108
23
30
108
23
30
108
23
30
108
23
30
108
23
30
108
23
30
108
23
30
108
23
30
108
23
30
108
23
30
108
23
30
108
23
30
108
23
30
108
23
30
108
23
30
108
23
30
108
23
30
108
23
30
108
23
30
108
23
30
108
23
30
122
36
40
122
36
40
122
36
40
122
36
40
122
36
40
122
36
40
122
36
40
122
36
40
122
36
40
122
36
40
122
36
40
122
36
40
122
36
40
122
36
40
122
36
40
122
36
40
122
36
40
122
36
40
122
36
40
122
36
40
122
36
40
122
36
40
122
36
40
122
36
40
122
36
40
122
36
40
122
36
40
122
36
40
122
36
40
122
36
40
122
36
40
122
36
40
122
36
40
122
36
40
122
36
40
122
36
40
122
36
40
122
36
40
122
36
40
122
36
40
122
36
40
147
59
59
147
59
59
147
59
59
147
59
59
147
59
59
147
59
59
147
59
59
147
59
59
147
59
59
147
59
59
147
59
59
147
59
59
147
59
59
147
59
59
147
59
59
147
59
59
147
59
59
147
59
59
147
59
59
147
59
59
147
59
59
147
59
59
147
59
59
147
59
59
147
59
59
147
59
59
147
59
59
147
59
59
147
59
59
147
59
59
147
59
59
147
59
59
147
59
59
147
59
59
147
59
59
147
59
59
147
59
59
147
59
59
147
59
59
147
59
59
147
59
59
147
59
59
147
59
59
147
59
59
147
59
59
147
59
59
147
59
59
147
59
59
147
59
59
147
59
59
147
59
59
147
59
59
147
59
59
176
85
83
176
85
83
176
85
83
176
85
83
176
85
83
176
85
83
176
85
83
176
85
83
176
85
83
176
85
83
176
85
83
176
85
83
176
85
83
176
85
83
176
85
83
176
85
83
176
85
83
176
85
83
176
85
83
176
85
83
176
85
83
176
85
83
176
85
83
176
85
83
176
85
83
176
85
83
176
85
83
176
85
83
176
85
83
176
85
83
176
85
83
176
85
83
176
85
83
176
85
83
176
85
83
176
85
83
176
85
83
176
85
83
176
85
83
176
85
83
176
85
83
176
85
83
176
85
83
176
85
83
176
85
83
176
85
83
176
85
83
176
85
83
176
85
83
176
85
83
176
85
83
176
85
83
176
85
83
176
85
83
176
85
83
92
4
19
92
4
19
92
4
19
92
4
19
92
4
19
92
4
19
92
4
19
92
4
19
92
4
19
92
4
19
92
4
19
92
4
19
92
4
19
92
4
19
92
4
19
92
4
19
92
4
19
92
4
19
92
4
19
92
4
19
92
4
19
92
4
19
92
4
19
92
4
19
92
4
19
92
4
19
92
4
19
92
4
19
92
4
19
92
4
19
92
4
19
92
4
19
92
4
19
92
4
19
92
4
19
92
4
19
92
4
19
92
4
19
92
4
19
92
4
19
92
4
19
92
4
19
92
4
19
92
4
19
92
4
19
92
4
19
92
4
19
92
4
19
92
4
19
92
4
19
92
4
19
92
4
19
108
23
30
108
23
30
108
23
30
108
23
30
108
23
30
108
23
30
108
23
30
108
23
30
108
23
30
108
23
30
108
23
30
108
23
30
108
23
30
108
23
30
108
23
30
108
23
30
108
23
30
108
23
30
108
23
30
108
23
30
108
23
30
108
23
30
108
23
30
108
23
30
108
23
30
108
23
30
108
23
30
108
23
30
108
23
30
108
23
30
108
23
30
108
23
30
108
23
30
108
23
30
108
23
30
108
23
30
108
23
30
108
23
30
108
23
30
108
23
30
108
23
30
108
23
30
108
23
30
108
23
30
108
23
30
108
23
30
108
23
30
108
23
30
108
23
30
108
23
30
108
23
30
108
23
30
108
23
30
108
23
30
108
23
30
122
36
40
122
36
40
122
36
40
122
36
40
122
36
40
122
36
40
122
36
40
122
36
40
122
36
40
122
36
40
122
36
40
122
36
40
122
36
40
122
36
40
122
36
40
122
36
40
122
36
40
122
36
40
122
36
40
122
36
40
122
36
40
122
36
40
122
36
40
122
36
40
122
36
40
122
36
40
122
36
40
122
36
40
122
36
40
122
36
40
122
36
40
122
36
40
122
36
40
122
36
40
122
36
40
122
36
40
122
36
40
122
36
40
122
36
40
122
36
40
122
36
40
147
59
59
147
59
59
147
59
59
147
59
59
147
59
59
147
59
59
147
59
59
147
59
59
147
59
59
147
59
59
147
59
59
147
59
59
147
59
59
147
59
59
147
59
59
147
59
59
147
59
59
147
59
59
147
59
59
147
59
59
147
59
59
147
59
59
147
59
59
147
59
59
147
59
59
147
59
59
147
59
59
147
59
59
147
59
59
147
59
59
147
59
59
147
59
59
147
59
59
147
59
59
147
59
59
147
59
59
147
59
59
147
59
59
147
59
59
147
59
59
147
59
59
147
59
59
147
59
59
147
59
59
147
59
59
147
59
59
147
59
59
147
59
59
147
59
59
147
59
59
147
59
59
147
59
59
147
59
59
176
85
83
176
85
83
176
85
83
176
85
83
176
85
83
176
85
83
176
85
83
176
85
83
176
85
83
176
85
83
176
85
83
176
85
83
176
85
83
176
85
83
176
85
83
176
85
83
176
85
83
176
85
83
176
85
83
176
85
83
176
85
83
176
85
83
176
85
83
176
85
83
176
85
83
176
85
83
176
85
83
176
85
83
176
85
83
176
85
83
176
85
83
176
85
83
176
85
83
176
85
83
176
85
83
176
85
83
176
85
83
176
85
83
176
85
83
176
85
83
176
85
83
176
85
83
176
85
83
176
85
83
176
85
83
176
85
83
176
85
83
176
85
83
176
85
83
176
85
83
176
85
83
176
85
83
176
85
83
176
85
83
176
85
83
92
4
19
92
4
19
92
4
19
92
4
19
92
4
19
92
4
19
92
4
19
92
4
19
92
4
19
92
4
19
92
4
19
92
4
19
92
4
19
92
4
19
92
4
19
92
4
19
92
4
19
92
4
19
92
4
19
92
4
19
92
4
19
92
4
19
92
4
19
92
4
19
92
4
19
92
4
19
92
4
19
92
4
19
92
4
19
92
4
19
92
4
19
92
4
19
92
4
19
92
4
19
92
4
19
92
4
19
92
4
19
92
4
19
92
4
19
92
4
19
92
4
19
92
4
19
92
4
19
92
4
19
92
4
19
92
4
19
92
4
19
92
4
19
92
4
19
92
4
19
92
4
19
92
4
19
108
23
30
108
23
30
108
23
30
108
23
30
108
23
30
108
23
30
108
23
30
108
23
30
108
23
30
108
23
30
108
23
30
108
23
30
108
23
30
108
23
30
108
23
30
108
23
30
108
23
30
108
23
30
108
23
30
108
23
30
108
23
30
108
23
30
108
23
30
108
23
30
108
23
30
108
23
30
108
23
30
108
23
30
108
23
30
108
23
30
108
23
30
108
23
30
108
23
30
108
23
30
108
23
30
108
23
30
108
23
30
108
23
30
108
23
30
108
23
30
108
23
30
108
23
30
108
23
30
108
23
30
108
23
30
108
23
30
108
23
30
108
23
30
108
23
30
108
23
30
108
23
30
108
23
30
108
23
30
108
23
30
108
23
30
122
36
40
122
36
40
122
36
40
122
36
40
122
36
40
122
36
40
122
36
40
122
36
40
122
36
40
122
36
40
122
36
40
122
36
40
122
36
40
122
36
40
122
36
40
122
36
40
122
36
40
122
36
40
122
36
40
122
36
40
122
36
40
122
36
40
122
36
40
122
36
40
122
36
40
122
36
40
122
36
40
122
36
40
122
36
40
122
36
40
122
36
40
122
36
40
122
36
40
122
36
40
122
36
40
122
36
40
122
36
40
122
36
40
122
36
40
122
36
40
122
36
40
147
59
59
147
59
59
147
59
59
147
59
59
147
59
59
147
59
59
147
59
59
147
59
59
147
59
59
147
59
59
147
59
59
147
59
59
147
59
59
147
59
59
147
59
59
147
59
59
147
59
59
147
59
59
147
59
59
147
59
59
147
59
59
147
59
59
147
59
59
147
59
59
147
59
59
147
59
59
147
59
59
147
59
59
147
59
59
147
59
59
147
59
59
147
59
59
147
59
59
147
59
59
147
59
59
147
59
59
147
59
59
147
59
59
147
59
59
147
59
59
147
59
59
147
59
59
147
59
59
147
59
59
147
59
59
147
59
59
147
59
59
147
59
59
147
59
59
147
59
59
147
59
59
147
59
59
147
59
59
176
85
83
176
85
83
176
85
83
176
85
83
176
85
83
176
85
83
176
85
83
176
85
83
176
85
83
176
85
83
176
85
83
176
85
83
176
85
83
176
85
83
176
85
83
176
85
83
176
85
83
176
85
83
176
85
83
176
85
83
176
85
83
176
85
83
176
85
83
176
85
83
176
85
83
176
85
83
176
85
83
176
85
83
176
85
83
176
85
83
176
85
83
176
85
83
176
85
83
176
85
83
176
85
83
176
85
83
176
85
83
176
85
83
176
85
83
176
85
83
176
85
83
176
85
83
176
85
83
176
85
83
176
85
83
176
85
83
176
85
83
176
85
83
176
85
83
176
85
83
176
85
83
176
85
83
176
85
83
176
85
83
176
85
83
92
4
19
92
4
19
92
4
19
92
4
19
92
4
19
92
4
19
92
4
19
92
4
19
92
4
19
92
4
19
92
4
19
92
4
19
92
4
19
92
4
19
92
4
19
92
4
19
92
4
19
92
4
19
92
4
19
92
4
19
92
4
19
92
4
19
92
4
19
92
4
19
92
4
19
92
4
19
92
4
19
92
4
19
92
4
19
92
4
19
92
4
19
92
4
19
92
4
19
92
4
19
92
4
19
92
4
19
92
4
19
92
4
19
92
4
19
92
4
19
92
4
19
92
4
19
92
4
19
92
4
19
92
4
19
92
4
19
92
4
19
92
4
19
92
4
19
92
4
19
92
4
19
92
4
19
108
23
30
108
23
30
108
23
30
108
23
30
108
23
30
108
23
30
108
23
30
108
23
30
108
23
30
108
23
30
108
23
30
108
23
30
108
23
30
108
23
30
108
23
30
108
23
30
108
23
30
108
23
30
108
23
30
108
23
30
108
23
30
108
23
30
108
23
30
108
23
30
108
23
30
108
23
30
108
23
30
108
23
30
108
23
30
108
23
30
108
23
30
108
23
30
108
23
30
108
23
30
108
23
30
108
23
30
108
23
30
108
23
30
108
23
30
108
23
30
108
23
30
108
23
30
108
23
30
108
23
30
108
23
30
108
23
30
108
23
30
108
23
30
108
23
30
108
23
30
108
23
30
108
23
30
108
23
30
108
23
30
108
23
30
122
36
40
122
36
40
122
36
40
122
36
40
122
36
40
122
36
40
122
36
40
122
36
40
122
36
40
122
36
40
122
36
40
122
36
40
122
36
40
122
36
40
122
36
40
122
36
40
122
36
40
122
36
40
122
36
40
122
36
40
122
36
40
122
36
40
122
36
40
122
36
40
122
36
40
122
36
40
122
36
40
122
36
40
122
36
40
122
36
40
122
36
40
122
36
40
122
36
40
122
36
40
122
36
40
122
36
40
122
36
40
122
36
40
122
36
40
122
36
40
122
36
40
147
59
59
147
59
59
147
59
59
147
59
59
147
59
59
147
59
59
147
59
59
147
59
59
147
59
59
147
59
59
147
59
59
147
59
59
147
59
59
147
59
59
147
59
59
147
59
59
147
59
59
147
59
59
147
59
59
147
59
59
147
59
59
147
59
59
147
59
59
147
59
59
147
59
59
147
59
59
147
59
59
147
59
59
147
59
59
147
59
59
147
59
59
147
59
59
147
59
59
147
59
59
147
59
59
147
59
59
147
59
59
147
59
59
147
59
59
147
59
59
147
59
59
147
59
59
147
59
59
147
59
59
147
59
59
147
59
59
147
59
59
147
59
59
147
59
59
147
59
59
147
59
59
147
59
59
147
59
59
176
85
83
176
85
83
176
85
83
176
85
83
176
85
83
176
85
83
176
85
83
176
85
83
176
85
83
176
85
83
176
85
83
176
85
83
176
85
83
176
85
83
176
85
83
176
85
83
176
85
83
176
85
83
176
85
83
176
85
83
176
85
83
176
85
83
176
85
83
176
85
83
176
85
83
176
85
83
176
85
83
176
85
83
176
85
83
176
85
83
176
85
83
176
85
83
176
85
83
176
85
83
176
85
83
176
85
83
176
85
83
176
85
83
176
85
83
176
85
83
176
85
83
176
85
83
176
85
83
176
85
83
176
85
83
176
85
83
176
85
83
176
85
83
176
85
83
176
85
83
176
85
83
176
85
83
176
85
83
176
85
83
176
85
83
92
4
19
92
4
19
92
4
19
92
4
19
92
4
19
92
4
19
92
4
19
92
4
19
92
4
19
92
4
19
92
4
19
92
4
19
92
4
19
92
4
19
92
4
19
92
4
19
92
4
19
92
4
19
92
4
19
92
4
19
92
4
19
92
4
19
92
4
19
92
4
19
92
4
19
92
4
19
92
4
19
92
4
19
92
4
19
92
4
19
92
4
19
92
4
19
92
4
19
92
4
19
92
4
19
92
4
19
92
4
19
92
4
19
92
4
19
92
4
19
92
4
19
92
4
19
92
4
19
92
4
19
92
4
19
92
4
19
92
4
19
92
4
19
92
4
19
92
4
19
92
4
19
92
4
19
108
23
30
108
23
30
108
23
30
108
23
30
108
23
30
108
23
30
108
23
30
108
23
30
108
23
30
108
23
30
108
23
30
108
23
30
108
23
30
108
23
30
108
23
30
108
23
30
108
23
30
108
23
30
108
23
30
108
23
30
108
23
30
108
23
30
108
23
30
108
23
30
108
23
30
108
23
30
108
23
30
108
23
30
108
23
30
108
23
30
108
23
30
108
23
30
108
23
30
108
23
30
108
23
30
108
23
30
108
23
30
108
23
30
108
23
30
108
23
30
108
23
30
108
23
30
108
23
30
108
23
30
108
23
30
108
23
30
108
23
30
108
23
30
108
23
30
108
23
30
108
23
30
108
23
30
108
23
30
108
23
30
108
23
30
122
36
40
122
36
40
122
36
40
122
36
40
122
36
40
122
36
40
122
36
40
122
36
40
122
36
40
122
36
40
122
36
40
122
36
40
122
36
40
122
36
40
122
36
40
122
36
40
122
36
40
122
36
40
122
36
40
122
36
40
122
36
40
122
36
40
122
36
40
122
36
40
122
36
40
122
36
40
122
36
40
122
36
40
122
36
40
122
36
40
122
36
40
122
36
40
122
36
40
122
36
40
122
36
40
122
36
40
122
36
40
122
36
40
122
36
40
122
36
40
122
36
40
147
59
59
147
59
59
147
59
59
147
59
59
147
59
59
147
59
59
147
59
59
147
59
59
147
59
59
147
59
59
147
59
59
147
59
59
147
59
59
147
59
59
147
59
59
147
59
59
147
59
59
147
59
59
147
59
59
147
59
59
147
59
59
147
59
59
147
59
59
147
59
59
147
59
59
147
59
59
147
59
59
147
59
59
147
59
59
147
59
59
147
59
59
147
59
59
147
59
59
147
59
59
147
59
59
147
59
59
147
59
59
147
59
59
147
59
59
147
59
59
147
59
59
147
59
59
147
59
59
147
59
59
147
59
59
147
59
59
147
59
59
147
59
59
147
59
59
147
59
59
147
59
59
147
59
59
147
59
59
176
85
83
176
85
83
176
85
83
176
85
83
176
85
83
176
85
83
176
85
83
176
85
83
176
85
83
176
85
83
176
85
83
176
85
83
176
85
83
176
85
83
176
85
83
176
85
83
176
85
83
176
85
83
176
85
83
176
85
83
176
85
83
176
85
83
176
85
83
176
85
83
176
85
83
176
85
83
176
85
83
176
85
83
176
85
83
176
85
83
176
85
83
176
85
83
176
85
83
176
85
83
176
85
83
176
85
83
176
85
83
176
85
83
176
85
83
176
85
83
176
85
83
176
85
83
176
85
83
176
85
83
176
85
83
176
85
83
176
85
83
176
85
83
176
85
83
176
85
83
176
85
83
176
85
83
176
85
83
176
85
83
176
85
83
92
4
19
92
4
19
92
4
19
92
4
19
92
4
19
92
4
19
92
4
19
92
4
19
92
4
19
92
4
19
92
4
19
92
4
19
92
4
19
92
4
19
92
4
19
92
4
19
92
4
19
92
4
19
92
4
19
92
4
19
92
4
19
92
4
19
92
4
19
92
4
19
92
4
19
92
4
19
92
4
19
92
4
19
92
4
19
92
4
19
92
4
19
92
4
19
92
4
19
92
4
19
92
4
19
92
4
19
92
4
19
92
4
19
92
4
19
92
4
19
92
4
19
92
4
19
92
4
19
92
4
19
92
4
19
92
4
19
92
4
19
92
4
19
92
4
19
92
4
19
92
4
19
92
4
19
108
23
30
108
23
30
108
23
30
108
23
30
108
23
30
108
23
30
108
23
30
108
23
30
108
23
30
108
23
30
108
23
30
108
23
30
108
23
30
108
23
30
108
23
30
108
23
30
108
23
30
108
23
30
108
23
30
108
23
30
108
23
30
108
23
30
108
23
30
108
23
30
108
23
30
108
23
30
108
23
30
108
23
30
108
23
30
108
23
30
108
23
30
108
23
30
108
23
30
108
23
30
108
23
30
108
23
30
108
23
30
108
23
30
108
23
30
108
23
30
108
23
30
108
23
30
108
23
30
108
23
30
108
23
30
108
23
30
108
23
30
108
23
30
108
23
30
108
23
30
108
23
30
108
23
30
108
23
30
108
23
30
108
23
30
122
36
40
122
36
40
122
36
40
122
36
40
122
36
40
122
36
40
122
36
40
122
36
40
122
36
40
122
36
40
122
36
40
122
36
40
122
36
40
122
36
40
122
36
40
122
36
40
122
36
40
122
36
40
122
36
40
122
36
40
122
36
40
122
36
40
122
36
40
122
36
40
122
36
40
122
36
40
122
36
40
122
36
40
122
36
40
122
36
40
122
36
40
122
36
40
122
36
40
122
36
40
122
36
40
122
36
40
122
36
40
122
36
40
122
36
40
122
36
40
122
36
40
147
59
59
147
59
59
147
59
59
147
59
59
147
59
59
147
59
59
147
59
59
147
59
59
147
59
59
147
59
59
147
59
59
147
59
59
147
59
59
147
59
59
147
59
59
147
59
59
147
59
59
147
59
59
147
59
59
147
59
59
147
59
59
147
59
59
147
59
59
147
59
59
147
59
59
147
59
59
147
59
59
147
59
59
147
59
59
147
59
59
147
59
59
147
59
59
147
59
59
147
59
59
147
59
59
147
59
59
147
59
59
147
59
59
147
59
59
147
59
59
147
59
59
147
59
59
147
59
59
147
59
59
147
59
59
147
59
59
147
59
59
147
59
59
147
59
59
147
59
59
147
59
59
147
59
59
147
59
59
176
85
83
176
85
83
176
85
83
176
85
83
176
85
83
176
85
83
176
85
83
176
85
83
176
85
83
176
85
83
176
85
83
176
85
83
176
85
83
176
85
83
176
85
83
176
85
83
176
85
83
176
85
83
176
85
83
176
85
83
176
85
83
176
85
83
176
85
83
176
85
83
176
85
83
176
85
83
176
85
83
176
85
83
176
85
83
176
85
83
176
85
83
176
85
83
176
85
83
176
85
83
176
85
83
176
85
83
176
85
83
176
85
83
176
85
83
176
85
83
176
85
83
176
85
83
176
85
83
176
85
83
176
85
83
176
85
83
176
85
83
176
85
83
176
85
83
176
85
83
176
85
83
176
85
83
176
85
83
176
85
83
176
85
83
92
4
19
92
4
19
92
4
19
92
4
19
92
4
19
92
4
19
92
4
19
92
4
19
92
4
19
92
4
19
92
4
19
92
4
19
92
4
19
92
4
19
92
4
19
92
4
19
92
4
19
92
4
19
92
4
19
92
4
19
92
4
19
92
4
19
92
4
19
92
4
19
92
4
19
92
4
19
92
4
19
92
4
19
92
4
19
92
4
19
92
4
19
92
4
19
92
4
19
92
4
19
92
4
19
92
4
19
92
4
19
92
4
19
92
4
19
92
4
19
92
4
19
92
4
19
92
4
19
92
4
19
92
4
19
92
4
19
92
4
19
92
4
19
92
4
19
92
4
19
92
4
19
92
4
19
108
23
30
108
23
30
108
23
30
108
23
30
108
23
30
108
23
30
108
23
30
108
23
30
108
23
30
108
23
30
108
23
30
108
23
30
108
23
30
108
23
30
108
23
30
108
23
30
108
23
30
108
23
30
108
23
30
108
23
30
108
23
30
108
23
30
108
23
30
108
23
30
108
23
30
108
23
30
108
23
30
108
23
30
108
23
30
108
23
30
108
23
30
108
23
30
108
23
30
108
23
30
108
23
30
108
23
30
108
23
30
108
23
30
108
23
30
108
23
30
108
23
30
108
23
30
108
23
30
108
23
30
108
23
30
108
23
30
108
23
30
108
23
30
108
23
30
108
23
30
108
23
30
108
23
30
108
23
30
108
23
30
108
23
30
122
36
40
122
36
40
122
36
40
122
36
40
122
36
40
122
36
40
122
36
40
122
36
40
122
36
40
122
36
40
122
36
40
122
36
40
122
36
40
122
36
40
122
36
40
122
36
40
122
36
40
122
36
40
122
36
40
122
36
40
122
36
40
122
36
40
122
36
40
122
36
40
122
36
40
122
36
40
122
36
40
122
36
40
122
36
40
122
36
40
122
36
40
122
36
40
122
36
40
122
36
40
122
36
40
122
36
40
122
36
40
122
36
40
122
36
40
122
36
40
122
36
40
147
59
59
147
59
59
147
59
59
147
59
59
147
59
59
147
59
59
147
59
59
147
59
59
147
59
59
147
59
59
147
59
59
147
59
59
147
59
59
147
59
59
147
59
59
147
59
59
147
59
59
147
59
59
147
59
59
147
59
59
147
59
59
147
59
59
147
59
59
147
59
59
147
59
59
147
59
59
147
59
59
147
59
59
147
59
59
147
59
59
147
59
59
147
59
59
147
59
59
147
59
59
147
59
59
147
59
59
147
59
59
147
59
59
147
59
59
147
59
59
147
59
59
147
59
59
147
59
59
147
59
59
147
59
59
147
59
59
147
59
59
147
59
59
147
59
59
147
59
59
147
59
59
147
59
59
147
59
59
176
85
83
176
85
83
176
85
83
176
85
83
176
85
83
176
85
83
176
85
83
176
85
83
176
85
83
176
85
83
176
85
83
176
85
83
176
85
83
176
85
83
176
85
83
176
85
83
176
85
83
176
85
83
176
85
83
176
85
83
176
85
83
176
85
83
176
85
83
176
85
83
176
85
83
176
85
83
176
85
83
176
85
83
176
85
83
176
85
83
176
85
83
176
85
83
176
85
83
176
85
83
176
85
83
176
85
83
176
85
83
176
85
83
176
85
83
176
85
83
176
85
83
176
85
83
176
85
83
176
85
83
176
85
83
176
85
83
176
85
83
176
85
83
176
85
83
176
85
83
176
85
83
176
85
83
176
85
83
176
85
83
176
85
83
92
4
19
92
4
19
92
4
19
92
4
19
92
4
19
92
4
19
92
4
19
92
4
19
92
4
19
92
4
19
92
4
19
92
4
19
92
4
19
92
4
19
92
4
19
92
4
19
92
4
19
92
4
19
92
4
19
92
4
19
92
4
19
92
4
19
92
4
19
92
4
19
92
4
19
92
4
19
92
4
19
92
4
19
92
4
19
92
4
19
92
4
19
92
4
19
92
4
19
92
4
19
92
4
19
92
4
19
92
4
19
92
4
19
92
4
19
92
4
19
92
4
19
92
4
19
92
4
19
92
4
19
92
4
19
92
4
19
92
4
19
92
4
19
92
4
19
92
4
19
92
4
19
92
4
19
108
23
30
108
23
30
108
23
30
108
23
30
108
23
30
108
23
30
108
23
30
108
23
30
108
23
30
108
23
30
108
23
30
108
23
30
108
23
30
108
23
30
108
23
30
108
23
30
108
23
30
108
23
30
108
23
30
108
23
30
108
23
30
108
23
30
108
23
30
108
23
30
108
23
30
108
23
30
108
23
30
108
23
30
108
23
30
108
23
30
108
23
30
108
23
30
108
23
30
108
23
30
108
23
30
108
23
30
108
23
30
108
23
30
108
23
30
108
23
30
108
23
30
108
23
30
108
23
30
108
23
30
108
23
30
108
23
30
108
23
30
108
23
30
108
23
30
108
23
30
108
23
30
108
23
30
108
23
30
108
23
30
108
23
30
122
36
40
122
36
40
122
36
40
122
36
40
122
36
40
122
36
40
122
36
40
122
36
40
122
36
40
122
36
40
122
36
40
122
36
40
122
36
40
122
36
40
122
36
40
122
36
40
122
36
40
122
36
40
122
36
40
122
36
40
122
36
40
122
36
40
122
36
40
122
36
40
122
36
40
122
36
40
122
36
40
122
36
40
122
36
40
122
36
40
122
36
40
122
36
40
122
36
40
122
36
40
122
36
40
122
36
40
122
36
40
122
36
40
122
36
40
122
36
40
122
36
40
147
59
59
147
59
59
147
59
59
147
59
59
147
59
59
147
59
59
147
59
59
147
59
59
147
59
59
147
59
59
147
59
59
147
59
59
147
59
59
147
59
59
147
59
59
147
59
59
147
59
59
147
59
59
147
59
59
147
59
59
147
59
59
147
59
59
147
59
59
147
59
59
147
59
59
147
59
59
147
59
59
147
59
59
147
59
59
147
59
59
147
59
59
147
59
59
147
59
59
147
59
59
147
59
59
147
59
59
147
59
59
147
59
59
147
59
59
147
59
59
147
59
59
147
59
59
147
59
59
147
59
59
147
59
59
147
59
59
147
59
59
147
59
59
147
59
59
147
59
59
147
59
59
147
59
59
147
59
59
176
85
83
176
85
83
176
85
83
176
85
83
176
85
83
176
85
83
176
85
83
176
85
83
176
85
83
176
85
83
176
85
83
176
85
83
176
85
83
176
85
83
176
85
83
176
85
83
176
85
83
176
85
83
176
85
83
176
85
83
176
85
83
176
85
83
176
85
83
176
85
83
176
85
83
176
85
83
176
85
83
176
85
83
176
85
83
176
85
83
176
85
83
176
85
83
176
85
83
176
85
83
176
85
83
176
85
83
176
85
83
176
85
83
176
85
83
176
85
83
176
85
83
176
85
83
176
85
83
176
85
83
176
85
83
176
85
83
176
85
83
176
85
83
176
85
83
176
85
83
176
85
83
176
85
83
176
85
83
176
85
83
176
85
83
92
4
19
92
4
19
92
4
19
92
4
19
92
4
19
92
4
19
92
4
19
92
4
19
92
4
19
92
4
19
92
4
19
92
4
19
92
4
19
92
4
19
92
4
19
92
4
19
92
4
19
92
4
19
92
4
19
92
4
19
92
4
19
92
4
19
92
4
19
92
4
19
92
4
19
92
4
19
92
4
19
92
4
19
92
4
19
92
4
19
92
4
19
92
4
19
92
4
19
92
4
19
92
4
19
92
4
19
92
4
19
92
4
19
92
4
19
92
4
19
92
4
19
92
4
19
92
4
19
92
4
19
92
4
19
92
4
19
92
4
19
92
4
19
92
4
19
92
4
19
92
4
19
92
4
19
108
23
30
108
23
30
108
23
30
108
23
30
108
23
30
108
23
30
108
23
30
108
23
30
108
23
30
108
23
30
108
23
30
108
23
30
108
23
30
108
23
30
108
23
30
108
23
30
108
23
30
108
23
30
108
23
30
108
23
30
108
23
30
108
23
30
108
23
30
108
23
30
108
23
30
108
23
30
108
23
30
108
23
30
108
23
30
108
23
30
108
23
30
108
23
30
108
23
30
108
23
30
108
23
30
108
23
30
108
23
30
108
23
30
108
23
30
108
23
30
108
23
30
108
23
30
108
23
30
108
23
30
108
23
30
108
23
30
108
23
30
108
23
30
108
23
30
108
23
30
108
23
30
108
23
30
108
23
30
108
23
30
108
23
30
122
36
40
122
36
40
122
36
40
122
36
40
122
36
40
122
36
40
122
36
40
122
36
40
122
36
40
122
36
40
122
36
40
122
36
40
122
36
40
122
36
40
122
36
40
122
36
40
122
36
40
122
36
40
122
36
40
122
36
40
122
36
40
122
36
40
122
36
40
122
36
40
122
36
40
122
36
40
122
36
40
122
36
40
122
36
40
122
36
40
122
36
40
122
36
40
122
36
40
122
36
40
122
36
40
122
36
40
122
36
40
122
36
40
122
36
40
122
36
40
122
36
40
147
59
59
147
59
59
147
59
59
147
59
59
147
59
59
147
59
59
147
59
59
147
59
59
147
59
59
147
59
59
147
59
59
147
59
59
147
59
59
147
59
59
147
59
59
147
59
59
147
59
59
147
59
59
147
59
59
147
59
59
147
59
59
147
59
59
147
59
59
147
59
59
147
59
59
147
59
59
147
59
59
147
59
59
147
59
59
147
59
59
147
59
59
147
59
59
147
59
59
147
59
59
147
59
59
147
59
59
147
59
59
147
59
59
147
59
59
147
59
59
147
59
59
147
59
59
147
59
59
147
59
59
147
59
59
147
59
59
147
59
59
147
59
59
147
59
59
147
59
59
147
59
59
147
59
59
147
59
59
176
85
83
176
85
83
176
85
83
176
85
83
176
85
83
176
85
83
176
85
83
176
85
83
176
85
83
176
85
83
176
85
83
176
85
83
176
85
83
176
85
83
176
85
83
176
85
83
176
85
83
176
85
83
176
85
83
176
85
83
176
85
83
176
85
83
176
85
83
176
85
83
176
85
83
176
85
83
176
85
83
176
85
83
176
85
83
176
85
83
176
85
83
176
85
83
176
85
83
176
85
83
176
85
83
176
85
83
176
85
83
176
85
83
176
85
83
176
85
83
176
85
83
176
85
83
176
85
83
176
85
83
176
85
83
176
85
83
176
85
83
176
85
83
176
85
83
176
85
83
176
85
83
176
85
83
176
85
83
176
85
83
176
85
83
92
4
19
92
4
19
92
4
19
92
4
19
92
4
19
92
4
19
92
4
19
92
4
19
92
4
19
92
4
19
92
4
19
92
4
19
92
4
19
92
4
19
92
4
19
92
4
19
92
4
19
92
4
19
92
4
19
92
4
19
92
4
19
92
4
19
92
4
19
92
4
19
92
4
19
92
4
19
92
4
19
92
4
19
92
4
19
92
4
19
92
4
19
92
4
19
92
4
19
92
4
19
92
4
19
92
4
19
92
4
19
92
4
19
92
4
19
92
4
19
92
4
19
92
4
19
92
4
19
92
4
19
92
4
19
92
4
19
92
4
19
92
4
19
92
4
19
92
4
19
92
4
19
92
4
19
108
23
30
108
23
30
108
23
30
108
23
30
108
23
30
108
23
30
108
23
30
108
23
30
108
23
30
108
23
30
108
23
30
108
23
30
108
23
30
108
23
30
108
23
30
108
23
30
108
23
30
108
23
30
108
23
30
108
23
30
108
23
30
108
23
30
108
23
30
108
23
30
108
23
30
108
23
30
108
23
30
108
23
30
108
23
30
108
23
30
108
23
30
108
23
30
108
23
30
108
23
30
108
23
30
108
23
30
108
23
30
108
23
30
108
23
30
108
23
30
108
23
30
108
23
30
108
23
30
108
23
30
108
23
30
108
23
30
108
23
30
108
23
30
108
23
30
108
23
30
108
23
30
108
23
30
108
23
30
108
23
30
108
23
30
122
36
40
122
36
40
122
36
40
122
36
40
122
36
40
122
36
40
122
36
40
122
36
40
122
36
40
122
36
40
122
36
40
122
36
40
122
36
40
122
36
40
122
36
40
122
36
40
122
36
40
122
36
40
122
36
40
122
36
40
122
36
40
122
36
40
122
36
40
122
36
40
122
36
40
122
36
40
122
36
40
122
36
40
122
36
40
122
36
40
122
36
40
122
36
40
122
36
40
122
36
40
122
36
40
122
36
40
122
36
40
122
36
40
122
36
40
122
36
40
122
36
40
147
59
59
147
59
59
147
59
59
147
59
59
147
59
59
147
59
59
147
59
59
147
59
59
147
59
59
147
59
59
147
59
59
147
59
59
147
59
59
147
59
59
147
59
59
147
59
59
147
59
59
147
59
59
147
59
59
147
59
59
147
59
59
147
59
59
147
59
59
147
59
59
147
59
59
147
59
59
147
59
59
147
59
59
147
59
59
147
59
59
147
59
59
147
59
59
147
59
59
147
59
59
147
59
59
147
59
59
147
59
59
147
59
59
147
59
59
147
59
59
147
59
59
147
59
59
147
59
59
147
59
59
147
59
59
147
59
59
147
59
59
147
59
59
147
59
59
147
59
59
147
59
59
147
59
59
147
59
59
176
85
83
176
85
83
176
85
83
176
85
83
176
85
83
176
85
83
176
85
83
176
85
83
176
85
83
176
85
83
176
85
83
176
85
83
176
85
83
176
85
83
176
85
83
176
85
83
176
85
83
176
85
83
176
85
83
176
85
83
176
85
83
176
85
83
176
85
83
176
85
83
176
85
83
176
85
83
176
85
83
176
85
83
176
85
83
176
85
83
176
85
83
176
85
83
176
85
83
176
85
83
176
85
83
176
85
83
176
85
83
176
85
83
176
85
83
176
85
83
176
85
83
176
85
83
176
85
83
176
85
83
176
85
83
176
85
83
176
85
83
176
85
83
176
85
83
176
85
83
176
85
83
176
85
83
176
85
83
176
85
83
176
85
83
92
4
19
92
4
19
92
4
19
92
4
19
92
4
19
92
4
19
92
4
19
92
4
19
92
4
19
92
4
19
92
4
19
92
4
19
92
4
19
92
4
19
92
4
19
92
4
19
92
4
19
92
4
19
92
4
19
92
4
19
92
4
19
92
4
19
92
4
19
92
4
19
92
4
19
92
4
19
92
4
19
92
4
19
92
4
19
92
4
19
92
4
19
92
4
19
92
4
19
92
4
19
92
4
19
92
4
19
92
4
19
92
4
19
92
4
19
92
4
19
92
4
19
92
4
19
92
4
19
92
4
19
92
4
19
92
4
19
92
4
19
92
4
19
92
4
19
92
4
19
92
4
19
92
4
19
108
23
30
108
23
30
108
23
30
108
23
30
108
23
30
108
23
30
108
23
30
108
23
30
108
23
30
108
23
30
108
23
30
108
23
30
108
23
30
108
23
30
108
23
30
108
23
30
108
23
30
108
23
30
108
23
30
108
23
30
108
23
30
108
23
30
108
23
30
108
23
30
108
23
30
108
23
30
108
23
30
108
23
30
108
23
30
108
23
30
108
23
30
108
23
30
108
23
30
108
23
30
108
23
30
108
23
30
108
23
30
108
23
30
108
23
30
108
23
30
108
23
30
108
23
30
108
23
30
108
23
30
108
23
30
108
23
30
108
23
30
108
23
30
108
23
30
108
23
30
108
23
30
108
23
30
108
23
30
108
23
30
108
23
30
122
36
40
122
36
40
122
36
40
122
36
40
122
36
40
122
36
40
122
36
40
122
36
40
122
36
40
122
36
40
122
36
40
122
36
40
122
36
40
122
36
40
122
36
40
122
36
40
122
36
40
122
36
40
122
36
40
122
36
40
122
36
40
122
36
40
122
36
40
122
36
40
122
36
40
122
36
40
122
36
40
122
36
40
122
36
40
122
36
40
122
36
40
122
36
40
122
36
40
122
36
40
122
36
40
122
36
40
122
36
40
122
36
40
122
36
40
122
36
40
122
36
40
147
59
59
147
59
59
147
59
59
147
59
59
147
59
59
147
59
59
147
59
59
147
59
59
147
59
59
147
59
59
147
59
59
147
59
59
147
59
59
147
59
59
147
59
59
147
59
59
147
59
59
147
59
59
147
59
59
147
59
59
147
59
59
147
59
59
147
59
59
147
59
59
147
59
59
147
59
59
147
59
59
147
59
59
147
59
59
147
59
59
147
59
59
147
59
59
147
59
59
147
59
59
147
59
59
147
59
59
147
59
59
147
59
59
147
59
59
147
59
59
147
59
59
147
59
59
147
59
59
147
59
59
147
59
59
147
59
59
147
59
59
147
59
59
147
59
59
147
59
59
147
59
59
147
59
59
147
59
59
176
85
83
176
85
83
176
85
83
176
85
83
176
85
83
176
85
83
176
85
83
176
85
83
176
85
83
176
85
83
176
85
83
176
85
83
176
85
83
176
85
83
176
85
83
176
85
83
176
85
83
176
85
83
176
85
83
176
85
83
176
85
83
176
85
83
176
85
83
176
85
83
176
85
83
176
85
83
176
85
83
176
85
83
176
85
83
176
85
83
176
85
83
176
85
83
176
85
83
176
85
83
176
85
83
176
85
83
176
85
83
176
85
83
176
85
83
176
85
83
176
85
83
176
85
83
176
85
83
176
85
83
176
85
83
176
85
83
176
85
83
176
85
83
176
85
83
176
85
83
176
85
83
176
85
83
176
85
83
176
85
83
176
85
83
92
4
19
92
4
19
92
4
19
92
4
19
92
4
19
92
4
19
92
4
19
92
4
19
92
4
19
92
4
19
92
4
19
92
4
19
92
4
19
92
4
19
92
4
19
92
4
19
92
4
19
92
4
19
92
4
19
92
4
19
92
4
19
92
4
19
92
4
19
92
4
19
92
4
19
92
4
19
92
4
19
92
4
19
92
4
19
92
4
19
92
4
19
92
4
19
92
4
19
92
4
19
92
4
19
92
4
19
92
4
19
92
4
19
92
4
19
92
4
19
92
4
19
92
4
19
92
4
19
92
4
19
92
4
19
92
4
19
92
4
19
92
4
19
92
4
19
92
4
19
92
4
19
92
4
19
108
23
30
108
23
30
108
23
30
108
23
30
108
23
30
108
23
30
108
23
30
108
23
30
108
23
30
108
23
30
108
23
30
108
23
30
108
23
30
108
23
30
108
23
30
108
23
30
108
23
30
108
23
30
108
23
30
108
23
30
108
23
30
108
23
30
108
23
30
108
23
30
108
23
30
108
23
30
108
23
30
108
23
30
108
23
30
108
23
30
108
23
30
108
23
30
108
23
30
108
23
30
108
23
30
108
23
30
108
23
30
108
23
30
108
23
30
108
23
30
108
23
30
108
23
30
108
23
30
108
23
30
108
23
30
108
23
30
108
23
30
108
23
30
108
23
30
108
23
30
108
23
30
108
23
30
108
23
30
108
23
30
108
23
30
122
36
40
122
36
40
122
36
40
122
36
40
122
36
40
122
36
40
122
36
40
122
36
40
122
36
40
122
36
40
122
36
40
122
36
40
122
36
40
122
36
40
122
36
40
122
36
40
122
36
40
122
36
40
122
36
40
122
36
40
122
36
40
122
36
40
122
36
40
122
36
40
122
36
40
122
36
40
122
36
40
122
36
40
122
36
40
122
36
40
122
36
40
122
36
40
122
36
40
122
36
40
122
36
40
122
36
40
122
36
40
122
36
40
122
36
40
122
36
40
122
36
40
147
59
59
147
59
59
147
59
59
147
59
59
147
59
59
147
59
59
147
59
59
147
59
59
147
59
59
147
59
59
147
59
59
147
59
59
147
59
59
147
59
59
147
59
59
147
59
59
147
59
59
147
59
59
147
59
59
147
59
59
147
59
59
147
59
59
147
59
59
147
59
59
147
59
59
147
59
59
147
59
59
147
59
59
147
59
59
147
59
59
147
59
59
147
59
59
147
59
59
147
59
59
147
59
59
147
59
59
147
59
59
147
59
59
147
59
59
147
59
59
147
59
59
147
59
59
147
59
59
147
59
59
147
59
59
147
59
59
147
59
59
147
59
59
147
59
59
147
59
59
147
59
59
147
59
59
147
59
59
176
85
83
176
85
83
176
85
83
176
85
83
176
85
83
176
85
83
176
85
83
176
85
83
176
85
83
176
85
83
176
85
83
176
85
83
176
85
83
176
85
83
176
85
83
176
85
83
176
85
83
176
85
83
176
85
83
176
85
83
176
85
83
176
85
83
176
85
83
176
85
83
176
85
83
176
85
83
176
85
83
176
85
83
176
85
83
176
85
83
176
85
83
176
85
83
176
85
83
176
85
83
176
85
83
176
85
83
176
85
83
176
85
83
176
85
83
176
85
83
176
85
83
176
85
83
176
85
83
176
85
83
176
85
83
176
85
83
176
85
83
176
85
83
176
85
83
176
85
83
176
85
83
176
85
83
176
85
83
176
85
83
176
85
83
92
4
19
92
4
19
92
4
19
92
4
19
92
4
19
92
4
19
92
4
19
92
4
19
92
4
19
92
4
19
92
4
19
92
4
19
92
4
19
92
4
19
92
4
19
92
4
19
92
4
19
92
4
19
92
4
19
92
4
19
92
4
19
92
4
19
92
4
19
92
4
19
92
4
19
92
4
19
92
4
19
92
4
19
92
4
19
92
4
19
92
4
19
92
4
19
92
4
19
92
4
19
92
4
19
92
4
19
92
4
19
92
4
19
92
4
19
92
4
19
92
4
19
92
4
19
92
4
19
92
4
19
92
4
19
92
4
19
92
4
19
92
4
19
92
4
19
92
4
19
92
4
19
92
4
19
108
23
30
108
23
30
108
23
30
108
23
30
108
23
30
108
23
30
108
23
30
108
23
30
108
23
30
108
23
30
108
23
30
108
23
30
108
23
30
108
23
30
108
23
30
108
23
30
108
23
30
108
23
30
108
23
30
108
23
30
108
23
30
108
23
30
108
23
30
108
23
30
108
23
30
108
23
30
108
23
30
108
23
30
108
23
30
108
23
30
108
23
30
108
23
30
108
23
30
108
23
30
108
23
30
108
23
30
108
23
30
108
23
30
108
23
30
108
23
30
108
23
30
108
23
30
108
23
30
108
23
30
108
23
30
108
23
30
108
23
30
108
23
30
108
23
30
108
23
30
108
23
30
108
23
30
108
23
30
108
23
30
108
23
30
122
36
40
122
36
40
122
36
40
122
36
40
122
36
40
122
36
40
122
36
40
122
36
40
122
36
40
122
36
40
122
36
40
122
36
40
122
36
40
122
36
40
122
36
40
122
36
40
122
36
40
122
36
40
122
36
40
122
36
40
122
36
40
122
36
40
122
36
40
122
36
40
122
36
40
122
36
40
122
36
40
122
36
40
122
36
40
122
36
40
122
36
40
122
36
40
122
36
40
122
36
40
122
36
40
122
36
40
122
36
40
122
36
40
122
36
40
122
36
40
122
36
40
147
59
59
147
59
59
147
59
59
147
59
59
147
59
59
147
59
59
147
59
59
147
59
59
147
59
59
147
59
59
147
59
59
147
59
59
147
59
59
147
59
59
147
59
59
147
59
59
147
59
59
147
59
59
147
59
59
147
59
59
147
59
59
147
59
59
147
59
59
147
59
59
147
59
59
147
59
59
147
59
59
147
59
59
147
59
59
147
59
59
147
59
59
147
59
59
147
59
59
147
59
59
147
59
59
147
59
59
147
59
59
147
59
59
147
59
59
147
59
59
147
59
59
147
59
59
147
59
59
147
59
59
147
59
59
147
59
59
147
59
59
147
59
59
147
59
59
147
59
59
147
59
59
147
59
59
147
59
59
176
85
83
176
85
83
176
85
83
176
85
83
176
85
83
176
85
83
176
85
83
176
85
83
176
85
83
176
85
83
176
85
83
176
85
83
176
85
83
176
85
83
176
85
83
176
85
83
176
85
83
176
85
83
176
85
83
176
85
83
176
85
83
176
85
83
176
85
83
176
85
83
176
85
83
176
85
83
176
85
83
176
85
83
176
85
83
176
85
83
176
85
83
176
85
83
176
85
83
176
85
83
176
85
83
176
85
83
176
85
83
176
85
83
176
85
83
176
85
83
176
85
83
176
85
83
176
85
83
176
85
83
176
85
83
176
85
83
176
85
83
176
85
83
176
85
83
176
85
83
176
85
83
176
85
83
176
85
83
176
85
83
176
85
83
92
4
19
92
4
19
92
4
19
92
4
19
92
4
19
92
4
19
92
4
19
92
4
19
92
4
19
92
4
19
92
4
19
92
4
19
92
4
19
92
4
19
92
4
19
92
4
19
92
4
19
92
4
19
92
4
19
92
4
19
92
4
19
92
4
19
92
4
19
92
4
19
92
4
19
92
4
19
92
4
19
92
4
19
92
4
19
92
4
19
92
4
19
92
4
19
92
4
19
92
4
19
92
4
19
92
4
19
92
4
19
92
4
19
92
4
19
92
4
19
92
4
19
92
4
19
92
4
19
92
4
19
92
4
19
92
4
19
92
4
19
92
4
19
92
4
19
92
4
19
92
4
19
92
4
19
108
23
30
108
23
30
108
23
30
108
23
30
108
23
30
108
23
30
108
23
30
108
23
30
108
23
30
108
23
30
108
23
30
108
23
30
108
23
30
108
23
30
108
23
30
108
23
30
108
23
30
108
23
30
108
23
30
108
23
30
108
23
30
108
23
30
108
23
30
108
23
30
108
23
30
108
23
30
108
23
30
108
23
30
108
23
30
108
23
30
108
23
30
108
23
30
108
23
30
108
23
30
108
23
30
108
23
30
108
23
30
108
23
30
108
23
30
108
23
30
108
23
30
108
23
30
108
23
30
108
23
30
108
23
30
108
23
30
108
23
30
108
23
30
108
23
30
108
23
30
108
23
30
108
23
30
108
23
30
108
23
30
108
23
30
122
36
40
122
36
40
122
36
40
122
36
40
122
36
40
122
36
40
122
36
40
122
36
40
122
36
40
122
36
40
122
36
40
122
36
40
122
36
40
122
36
40
122
36
40
122
36
40
122
36
40
122
36
40
122
36
40
122
36
40
122
36
40
122
36
40
122
36
40
122
36
40
122
36
40
122
36
40
122
36
40
122
36
40
122
36
40
122
36
40
122
36
40
122
36
40
122
36
40
122
36
40
122
36
40
122
36
40
122
36
40
122
36
40
122
36
40
122
36
40
122
36
40
147
59
59
147
59
59
147
59
59
147
59
59
147
59
59
147
59
59
147
59
59
147
59
59
147
59
59
147
59
59
147
59
59
147
59
59
147
59
59
147
59
59
147
59
59
147
59
59
147
59
59
147
59
59
147
59
59
147
59
59
147
59
59
147
59
59
147
59
59
147
59
59
147
59
59
147
59
59
147
59
59
147
59
59
147
59
59
147
59
59
147
59
59
147
59
59
147
59
59
147
59
59
147
59
59
147
59
59
147
59
59
147
59
59
147
59
59
147
59
59
147
59
59
147
59
59
147
59
59
147
59
59
147
59
59
147
59
59
147
59
59
147
59
59
147
59
59
147
59
59
147
59
59
147
59
59
147
59
59
176
85
83
176
85
83
176
85
83
176
85
83
176
85
83
176
85
83
176
85
83
176
85
83
176
85
83
176
85
83
176
85
83
176
85
83
176
85
83
176
85
83
176
85
83
176
85
83
176
85
83
176
85
83
176
85
83
176
85
83
176
85
83
176
85
83
176
85
83
176
85
83
176
85
83
176
85
83
176
85
83
176
85
83
176
85
83
176
85
83
176
85
83
176
85
83
176
85
83
176
85
83
176
85
83
176
85
83
176
85
83
176
85
83
176
85
83
176
85
83
176
85
83
176
85
83
176
85
83
176
85
83
176
85
83
176
85
83
176
85
83
176
85
83
176
85
83
176
85
83
176
85
83
176
85
83
176
85
83
176
85
83
176
85
83
92
4
19
92
4
19
92
4
19
92
4
19
92
4
19
92
4
19
92
4
19
92
4
19
92
4
19
92
4
19
92
4
19
92
4
19
92
4
19
92
4
19
92
4
19
92
4
19
92
4
19
92
4
19
92
4
19
92
4
19
92
4
19
92
4
19
92
4
19
92
4
19
92
4
19
92
4
19
92
4
19
92
4
19
92
4
19
92
4
19
92
4
19
92
4
19
92
4
19
92
4
19
92
4
19
92
4
19
92
4
19
92
4
19
92
4
19
92
4
19
92
4
19
92
4
19
92
4
19
92
4
19
92
4
19
92
4
19
92
4
19
92
4
19
92
4
19
92
4
19
92
4
19
92
4
19
108
23
30
108
23
30
108
23
30
108
23
30
108
23
30
108
23
30
108
23
30
108
23
30
108
23
30
108
23
30
108
23
30
108
23
30
108
23
30
108
23
30
108
23
30
108
23
30
108
23
30
108
23
30
108
23
30
108
23
30
108
23
30
108
23
30
108
23
30
108
23
30
108
23
30
108
23
30
108
23
30
108
23
30
108
23
30
108
23
30
108
23
30
108
23
30
108
23
30
108
23
30
108
23
30
108
23
30
108
23
30
108
23
30
108
23
30
108
23
30
108
23
30
108
23
30
108
23
30
108
23
30
108
23
30
108
23
30
108
23
30
108
23
30
108
23
30
108
23
30
108
23
30
108
23
30
108
23
30
108
23
30
108
23
30
122
36
40
122
36
40
122
36
40
122
36
40
122
36
40
122
36
40
122
36
40
122
36
40
122
36
40
122
36
40
122
36
40
122
36
40
122
36
40
122
36
40
122
36
40
122
36
40
122
36
40
122
36
40
122
36
40
122
36
40
122
36
40
122
36
40
122
36
40
122
36
40
122
36
40
122
36
40
122
36
40
122
36
40
122
36
40
122
36
40
122
36
40
122
36
40
122
36
40
122
36
40
122
36
40
122
36
40
122
36
40
122
36
40
122
36
40
122
36
40
122
36
40
147
59
59
147
59
59
147
59
59
147
59
59
147
59
59
147
59
59
147
59
59
147
59
59
147
59
59
147
59
59
147
59
59
147
59
59
147
59
59
147
59
59
147
59
59
147
59
59
147
59
59
147
59
59
147
59
59
147
59
59
147
59
59
147
59
59
147
59
59
147
59
59
147
59
59
147
59
59
147
59
59
147
59
59
147
59
59
147
59
59
147
59
59
147
59
59
147
59
59
147
59
59
147
59
59
147
59
59
147
59
59
147
59
59
147
59
59
147
59
59
147
59
59
147
59
59
147
59
59
147
59
59
147
59
59
147
59
59
147
59
59
147
59
59
147
59
59
147
59
59
147
59
59
147
59
59
147
59
59
176
85
83
176
85
83
176
85
83
176
85
83
176
85
83
176
85
83
176
85
83
176
85
83
176
85
83
176
85
83
176
85
83
176
85
83
176
85
83
176
85
83
176
85
83
176
85
83
176
85
83
176
85
83
176
85
83
176
85
83
176
85
83
176
85
83
176
85
83
176
85
83
176
85
83
176
85
83
176
85
83
176
85
83
176
85
83
176
85
83
176
85
83
176
85
83
176
85
83
176
85
83
176
85
83
176
85
83
176
85
83
176
85
83
176
85
83
176
85
83
176
85
83
176
85
83
176
85
83
176
85
83
176
85
83
176
85
83
176
85
83
176
85
83
176
85
83
176
85
83
176
85
83
176
85
83
176
85
83
176
85
83
176
85
83
92
4
19
92
4
19
92
4
19
92
4
19
92
4
19
92
4
19
92
4
19
92
4
19
92
4
19
92
4
19
92
4
19
92
4
19
92
4
19
92
4
19
92
4
19
92
4
19
92
4
19
92
4
19
92
4
19
92
4
19
92
4
19
92
4
19
92
4
19
92
4
19
92
4
19
92
4
19
92
4
19
92
4
19
92
4
19
92
4
19
92
4
19
92
4
19
92
4
19
92
4
19
92
4
19
92
4
19
92
4
19
92
4
19
92
4
19
92
4
19
92
4
19
92
4
19
92
4
19
92
4
19
92
4
19
92
4
19
92
4
19
92
4
19
92
4
19
92
4
19
92
4
19
92
4
19
108
23
30
108
23
30
108
23
30
108
23
30
108
23
30
108
23
30
108
23
30
108
23
30
108
23
30
108
23
30
108
23
30
108
23
30
108
23
30
108
23
30
108
23
30
108
23
30
108
23
30
108
23
30
108
23
30
108
23
30
108
23
30
108
23
30
108
23
30
108
23
30
108
23
30
108
23
30
108
23
30
108
23
30
108
23
30
108
23
30
108
23
30
108
23
30
108
23
30
108
23
30
108
23
30
108
23
30
108
23
30
108
23
30
108
23
30
108
23
30
108
23
30
108
23
30
108
23
30
108
23
30
108
23
30
108
23
30
108
23
30
108
23
30
108
23
30
108
23
30
108
23
30
108
23
30
108
23
30
108
23
30
108
23
30
122
36
40
122
36
40
122
36
40
122
36
40
122
36
40
122
36
40
122
36
40
122
36
40
122
36
40
122
36
40
122
36
40
122
36
40
122
36
40
122
36
40
122
36
40
122
36
40
122
36
40
122
36
40
122
36
40
122
36
40
122
36
40
122
36
40
122
36
40
122
36
40
122
36
40
122
36
40
122
36
40
122
36
40
122
36
40
122
36
40
122
36
40
122
36
40
122
36
40
122
36
40
122
36
40
122
36
40
122
36
40
122
36
40
122
36
40
122
36
40
122
36
40
147
59
59
147
59
59
147
59
59
147
59
59
147
59
59
147
59
59
147
59
59
147
59
59
147
59
59
147
59
59
147
59
59
147
59
59
147
59
59
147
59
59
147
59
59
147
59
59
147
59
59
147
59
59
147
59
59
147
59
59
147
59
59
147
59
59
147
59
59
147
59
59
147
59
59
147
59
59
147
59
59
147
59
59
147
59
59
147
59
59
147
59
59
147
59
59
147
59
59
147
59
59
147
59
59
147
59
59
147
59
59
147
59
59
147
59
59
147
59
59
147
59
59
147
59
59
147
59
59
147
59
59
147
59
59
147
59
59
147
59
59
147
59
59
147
59
59
147
59
59
147
59
59
147
59
59
147
59
59
176
85
83
176
85
83
176
85
83
176
85
83
176
85
83
176
85
83
176
85
83
176
85
83
176
85
83
176
85
83
176
85
83
176
85
83
176
85
83
176
85
83
176
85
83
176
85
83
176
85
83
176
85
83
176
85
83
176
85
83
176
85
83
176
85
83
176
85
83
176
85
83
176
85
83
176
85
83
176
85
83
176
85
83
176
85
83
176
85
83
176
85
83
176
85
83
176
85
83
176
85
83
176
85
83
176
85
83
176
85
83
176
85
83
176
85
83
176
85
83
176
85
83
176
85
83
176
85
83
176
85
83
176
85
83
176
85
83
176
85
83
176
85
83
176
85
83
176
85
83
176
85
83
176
85
83
176
85
83
176
85
83
176
85
83
92
4
19
92
4
19
92
4
19
92
4
19
92
4
19
92
4
19
92
4
19
92
4
19
92
4
19
92
4
19
92
4
19
92
4
19
92
4
19
92
4
19
92
4
19
92
4
19
92
4
19
92
4
19
92
4
19
92
4
19
92
4
19
92
4
19
92
4
19
92
4
19
92
4
19
92
4
19
92
4
19
92
4
19
92
4
19
92
4
19
92
4
19
92
4
19
92
4
19
92
4
19
92
4
19
92
4
19
92
4
19
92
4
19
92
4
19
92
4
19
92
4
19
92
4
19
92
4
19
92
4
19
92
4
19
92
4
19
92
4
19
92
4
19
92
4
19
92
4
19
92
4
19
92
4
19
108
23
30
108
23
30
108
23
30
108
23
30
108
23
30
108
23
30
108
23
30
108
23
30
108
23
30
108
23
30
108
23
30
108
23
30
108
23
30
108
23
30
108
23
30
108
23
30
108
23
30
108
23
30
108
23
30
108
23
30
108
23
30
108
23
30
108
23
30
108
23
30
108
23
30
108
23
30
108
23
30
108
23
30
108
23
30
108
23
30
108
23
30
108
23
30
108
23
30
108
23
30
108
23
30
108
23
30
108
23
30
108
23
30
108
23
30
108
23
30
108
23
30
108
23
30
108
23
30
108
23
30
108
23
30
108
23
30
108
23
30
108
23
30
108
23
30
108
23
30
108
23
30
108
23
30
108
23
30
108
23
30
108
23
30
122
36
40
122
36
40
122
36
40
122
36
40
122
36
40
122
36
40
122
36
40
122
36
40
122
36
40
122
36
40
122
36
40
122
36
40
122
36
40
122
36
40
122
36
40
122
36
40
122
36
40
122
36
40
122
36
40
122
36
40
122
36
40
122
36
40
122
36
40
122
36
40
122
36
40
122
36
40
122
36
40
122
36
40
122
36
40
122
36
40
122
36
40
122
36
40
122
36
40
122
36
40
122
36
40
122
36
40
122
36
40
122
36
40
122
36
40
122
36
40
122
36
40
147
59
59
147
59
59
147
59
59
147
59
59
147
59
59
147
59
59
147
59
59
147
59
59
147
59
59
147
59
59
147
59
59
147
59
59
147
59
59
147
59
59
147
59
59
147
59
59
147
59
59
147
59
59
147
59
59
147
59
59
147
59
59
147
59
59
147
59
59
147
59
59
147
59
59
147
59
59
147
59
59
147
59
59
147
59
59
147
59
59
147
59
59
147
59
59
147
59
59
147
59
59
147
59
59
147
59
59
147
59
59
147
59
59
147
59
59
147
59
59
147
59
59
147
59
59
147
59
59
147
59
59
147
59
59
147
59
59
147
59
59
147
59
59
147
59
59
147
59
59
147
59
59
147
59
59
147
59
59
176
85
83
176
85
83
176
85
83
176
85
83
176
85
83
176
85
83
176
85
83
176
85
83
176
85
83
176
85
83
176
85
83
176
85
83
176
85
83
176
85
83
176
85
83
176
85
83
176
85
83
176
85
83
176
85
83
176
85
83
176
85
83
176
85
83
176
85
83
176
85
83
176
85
83
176
85
83
176
85
83
176
85
83
176
85
83
176
85
83
176
85
83
176
85
83
176
85
83
176
85
83
176
85
83
176
85
83
176
85
83
176
85
83
176
85
83
176
85
83
176
85
83
176
85
83
176
85
83
176
85
83
176
85
83
176
85
83
176
85
83
176
85
83
176
85
83
176
85
83
176
85
83
176
85
83
176
85
83
176
85
83
176
85
83
92
4
19
92
4
19
92
4
19
92
4
19
92
4
19
92
4
19
92
4
19
92
4
19
92
4
19
92
4
19
92
4
19
92
4
19
92
4
19
92
4
19
92
4
19
92
4
19
92
4
19
92
4
19
92
4
19
92
4
19
92
4
19
92
4
19
92
4
19
92
4
19
92
4
19
92
4
19
92
4
19
92
4
19
92
4
19
92
4
19
92
4
19
92
4
19
92
4
19
92
4
19
92
4
19
92
4
19
92
4
19
92
4
19
92
4
19
92
4
19
92
4
19
92
4
19
92
4
19
92
4
19
92
4
19
92
4
19
92
4
19
92
4
19
92
4
19
92
4
19
92
4
19
92
4
19
108
23
30
108
23
30
108
23
30
108
23
30
108
23
30
108
23
30
108
23
30
108
23
30
108
23
30
108
23
30
108
23
30
108
23
30
108
23
30
108
23
30
108
23
30
108
23
30
108
23
30
108
23
30
108
23
30
108
23
30
108
23
30
108
23
30
108
23
30
108
23
30
108
23
30
108
23
30
108
23
30
108
23
30
108
23
30
108
23
30
108
23
30
108
23
30
108
23
30
108
23
30
108
23
30
108
23
30
108
23
30
108
23
30
108
23
30
108
23
30
108
23
30
108
23
30
108
23
30
108
23
30
108
23
30
108
23
30
108
23
30
108
23
30
108
23
30
108
23
30
108
23
30
108
23
30
108
23
30
108
23
30
108
23
30
122
36
40
122
36
40
122
36
40
122
36
40
122
36
40
122
36
40
122
36
40
122
36
40
122
36
40
122
36
40
122
36
40
122
36
40
122
36
40
122
36
40
122
36
40
122
36
40
122
36
40
122
36
40
122
36
40
122
36
40
122
36
40
122
36
40
122
36
40
122
36
40
122
36
40
122
36
40
122
36
40
122
36
40
122
36
40
122
36
40
122
36
40
122
36
40
122
36
40
122
36
40
122
36
40
122
36
40
122
36
40
122
36
40
122
36
40
122
36
40
122
36
40
147
59
59
147
59
59
147
59
59
147
59
59
147
59
59
147
59
59
147
59
59
147
59
59
147
59
59
147
59
59
147
59
59
147
59
59
147
59
59
147
59
59
147
59
59
147
59
59
147
59
59
147
59
59
147
59
59
147
59
59
147
59
59
147
59
59
147
59
59
147
59
59
147
59
59
147
59
59
147
59
59
147
59
59
147
59
59
147
59
59
147
59
59
147
59
59
147
59
59
147
59
59
147
59
59
147
59
59
147
59
59
147
59
59
147
59
59
147
59
59
147
59
59
147
59
59
147
59
59
147
59
59
147
59
59
147
59
59
147
59
59
147
59
59
147
59
59
147
59
59
147
59
59
147
59
59
147
59
59
176
85
83
176
85
83
176
85
83
176
85
83
176
85
83
176
85
83
176
85
83
176
85
83
176
85
83
176
85
83
176
85
83
176
85
83
176
85
83
176
85
83
176
85
83
176
85
83
176
85
83
176
85
83
176
85
83
176
85
83
176
85
83
176
85
83
176
85
83
176
85
83
176
85
83
176
85
83
176
85
83
176
85
83
176
85
83
176
85
83
176
85
83
176
85
83
176
85
83
176
85
83
176
85
83
176
85
83
176
85
83
176
85
83
176
85
83
176
85
83
176
85
83
176
85
83
176
85
83
176
85
83
176
85
83
176
85
83
176
85
83
176
85
83
176
85
83
176
85
83
176
85
83
176
85
83
176
85
83
176
85
83
176
85
83
92
4
19
92
4
19
92
4
19
92
4
19
92
4
19
92
4
19
92
4
19
92
4
19
92
4
19
92
4
19
92
4
19
92
4
19
92
4
19
92
4
19
92
4
19
92
4
19
92
4
19
92
4
19
92
4
19
92
4
19
92
4
19
92
4
19
92
4
19
92
4
19
92
4
19
92
4
19
92
4
19
92
4
19
92
4
19
92
4
19
92
4
19
92
4
19
92
4
19
92
4
19
92
4
19
92
4
19
92
4
19
92
4
19
92
4
19
92
4
19
92
4
19
92
4
19
92
4
19
92
4
19
92
4
19
92
4
19
92
4
19
92
4
19
92
4
19
92
4
19
92
4
19
92
4
19
108
23
30
108
23
30
108
23
30
108
23
30
108
23
30
108
23
30
108
23
30
108
23
30
108
23
30
108
23
30
108
23
30
108
23
30
108
23
30
108
23
30
108
23
30
108
23
30
108
23
30
108
23
30
108
23
30
108
23
30
108
23
30
108
23
30
108
23
30
108
23
30
108
23
30
108
23
30
108
23
30
108
23
30
108
23
30
108
23
30
108
23
30
108
23
30
108
23
30
108
23
30
108
23
30
108
23
30
108
23
30
108
23
30
108
23
30
108
23
30
108
23
30
108
23
30
108
23
30
108
23
30
108
23
30
108
23
30
108
23
30
108
23
30
108
23
30
108
23
30
108
23
30
108
23
30
108
23
30
108
23
30
108
23
30
122
36
40
122
36
40
122
36
40
122
36
40
122
36
40
122
36
40
122
36
40
122
36
40
122
36
40
122
36
40
122
36
40
122
36
40
122
36
40
122
36
40
122
36
40
122
36
40
122
36
40
122
36
40
122
36
40
122
36
40
122
36
40
122
36
40
122
36
40
122
36
40
122
36
40
122
36
40
122
36
40
122
36
40
122
36
40
122
36
40
122
36
40
122
36
40
122
36
40
122
36
40
122
36
40
122
36
40
122
36
40
122
36
40
122
36
40
122
36
40
122
36
40
147
59
59
147
59
59
147
59
59
147
59
59
147
59
59
147
59
59
147
59
59
147
59
59
147
59
59
147
59
59
147
59
59
147
59
59
147
59
59
147
59
59
147
59
59
147
59
59
147
59
59
147
59
59
147
59
59
147
59
59
147
59
59
147
59
59
147
59
59
147
59
59
147
59
59
147
59
59
147
59
59
147
59
59
147
59
59
147
59
59
147
59
59
147
59
59
147
59
59
147
59
59
147
59
59
147
59
59
147
59
59
147
59
59
147
59
59
147
59
59
147
59
59
147
59
59
147
59
59
147
59
59
147
59
59
147
59
59
147
59
59
147
59
59
147
59
59
147
59
59
147
59
59
147
59
59
147
59
59
176
85
83
176
85
83
176
85
83
176
85
83
176
85
83
176
85
83
176
85
83
176
85
83
176
85
83
176
85
83
176
85
83
176
85
83
176
85
83
176
85
83
176
85
83
176
85
83
176
85
83
176
85
83
176
85
83
176
85
83
176
85
83
176
85
83
176
85
83
176
85
83
176
85
83
176
85
83
176
85
83
176
85
83
176
85
83
176
85
83
176
85
83
176
85
83
176
85
83
176
85
83
176
85
83
176
85
83
176
85
83
176
85
83
176
85
83
176
85
83
176
85
83
176
85
83
176
85
83
176
85
83
176
85
83
176
85
83
176
85
83
176
85
83
176
85
83
176
85
83
176
85
83
176
85
83
176
85
83
176
85
83
176
85
83
92
4
19
92
4
19
92
4
19
92
4
19
92
4
19
92
4
19
92
4
19
92
4
19
92
4
19
92
4
19
92
4
19
92
4
19
92
4
19
92
4
19
92
4
19
92
4
19
92
4
19
92
4
19
92
4
19
92
4
19
92
4
19
92
4
19
92
4
19
92
4
19
92
4
19
92
4
19
92
4
19
92
4
19
92
4
19
92
4
19
92
4
19
92
4
19
92
4
19
92
4
19
92
4
19
92
4
19
92
4
19
92
4
19
92
4
19
92
4
19
92
4
19
92
4
19
92
4
19
92
4
19
92
4
19
92
4
19
92
4
19
92
4
19
92
4
19
92
4
19
92
4
19
92
4
19
108
23
30
108
23
30
108
23
30
108
23
30
108
23
30
108
23
30
108
23
30
108
23
30
108
23
30
108
23
30
108
23
30
108
23
30
108
23
30
108
23
30
108
23
30
108
23
30
108
23
30
108
23
30
108
23
30
108
23
30
108
23
30
108
23
30
108
23
30
108
23
30
108
23
30
108
23
30
108
23
30
108
23
30
108
23
30
108
23
30
108
23
30
108
23
30
108
23
30
108
23
30
108
23
30
108
23
30
108
23
30
108
23
30
108
23
30
108
23
30
108
23
30
108
23
30
108
23
30
108
23
30
108
23
30
108
23
30
108
23
30
108
23
30
108
23
30
108
23
30
108
23
30
108
23
30
108
23
30
108
23
30
108
23
30
122
36
40
122
36
40
122
36
40
122
36
40
122
36
40
122
36
40
122
36
40
122
36
40
122
36
40
122
36
40
122
36
40
122
36
40
122
36
40
122
36
40
122
36
40
122
36
40
122
36
40
122
36
40
122
36
40
122
36
40
122
36
40
122
36
40
122
36
40
122
36
40
122
36
40
122
36
40
122
36
40
122
36
40
122
36
40
122
36
40
122
36
40
122
36
40
122
36
40
122
36
40
122
36
40
122
36
40
122
36
40
122
36
40
122
36
40
122
36
40
122
36
40
147
59
59
147
59
59
147
59
59
147
59
59
147
59
59
147
59
59
147
59
59
147
59
59
147
59
59
147
59
59
147
59
59
147
59
59
147
59
59
147
59
59
147
59
59
147
59
59
147
59
59
147
59
59
147
59
59
147
59
59
147
59
59
147
59
59
147
59
59
147
59
59
147
59
59
147
59
59
147
59
59
147
59
59
147
59
59
147
59
59
147
59
59
147
59
59
147
59
59
147
59
59
147
59
59
147
59
59
147
59
59
147
59
59
147
59
59
147
59
59
147
59
59
147
59
59
147
59
59
147
59
59
147
59
59
147
59
59
147
59
59
147
59
59
147
59
59
147
59
59
147
59
59
147
59
59
147
59
59
176
85
83
176
85
83
176
85
83
176
85
83
176
85
83
176
85
83
176
85
83
176
85
83
176
85
83
176
85
83
176
85
83
176
85
83
176
85
83
176
85
83
176
85
83
176
85
83
176
85
83
176
85
83
176
85
83
176
85
83
176
85
83
176
85
83
176
85
83
176
85
83
176
85
83
176
85
83
176
85
83
176
85
83
176
85
83
176
85
83
176
85
83
176
85
83
176
85
83
176
85
83
176
85
83
176
85
83
176
85
83
176
85
83
176
85
83
176
85
83
176
85
83
176
85
83
176
85
83
176
85
83
176
85
83
176
85
83
176
85
83
176
85
83
176
85
83
176
85
83
176
85
83
176
85
83
176
85
83
176
85
83
176
85
83
92
4
19
92
4
19
92
4
19
92
4
19
92
4
19
92
4
19
92
4
19
92
4
19
92
4
19
92
4
19
92
4
19
92
4
19
92
4
19
92
4
19
92
4
19
92
4
19
92
4
19
92
4
19
92
4
19
92
4
19
92
4
19
92
4
19
92
4
19
92
4
19
92
4
19
92
4
19
92
4
19
92
4
19
92
4
19
92
4
19
92
4
19
92
4
19
92
4
19
92
4
19
92
4
19
92
4
19
92
4
19
92
4
19
92
4
19
92
4
19
92
4
19
92
4
19
92
4
19
92
4
19
92
4
19
92
4
19
92
4
19
92
4
19
92
4
19
92
4
19
92
4
19
92
4
19
108
23
30
108
23
30
108
23
30
108
23
30
108
23
30
108
23
30
108
23
30
108
23
30
108
23
30
108
23
30
108
23
30
108
23
30
108
23
30
108
23
30
108
23
30
108
23
30
108
23
30
108
23
30
108
23
30
108
23
30
108
23
30
108
23
30
108
23
30
108
23
30
108
23
30
108
23
30
108
23
30
108
23
30
108
23
30
108
23
30
108
23
30
108
23
30
108
23
30
108
23
30
108
23
30
108
23
30
108
23
30
108
23
30
108
23
30
108
23
30
108
23
30
108
23
30
108
23
30
108
23
30
108
23
30
108
23
30
108
23
30
108
23
30
108
23
30
108
23
30
108
23
30
108
23
30
108
23
30
108
23
30
108
23
30
122
36
40
122
36
40
122
36
40
122
36
40
122
36
40
122
36
40
122
36
40
122
36
40
122
36
40
122
36
40
122
36
40
122
36
40
122
36
40
122
36
40
122
36
40
122
36
40
122
36
40
122
36
40
122
36
40
122
36
40
122
36
40
122
36
40
122
36
40
122
36
40
122
36
40
122
36
40
122
36
40
122
36
40
122
36
40
122
36
40
122
36
40
122
36
40
122
36
40
122
36
40
122
36
40
122
36
40
122
36
40
122
36
40
122
36
40
122
36
40
122
36
40
147
59
59
147
59
59
147
59
59
147
59
59
147
59
59
147
59
59
147
59
59
147
59
59
147
59
59
147
59
59
147
59
59
147
59
59
147
59
59
147
59
59
147
59
59
147
59
59
147
59
59
147
59
59
147
59
59
147
59
59
147
59
59
147
59
59
147
59
59
147
59
59
147
59
59
147
59
59
147
59
59
147
59
59
147
59
59
147
59
59
147
59
59
147
59
59
147
59
59
147
59
59
147
59
59
147
59
59
147
59
59
147
59
59
147
59
59
147
59
59
147
59
59
147
59
59
147
59
59
147
59
59
147
59
59
147
59
59
147
59
59
147
59
59
147
59
59
147
59
59
147
59
59
147
59
59
147
59
59
176
85
83
176
85
83
176
85
83
176
85
83
176
85
83
176
85
83
176
85
83
176
85
83
176
85
83
176
85
83
176
85
83
176
85
83
176
85
83
176
85
83
176
85
83
176
85
83
176
85
83
176
85
83
176
85
83
176
85
83
176
85
83
176
85
83
176
85
83
176
85
83
176
85
83
176
85
83
176
85
83
176
85
83
176
85
83
176
85
83
176
85
83
176
85
83
176
85
83
176
85
83
176
85
83
176
85
83
176
85
83
176
85
83
176
85
83
176
85
83
176
85
83
176
85
83
176
85
83
176
85
83
176
85
83
176
85
83
176
85
83
176
85
83
176
85
83
176
85
83
176
85
83
176
85
83
176
85
83
176
85
83
176
85
83
92
4
19
92
4
19
92
4
19
92
4
19
92
4
19
92
4
19
92
4
19
92
4
19
92
4
19
92
4
19
92
4
19
92
4
19
92
4
19
92
4
19
92
4
19
92
4
19
92
4
19
92
4
19
92
4
19
92
4
19
92
4
19
92
4
19
92
4
19
92
4
19
92
4
19
92
4
19
92
4
19
92
4
19
92
4
19
92
4
19
92
4
19
92
4
19
92
4
19
92
4
19
92
4
19
92
4
19
92
4
19
92
4
19
92
4
19
92
4
19
92
4
19
92
4
19
92
4
19
92
4
19
92
4
19
92
4
19
92
4
19
92
4
19
92
4
19
92
4
19
92
4
19
92
4
19
108
23
30
108
23
30
108
23
30
108
23
30
108
23
30
108
23
30
108
23
30
108
23
30
108
23
30
108
23
30
108
23
30
108
23
30
108
23
30
108
23
30
108
23
30
108
23
30
108
23
30
108
23
30
108
23
30
108
23
30
108
23
30
108
23
30
108
23
30
108
23
30
108
23
30
108
23
30
108
23
30
108
23
30
108
23
30
108
23
30
108
23
30
108
23
30
108
23
30
108
23
30
108
23
30
108
23
30
108
23
30
108
23
30
108
23
30
108
23
30
108
23
30
108
23
30
108
23
30
108
23
30
108
23
30
108
23
30
108
23
30
108
23
30
108
23
30
108
23
30
108
23
30
108
23
30
108
23
30
108
23
30
108
23
30
122
36
40
122
36
40
122
36
40
122
36
40
122
36
40
122
36
40
122
36
40
122
36
40
122
36
40
122
36
40
122
36
40
122
36
40
122
36
40
122
36
40
122
36
40
122
36
40
122
36
40
122
36
40
122
36
40
122
36
40
122
36
40
122
36
40
122
36
40
122
36
40
122
36
40
122
36
40
122
36
40
122
36
40
122
36
40
122
36
40
122
36
40
122
36
40
122
36
40
122
36
40
122
36
40
122
36
40
122
36
40
122
36
40
122
36
40
122
36
40
122
36
40
147
59
59
147
59
59
147
59
59
147
59
59
147
59
59
147
59
59
147
59
59
147
59
59
147
59
59
147
59
59
147
59
59
147
59
59
147
59
59
147
59
59
147
59
59
147
59
59
147
59
59
147
59
59
147
59
59
147
59
59
147
59
59
147
59
59
147
59
59
147
59
59
147
59
59
147
59
59
147
59
59
147
59
59
147
59
59
147
59
59
147
59
59
147
59
59
147
59
59
147
59
59
147
59
59
147
59
59
147
59
59
147
59
59
147
59
59
147
59
59
147
59
59
147
59
59
147
59
59
147
59
59
147
59
59
147
59
59
147
59
59
147
59
59
147
59
59
147
59
59
147
59
59
147
59
59
147
59
59
176
85
83
176
85
83
176
85
83
176
85
83
176
85
83
176
85
83
176
85
83
176
85
83
176
85
83
176
85
83
176
85
83
176
85
83
176
85
83
176
85
83
176
85
83
176
85
83
176
85
83
176
85
83
176
85
83
176
85
83
176
85
83
176
85
83
176
85
83
176
85
83
176
85
83
176
85
83
176
85
83
176
85
83
176
85
83
176
85
83
176
85
83
176
85
83
176
85
83
176
85
83
176
85
83
176
85
83
176
85
83
176
85
83
176
85
83
176
85
83
176
85
83
176
85
83
176
85
83
176
85
83
176
85
83
176
85
83
176
85
83
176
85
83
176
85
83
176
85
83
176
85
83
176
85
83
176
85
83
176
85
83
176
85
83
92
4
19
92
4
19
92
4
19
92
4
19
92
4
19
92
4
19
92
4
19
92
4
19
92
4
19
92
4
19
92
4
19
92
4
19
92
4
19
92
4
19
92
4
19
92
4
19
92
4
19
92
4
19
92
4
19
92
4
19
92
4
19
92
4
19
92
4
19
92
4
19
92
4
19
92
4
19
92
4
19
92
4
19
92
4
19
92
4
19
92
4
19
92
4
19
92
4
19
92
4
19
92
4
19
92
4
19
92
4
19
92
4
19
92
4
19
92
4
19
92
4
19
92
4
19
92
4
19
92
4
19
92
4
19
92
4
19
92
4
19
92
4
19
92
4
19
92
4
19
92
4
19
92
4
19
108
23
30
108
23
30
108
23
30
108
23
30
108
23
30
108
23
30
108
23
30
108
23
30
108
23
30
108
23
30
108
23
30
108
23
30
108
23
30
108
23
30
108
23
30
108
23
30
108
23
30
108
23
30
108
23
30
108
23
30
108
23
30
108
23
30
108
23
30
108
23
30
108
23
30
108
23
30
108
23
30
108
23
30
108
23
30
108
23
30
108
23
30
108
23
30
108
23
30
108
23
30
108
23
30
108
23
30
108
23
30
108
23
30
108
23
30
108
23
30
108
23
30
108
23
30
108
23
30
108
23
30
108
23
30
108
23
30
108
23
30
108
23
30
108
23
30
108
23
30
108
23
30
108
23
30
108
23
30
108
23
30
108
23
30
122
36
40
122
36
40
122
36
40
122
36
40
122
36
40
122
36
40
122
36
40
122
36
40
122
36
40
122
36
40
122
36
40
122
36
40
122
36
40
122
36
40
122
36
40
122
36
40
122
36
40
122
36
40
122
36
40
122
36
40
122
36
40
122
36
40
122
36
40
122
36
40
122
36
40
122
36
40
122
36
40
122
36
40
122
36
40
122
36
40
122
36
40
122
36
40
122
36
40
122
36
40
122
36
40
122
36
40
122
36
40
122
36
40
122
36
40
122
36
40
122
36
40
147
59
59
147
59
59
147
59
59
147
59
59
147
59
59
147
59
59
147
59
59
147
59
59
147
59
59
147
59
59
147
59
59
147
59
59
147
59
59
147
59
59
147
59
59
147
59
59
147
59
59
147
59
59
147
59
59
147
59
59
147
59
59
147
59
59
147
59
59
147
59
59
147
59
59
147
59
59
147
59
59
147
59
59
147
59
59
147
59
59
147
59
59
147
59
59
147
59
59
147
59
59
147
59
59
147
59
59
147
59
59
147
59
59
147
59
59
147
59
59
147
59
59
147
59
59
147
59
59
147
59
59
147
59
59
147
59
59
147
59
59
147
59
59
147
59
59
147
59
59
147
59
59
147
59
59
147
59
59
176
85
83
176
85
83
176
85
83
176
85
83
176
85
83
176
85
83
176
85
83
176
85
83
176
85
83
176
85
83
176
85
83
176
85
83
176
85
83
176
85
83
176
85
83
176
85
83
176
85
83
176
85
83
176
85
83
176
85
83
176
85
83
176
85
83
176
85
83
176
85
83
176
85
83
176
85
83
176
85
83
176
85
83
176
85
83
176
85
83
176
85
83
176
85
83
176
85
83
176
85
83
176
85
83
176
85
83
176
85
83
176
85
83
176
85
83
176
85
83
176
85
83
176
85
83
176
85
83
176
85
83
176
85
83
176
85
83
176
85
83
176
85
83
176
85
83
176
85
83
176
85
83
176
85
83
176
85
83
176
85
83
176
85
83
92
4
19
92
4
19
92
4
19
92
4
19
92
4
19
92
4
19
92
4
19
92
4
19
92
4
19
92
4
19
92
4
19
92
4
19
92
4
19
92
4
19
92
4
19
92
4
19
92
4
19
92
4
19
92
4
19
92
4
19
92
4
19
92
4
19
92
4
19
92
4
19
92
4
19
92
4
19
92
4
19
92
4
19
92
4
19
92
4
19
92
4
19
92
4
19
92
4
19
92
4
19
92
4
19
92
4
19
92
4
19
92
4
19
92
4
19
92
4
19
92
4
19
92
4
19
92
4
19
92
4
19
92
4
19
92
4
19
92
4
19
92
4
19
92
4
19
92
4
19
92
4
19
92
4
19
108
23
30
108
23
30
108
23
30
108
23
30
108
23
30
108
23
30
108
23
30
108
23
30
108
23
30
108
23
30
108
23
30
108
23
30
108
23
30
108
23
30
108
23
30
108
23
30
108
23
30
108
23
30
108
23
30
108
23
30
108
23
30
108
23
30
108
23
30
108
23
30
108
23
30
108
23
30
108
23
30
108
23
30
108
23
30
108
23
30
108
23
30
108
23
30
108
23
30
108
23
30
108
23
30
108
23
30
108
23
30
108
23
30
108
23
30
108
23
30
108
23
30
108
23
30
108
23
30
108
23
30
108
23
30
108
23
30
108
23
30
108
23
30
108
23
30
108
23
30
108
23
30
108
23
30
108
23
30
108
23
30
108
23
30
122
36
40
122
36
40
122
36
40
122
36
40
122
36
40
122
36
40
122
36
40
122
36
40
122
36
40
122
36
40
122
36
40
122
36
40
122
36
40
122
36
40
122
36
40
122
36
40
122
36
40
122
36
40
122
36
40
122
36
40
122
36
40
122
36
40
122
36
40
122
36
40
122
36
40
122
36
40
122
36
40
122
36
40
122
36
40
122
36
40
122
36
40
122
36
40
122
36
40
122
36
40
122
36
40
122
36
40
122
36
40
122
36
40
122
36
40
122
36
40
122
36
40
147
59
59
147
59
59
147
59
59
147
59
59
147
59
59
147
59
59
147
59
59
147
59
59
147
59
59
147
59
59
147
59
59
147
59
59
147
59
59
147
59
59
147
59
59
147
59
59
147
59
59
147
59
59
147
59
59
147
59
59
147
59
59
147
59
59
147
59
59
147
59
59
147
59
59
147
59
59
147
59
59
147
59
59
147
59
59
147
59
59
147
59
59
147
59
59
147
59
59
147
59
59
147
59
59
147
59
59
147
59
59
147
59
59
147
59
59
147
59
59
147
59
59
147
59
59
147
59
59
147
59
59
147
59
59
147
59
59
147
59
59
147
59
59
147
59
59
147
59
59
147
59
59
147
59
59
147
59
59
176
85
83
176
85
83
176
85
83
176
85
83
176
85
83
176
85
83
176
85
83
176
85
83
176
85
83
176
85
83
176
85
83
176
85
83
176
85
83
176
85
83
176
85
83
176
85
83
176
85
83
176
85
83
176
85
83
176
85
83
176
85
83
176
85
83
176
85
83
176
85
83
176
85
83
176
85
83
176
85
83
176
85
83
176
85
83
176
85
83
176
85
83
176
85
83
176
85
83
176
85
83
176
85
83
176
85
83
176
85
83
176
85
83
176
85
83
176
85
83
176
85
83
176
85
83
176
85
83
176
85
83
176
85
83
176
85
83
176
85
83
176
85
83
176
85
83
176
85
83
176
85
83
176
85
83
176
85
83
176
85
83
176
85
83
92
4
19
92
4
19
92
4
19
92
4
19
92
4
19
92
4
19
92
4
19
92
4
19
92
4
19
92
4
19
92
4
19
92
4
19
92
4
19
92
4
19
92
4
19
92
4
19
92
4
19
92
4
19
92
4
19
92
4
19
92
4
19
92
4
19
92
4
19
92
4
19
92
4
19
92
4
19
92
4
19
92
4
19
92
4
19
92
4
19
92
4
19
92
4
19
92
4
19
92
4
19
92
4
19
92
4
19
92
4
19
92
4
19
92
4
19
92
4
19
92
4
19
92
4
19
92
4
19
92
4
19
92
4
19
92
4
19
92
4
19
92
4
19
92
4
19
92
4
19
92
4
19
92
4
19
108
23
30
108
23
30
108
23
30
108
23
30
108
23
30
108
23
30
108
23
30
108
23
30
108
23
30
108
23
30
108
23
30
108
23
30
108
23
30
108
23
30
108
23
30
108
23
30
108
23
30
108
23
30
108
23
30
108
23
30
108
23
30
108
23
30
108
23
30
108
23
30
108
23
30
108
23
30
108
23
30
108
23
30
108
23
30
108
23
30
108
23
30
108
23
30
108
23
30
108
23
30
108
23
30
108
23
30
108
23
30
108
23
30
108
23
30
108
23
30
108
23
30
108
23
30
108
23
30
108
23
30
108
23
30
108
23
30
108
23
30
108
23
30
108
23
30
108
23
30
108
23
30
108
23
30
108
23
30
108
23
30
108
23
30
122
36
40
122
36
40
122
36
40
122
36
40
122
36
40
122
36
40
122
36
40
122
36
40
122
36
40
122
36
40
122
36
40
122
36
40
122
36
40
122
36
40
122
36
40
122
36
40
122
36
40
122
36
40
122
36
40
122
36
40
122
36
40
122
36
40
122
36
40
122
36
40
122
36
40
122
36
40
122
36
40
122
36
40
122
36
40
122
36
40
122
36
40
122
36
40
122
36
40
122
36
40
122
36
40
122
36
40
122
36
40
122
36
40
122
36
40
122
36
40
122
36
40
147
59
59
147
59
59
147
59
59
147
59
59
147
59
59
147
59
59
147
59
59
147
59
59
147
59
59
147
59
59
147
59
59
147
59
59
147
59
59
147
59
59
147
59
59
147
59
59
147
59
59
147
59
59
147
59
59
147
59
59
147
59
59
147
59
59
147
59
59
147
59
59
147
59
59
147
59
59
147
59
59
147
59
59
147
59
59
147
59
59
147
59
59
147
59
59
147
59
59
147
59
59
147
59
59
147
59
59
147
59
59
147
59
59
147
59
59
147
59
59
147
59
59
147
59
59
147
59
59
147
59
59
147
59
59
147
59
59
147
59
59
147
59
59
147
59
59
147
59
59
147
59
59
147
59
59
147
59
59
176
85
83
176
85
83
176
85
83
176
85
83
176
85
83
176
85
83
176
85
83
176
85
83
176
85
83
176
85
83
176
85
83
176
85
83
176
85
83
176
85
83
176
85
83
176
85
83
176
85
83
176
85
83
176
85
83
176
85
83
176
85
83
176
85
83
176
85
83
176
85
83
176
85
83
176
85
83
176
85
83
176
85
83
176
85
83
176
85
83
176
85
83
176
85
83
176
85
83
176
85
83
176
85
83
176
85
83
176
85
83
176
85
83
176
85
83
176
85
83
176
85
83
176
85
83
176
85
83
176
85
83
176
85
83
176
85
83
176
85
83
176
85
83
176
85
83
176
85
83
176
85
83
176
85
83
176
85
83
176
85
83
176
85
83
92
4
19
92
4
19
92
4
19
92
4
19
92
4
19
92
4
19
92
4
19
92
4
19
92
4
19
92
4
19
92
4
19
92
4
19
92
4
19
92
4
19
92
4
19
92
4
19
92
4
19
92
4
19
92
4
19
92
4
19
92
4
19
92
4
19
92
4
19
92
4
19
92
4
19
92
4
19
92
4
19
92
4
19
92
4
19
92
4
19
92
4
19
92
4
19
92
4
19
92
4
19
92
4
19
92
4
19
92
4
19
92
4
19
92
4
19
92
4
19
92
4
19
92
4
19
92
4
19
92
4
19
92
4
19
92
4
19
92
4
19
92
4
19
92
4
19
92
4
19
92
4
19
92
4
19
108
23
30
108
23
30
108
23
30
108
23
30
108
23
30
108
23
30
108
23
30
108
23
30
108
23
30
108
23
30
108
23
30
108
23
30
108
23
30
108
23
30
108
23
30
108
23
30
108
23
30
108
23
30
108
23
30
108
23
30
108
23
30
108
23
30
108
23
30
108
23
30
108
23
30
108
23
30
108
23
30
108
23
30
108
23
30
108
23
30
108
23
30
108
23
30
108
23
30
108
23
30
108
23
30
108
23
30
108
23
30
108
23
30
108
23
30
108
23
30
108
23
30
108
23
30
108
23
30
108
23
30
108
23
30
108
23
30
108
23
30
108
23
30
108
23
30
108
23
30
108
23
30
108
23
30
108
23
30
108
23
30
108
23
30
122
36
40
122
36
40
122
36
40
122
36
40
122
36
40
122
36
40
122
36
40
122
36
40
122
36
40
122
36
40
122
36
40
122
36
40
122
36
40
122
36
40
122
36
40
122
36
40
122
36
40
122
36
40
122
36
40
122
36
40
122
36
40
122
36
40
122
36
40
122
36
40
122
36
40
122
36
40
122
36
40
122
36
40
122
36
40
122
36
40
122
36
40
122
36
40
122
36
40
122
36
40
122
36
40
122
36
40
122
36
40
122
36
40
122
36
40
122
36
40
122
36
40
147
59
59
147
59
59
147
59
59
147
59
59
147
59
59
147
59
59
147
59
59
147
59
59
147
59
59
147
59
59
147
59
59
147
59
59
147
59
59
147
59
59
147
59
59
147
59
59
147
59
59
147
59
59
147
59
59
147
59
59
147
59
59
147
59
59
147
59
59
147
59
59
147
59
59
147
59
59
147
59
59
147
59
59
147
59
59
147
59
59
147
59
59
147
59
59
147
59
59
147
59
59
147
59
59
147
59
59
147
59
59
147
59
59
147
59
59
147
59
59
147
59
59
147
59
59
147
59
59
147
59
59
147
59
59
147
59
59
147
59
59
147
59
59
147
59
59
147
59
59
147
59
59
147
59
59
147
59
59
176
85
83
176
85
83
176
85
83
176
85
83
176
85
83
176
85
83
176
85
83
176
85
83
176
85
83
176
85
83
176
85
83
176
85
83
176
85
83
176
85
83
176
85
83
176
85
83
176
85
83
176
85
83
176
85
83
176
85
83
176
85
83
176
85
83
176
85
83
176
85
83
176
85
83
176
85
83
176
85
83
176
85
83
176
85
83
176
85
83
176
85
83
176
85
83
176
85
83
176
85
83
176
85
83
176
85
83
176
85
83
176
85
83
176
85
83
176
85
83
176
85
83
176
85
83
176
85
83
176
85
83
176
85
83
176
85
83
176
85
83
176
85
83
176
85
83
176
85
83
176
85
83
176
85
83
176
85
83
176
85
83
176
85
83
92
4
19
92
4
19
92
4
19
92
4
19
92
4
19
92
4
19
92
4
19
92
4
19
92
4
19
92
4
19
92
4
19
92
4
19
92
4
19
92
4
19
92
4
19
92
4
19
92
4
19
92
4
19
92
4
19
92
4
19
92
4
19
92
4
19
92
4
19
92
4
19
92
4
19
92
4
19
92
4
19
92
4
19
92
4
19
92
4
19
92
4
19
92
4
19
92
4
19
92
4
19
92
4
19
92
4
19
92
4
19
92
4
19
92
4
19
92
4
19
92
4
19
92
4
19
92
4
19
92
4
19
92
4
19
92
4
19
92
4
19
92
4
19
92
4
19
92
4
19
92
4
19
92
4
19
108
23
30
108
23
30
108
23
30
108
23
30
108
23
30
108
23
30
108
23
30
108
23
30
108
23
30
108
23
30
108
23
30
108
23
30
108
23
30
108
23
30
108
23
30
108
23
30
108
23
30
108
23
30
108
23
30
108
23
30
108
23
30
108
23
30
108
23
30
108
23
30
108
23
30
108
23
30
108
23
30
108
23
30
108
23
30
108
23
30
108
23
30
108
23
30
108
23
30
108
23
30
108
23
30
108
23
30
108
23
30
108
23
30
108
23
30
108
23
30
108
23
30
108
23
30
108
23
30
108
23
30
108
23
30
108
23
30
108
23
30
108
23
30
108
23
30
108
23
30
108
23
30
108
23
30
108
23
30
108
23
30
108
23
30
122
36
40
122
36
40
122
36
40
122
36
40
122
36
40
122
36
40
122
36
40
122
36
40
122
36
40
122
36
40
122
36
40
122
36
40
122
36
40
122
36
40
122
36
40
122
36
40
122
36
40
122
36
40
122
36
40
122
36
40
122
36
40
122
36
40
122
36
40
122
36
40
122
36
40
122
36
40
122
36
40
122
36
40
122
36
40
122
36
40
122
36
40
122
36
40
122
36
40
122
36
40
122
36
40
122
36
40
122
36
40
122
36
40
122
36
40
122
36
40
122
36
40
147
59
59
147
59
59
147
59
59
147
59
59
147
59
59
147
59
59
147
59
59
147
59
59
147
59
59
147
59
59
147
59
59
147
59
59
147
59
59
147
59
59
147
59
59
147
59
59
147
59
59
147
59
59
147
59
59
147
59
59
147
59
59
147
59
59
147
59
59
147
59
59
147
59
59
147
59
59
147
59
59
147
59
59
147
59
59
147
59
59
147
59
59
147
59
59
147
59
59
147
59
59
147
59
59
147
59
59
147
59
59
147
59
59
147
59
59
147
59
59
147
59
59
147
59
59
147
59
59
147
59
59
147
59
59
147
59
59
147
59
59
147
59
59
147
59
59
147
59
59
147
59
59
147
59
59
147
59
59
176
85
83
176
85
83
176
85
83
176
85
83
176
85
83
176
85
83
176
85
83
176
85
83
176
85
83
176
85
83
176
85
83
176
85
83
176
85
83
176
85
83
176
85
83
176
85
83
176
85
83
176
85
83
176
85
83
176
85
83
176
85
83
176
85
83
176
85
83
176
85
83
176
85
83
176
85
83
176
85
83
176
85
83
176
85
83
176
85
83
176
85
83
176
85
83
176
85
83
176
85
83
176
85
83
176
85
83
176
85
83
176
85
83
176
85
83
176
85
83
176
85
83
176
85
83
176
85
83
176
85
83
176
85
83
176
85
83
176
85
83
176
85
83
176
85
83
176
85
83
176
85
83
176
85
83
176
85
83
176
85
83
176
85
83
92
4
19
92
4
19
92
4
19
92
4
19
92
4
19
92
4
19
92
4
19
92
4
19
92
4
19
92
4
19
92
4
19
92
4
19
92
4
19
92
4
19
92
4
19
92
4
19
92
4
19
92
4
19
92
4
19
92
4
19
92
4
19
92
4
19
92
4
19
92
4
19
92
4
19
92
4
19
92
4
19
92
4
19
92
4
19
92
4
19
92
4
19
92
4
19
92
4
19
92
4
19
92
4
19
92
4
19
92
4
19
92
4
19
92
4
19
92
4
19
92
4
19
92
4
19
92
4
19
92
4
19
92
4
19
92
4
19
92
4
19
92
4
19
92
4
19
92
4
19
92
4
19
92
4
19
108
23
30
108
23
30
108
23
30
108
23
30
108
23
30
108
23
30
108
23
30
108
23
30
108
23
30
108
23
30
108
23
30
108
23
30
108
23
30
108
23
30
108
23
30
108
23
30
108
23
30
108
23
30
108
23
30
108
23
30
108
23
30
108
23
30
108
23
30
108
23
30
108
23
30
108
23
30
108
23
30
108
23
30
108
23
30
108
23
30
108
23
30
108
23
30
108
23
30
108
23
30
108
23
30
108
23
30
108
23
30
108
23
30
108
23
30
108
23
30
108
23
30
108
23
30
108
23
30
108
23
30
108
23
30
108
23
30
108
23
30
108
23
30
108
23
30
108
23
30
108
23
30
108
23
30
108
23
30
108
23
30
108
23
30
122
36
40
122
36
40
122
36
40
122
36
40
122
36
40
122
36
40
122
36
40
122
36
40
122
36
40
122
36
40
122
36
40
122
36
40
122
36
40
122
36
40
122
36
40
122
36
40
122
36
40
122
36
40
122
36
40
122
36
40
122
36
40
122
36
40
122
36
40
122
36
40
122
36
40
122
36
40
122
36
40
122
36
40
122
36
40
122
36
40
122
36
40
122
36
40
122
36
40
122
36
40
122
36
40
122
36
40
122
36
40
122
36
40
122
36
40
122
36
40
122
36
40
147
59
59
147
59
59
147
59
59
147
59
59
147
59
59
147
59
59
147
59
59
147
59
59
147
59
59
147
59
59
147
59
59
147
59
59
147
59
59
147
59
59
147
59
59
147
59
59
147
59
59
147
59
59
147
59
59
147
59
59
147
59
59
147
59
59
147
59
59
147
59
59
147
59
59
147
59
59
147
59
59
147
59
59
147
59
59
147
59
59
147
59
59
147
59
59
147
59
59
147
59
59
147
59
59
147
59
59
147
59
59
147
59
59
147
59
59
147
59
59
147
59
59
147
59
59
147
59
59
147
59
59
147
59
59
147
59
59
147
59
59
147
59
59
147
59
59
147
59
59
147
59
59
147
59
59
147
59
59
176
85
83
176
85
83
176
85
83
176
85
83
176
85
83
176
85
83
176
85
83
176
85
83
176
85
83
176
85
83
176
85
83
176
85
83
176
85
83
176
85
83
176
85
83
176
85
83
176
85
83
176
85
83
176
85
83
176
85
83
176
85
83
176
85
83
176
85
83
176
85
83
176
85
83
176
85
83
176
85
83
176
85
83
176
85
83
176
85
83
176
85
83
176
85
83
176
85
83
176
85
83
176
85
83
176
85
83
176
85
83
176
85
83
176
85
83
176
85
83
176
85
83
176
85
83
176
85
83
176
85
83
176
85
83
176
85
83
176
85
83
176
85
83
176
85
83
176
85
83
176
85
83
176
85
83
176
85
83
176
85
83
176
85
83
92
4
19
92
4
19
92
4
19
92
4
19
92
4
19
92
4
19
92
4
19
92
4
19
92
4
19
92
4
19
92
4
19
92
4
19
92
4
19
92
4
19
92
4
19
92
4
19
92
4
19
92
4
19
92
4
19
92
4
19
92
4
19
92
4
19
92
4
19
92
4
19
92
4
19
92
4
19
92
4
19
92
4
19
92
4
19
92
4
19
92
4
19
92
4
19
92
4
19
92
4
19
92
4
19
92
4
19
92
4
19
92
4
19
92
4
19
92
4
19
92
4
19
92
4
19
92
4
19
92
4
19
92
4
19
92
4
19
92
4
19
92
4
19
92
4
19
92
4
19
92
4
19
92
4
19
108
23
30
108
23
30
108
23
30
108
23
30
108
23
30
108
23
30
108
23
30
108
23
30
108
23
30
108
23
30
108
23
30
108
23
30
108
23
30
108
23
30
108
23
30
108
23
30
108
23
30
108
23
30
108
23
30
108
23
30
108
23
30
108
23
30
108
23
30
108
23
30
108
23
30
108
23
30
108
23
30
108
23
30
108
23
30
108
23
30
108
23
30
108
23
30
108
23
30
108
23
30
108
23
30
108
23
30
108
23
30
108
23
30
108
23
30
108
23
30
108
23
30
108
23
30
108
23
30
108
23
30
108
23
30
108
23
30
108
23
30
108
23
30
108
23
30
108
23
30
108
23
30
108
23
30
108
23
30
108
23
30
108
23
30
122
36
40
122
36
40
122
36
40
122
36
40
122
36
40
122
36
40
122
36
40
122
36
40
122
36
40
122
36
40
122
36
40
122
36
40
122
36
40
122
36
40
122
36
40
122
36
40
122
36
40
122
36
40
122
36
40
122
36
40
122
36
40
122
36
40
122
36
40
122
36
40
122
36
40
122
36
40
122
36
40
122
36
40
122
36
40
122
36
40
122
36
40
122
36
40
122
36
40
122
36
40
122
36
40
122
36
40
122
36
40
122
36
40
122
36
40
122
36
40
122
36
40
147
59
59
147
59
59
147
59
59
147
59
59
147
59
59
147
59
59
147
59
59
147
59
59
147
59
59
147
59
59
147
59
59
147
59
59
147
59
59
147
59
59
147
59
59
147
59
59
147
59
59
147
59
59
147
59
59
147
59
59
147
59
59
147
59
59
147
59
59
147
59
59
147
59
59
147
59
59
147
59
59
147
59
59
147
59
59
147
59
59
147
59
59
147
59
59
147
59
59
147
59
59
147
59
59
147
59
59
147
59
59
147
59
59
147
59
59
147
59
59
147
59
59
147
59
59
147
59
59
147
59
59
147
59
59
147
59
59
147
59
59
147
59
59
147
59
59
147
59
59
147
59
59
147
59
59
147
59
59
176
85
83
176
85
83
176
85
83
176
85
83
176
85
83
176
85
83
176
85
83
176
85
83
176
85
83
176
85
83
176
85
83
176
85
83
176
85
83
176
85
83
176
85
83
176
85
83
176
85
83
176
85
83
176
85
83
176
85
83
176
85
83
176
85
83
176
85
83
176
85
83
176
85
83
176
85
83
176
85
83
176
85
83
176
85
83
176
85
83
176
85
83
176
85
83
176
85
83
176
85
83
176
85
83
176
85
83
176
85
83
176
85
83
176
85
83
176
85
83
176
85
83
176
85
83
176
85
83
176
85
83
176
85
83
176
85
83
176
85
83
176
85
83
176
85
83
176
85
83
176
85
83
176
85
83
176
85
83
176
85
83
176
85
83
92
4
19
92
4
19
92
4
19
92
4
19
92
4
19
92
4
19
92
4
19
92
4
19
92
4
19
92
4
19
92
4
19
92
4
19
92
4
19
92
4
19
92
4
19
92
4
19
92
4
19
92
4
19
92
4
19
92
4
19
92
4
19
92
4
19
92
4
19
92
4
19
92
4
19
92
4
19
92
4
19
92
4
19
92
4
19
92
4
19
92
4
19
92
4
19
92
4
19
92
4
19
92
4
19
92
4
19
92
4
19
92
4
19
92
4
19
92
4
19
92
4
19
92
4
19
92
4
19
92
4
19
92
4
19
92
4
19
92
4
19
92
4
19
92
4
19
92
4
19
92
4
19
92
4
19
108
23
30
108
23
30
108
23
30
108
23
30
108
23
30
108
23
30
108
23
30
108
23
30
108
23
30
108
23
30
108
23
30
108
23
30
108
23
30
108
23
30
108
23
30
108
23
30
108
23
30
108
23
30
108
23
30
108
23
30
108
23
30
108
23
30
108
23
30
108
23
30
108
23
30
108
23
30
108
23
30
108
23
30
108
23
30
108
23
30
108
23
30
108
23
30
108
23
30
108
23
30
108
23
30
108
23
30
108
23
30
108
23
30
108
23
30
108
23
30
108
23
30
108
23
30
108
23
30
108
23
30
108
23
30
108
23
30
108
23
30
108
23
30
108
23
30
108
23
30
108
23
30
108
23
30
108
23
30
108
23
30
108
23
30
122
36
40
122
36
40
122
36
40
122
36
40
122
36
40
122
36
40
122
36
40
122
36
40
122
36
40
122
36
40
122
36
40
122
36
40
122
36
40
122
36
40
122
36
40
122
36
40
122
36
40
122
36
40
122
36
40
122
36
40
122
36
40
122
36
40
122
36
40
122
36
40
122
36
40
122
36
40
122
36
40
122
36
40
122
36
40
122
36
40
122
36
40
122
36
40
122
36
40
122
36
40
122
36
40
122
36
40
122
36
40
122
36
40
122
36
40
122
36
40
122
36
40
147
59
59
147
59
59
147
59
59
147
59
59
147
59
59
147
59
59
147
59
59
147
59
59
147
59
59
147
59
59
147
59
59
147
59
59
147
59
59
147
59
59
147
59
59
147
59
59
147
59
59
147
59
59
147
59
59
147
59
59
147
59
59
147
59
59
147
59
59
147
59
59
147
59
59
147
59
59
147
59
59
147
59
59
147
59
59
147
59
59
147
59
59
147
59
59
147
59
59
147
59
59
147
59
59
147
59
59
147
59
59
147
59
59
147
59
59
147
59
59
147
59
59
147
59
59
147
59
59
147
59
59
147
59
59
147
59
59
147
59
59
147
59
59
147
59
59
147
59
59
147
59
59
147
59
59
147
59
59
176
85
83
176
85
83
176
85
83
176
85
83
176
85
83
176
85
83
176
85
83
176
85
83
176
85
83
176
85
83
176
85
83
176
85
83
176
85
83
176
85
83
176
85
83
176
85
83
176
85
83
176
85
83
176
85
83
176
85
83
176
85
83
176
85
83
176
85
83
176
85
83
176
85
83
176
85
83
176
85
83
176
85
83
176
85
83
176
85
83
176
85
83
176
85
83
176
85
83
176
85
83
176
85
83
176
85
83
176
85
83
176
85
83
176
85
83
176
85
83
176
85
83
176
85
83
176
85
83
176
85
83
176
85
83
176
85
83
176
85
83
176
85
83
176
85
83
176
85
83
176
85
83
176
85
83
176
85
83
176
85
83
176
85
83
92
4
19
92
4
19
92
4
19
92
4
19
92
4
19
92
4
19
92
4
19
92
4
19
92
4
19
92
4
19
92
4
19
92
4
19
92
4
19
92
4
19
92
4
19
92
4
19
92
4
19
92
4
19
92
4
19
92
4
19
92
4
19
92
4
19
92
4
19
92
4
19
92
4
19
92
4
19
92
4
19
92
4
19
92
4
19
92
4
19
92
4
19
92
4
19
92
4
19
92
4
19
92
4
19
92
4
19
92
4
19
92
4
19
92
4
19
92
4
19
92
4
19
92
4
19
92
4
19
92
4
19
92
4
19
92
4
19
92
4
19
92
4
19
92
4
19
92
4
19
92
4
19
92
4
19
108
23
30
108
23
30
108
23
30
108
23
30
108
23
30
108
23
30
108
23
30
108
23
30
108
23
30
108
23
30
108
23
30
108
23
30
108
23
30
108
23
30
108
23
30
108
23
30
108
23
30
108
23
30
108
23
30
108
23
30
108
23
30
108
23
30
108
23
30
108
23
30
108
23
30
108
23
30
108
23
30
108
23
30
108
23
30
108
23
30
108
23
30
108
23
30
108
23
30
108
23
30
108
23
30
108
23
30
108
23
30
108
23
30
108
23
30
108
23
30
108
23
30
108
23
30
108
23
30
108
23
30
108
23
30
108
23
30
108
23
30
108
23
30
108
23
30
108
23
30
108
23
30
108
23
30
108
23
30
108
23
30
108
23
30
122
36
40
122
36
40
122
36
40
122
36
40
122
36
40
122
36
40
122
36
40
122
36
40
122
36
40
122
36
40
122
36
40
122
36
40
122
36
40
122
36
40
122
36
40
122
36
40
122
36
40
122
36
40
122
36
40
122
36
40
122
36
40
122
36
40
122
36
40
122
36
40
122
36
40
122
36
40
122
36
40
122
36
40
122
36
40
122
36
40
122
36
40
122
36
40
122
36
40
122
36
40
122
36
40
122
36
40
122
36
40
122
36
40
122
36
40
122
36
40
122
36
40
147
59
59
147
59
59
147
59
59
147
59
59
147
59
59
147
59
59
147
59
59
147
59
59
147
59
59
147
59
59
147
59
59
147
59
59
147
59
59
147
59
59
147
59
59
147
59
59
147
59
59
147
59
59
147
59
59
147
59
59
147
59
59
147
59
59
147
59
59
147
59
59
147
59
59
147
59
59
147
59
59
147
59
59
147
59
59
147
59
59
147
59
59
147
59
59
147
59
59
147
59
59
147
59
59
147
59
59
147
59
59
147
59
59
147
59
59
147
59
59
147
59
59
147
59
59
147
59
59
147
59
59
147
59
59
147
59
59
147
59
59
147
59
59
147
59
59
147
59
59
147
59
59
147
59
59
147
59
59
176
85
83
176
85
83
176
85
83
176
85
83
176
85
83
176
85
83
176
85
83
176
85
83
176
85
83
176
85
83
176
85
83
176
85
83
176
85
83
176
85
83
176
85
83
176
85
83
176
85
83
176
85
83
176
85
83
176
85
83
176
85
83
176
85
83
176
85
83
176
85
83
176
85
83
176
85
83
176
85
83
176
85
83
176
85
83
176
85
83
176
85
83
176
85
83
176
85
83
176
85
83
176
85
83
176
85
83
176
85
83
176
85
83
176
85
83
176
85
83
176
85
83
176
85
83
176
85
83
176
85
83
176
85
83
176
85
83
176
85
83
176
85
83
176
85
83
176
85
83
176
85
83
176
85
83
176
85
83
176
85
83
176
85
83
92
4
19
92
4
19
92
4
19
92
4
19
92
4
19
92
4
19
92
4
19
92
4
19
92
4
19
92
4
19
92
4
19
92
4
19
92
4
19
92
4
19
92
4
19
92
4
19
92
4
19
92
4
19
92
4
19
92
4
19
92
4
19
92
4
19
92
4
19
92
4
19
92
4
19
92
4
19
92
4
19
92
4
19
92
4
19
92
4
19
92
4
19
92
4
19
92
4
19
92
4
19
92
4
19
92
4
19
92
4
19
92
4
19
92
4
19
92
4
19
92
4
19
92
4
19
92
4
19
92
4
19
92
4
19
92
4
19
92
4
19
92
4
19
92
4
19
92
4
19
92
4
19
92
4
19
108
23
30
108
23
30
108
23
30
108
23
30
108
23
30
108
23
30
108
23
30
108
23
30
108
23
30
108
23
30
108
23
30
108
23
30
108
23
30
108
23
30
108
23
30
108
23
30
108
23
30
108
23
30
108
23
30
108
23
30
108
23
30
108
23
30
108
23
30
108
23
30
108
23
30
108
23
30
108
23
30
108
23
30
108
23
30
108
23
30
108
23
30
108
23
30
108
23
30
108
23
30
108
23
30
108
23
30
108
23
30
108
23
30
108
23
30
108
23
30
108
23
30
108
23
30
108
23
30
108
23
30
108
23
30
108
23
30
108
23
30
108
23
30
108
23
30
108
23
30
108
23
30
108
23
30
108
23
30
108
23
30
108
23
30
122
36
40
122
36
40
122
36
40
122
36
40
122
36
40
122
36
40
122
36
40
122
36
40
122
36
40
122
36
40
122
36
40
122
36
40
122
36
40
122
36
40
122
36
40
122
36
40
122
36
40
122
36
40
122
36
40
122
36
40
122
36
40
122
36
40
122
36
40
122
36
40
122
36
40
122
36
40
122
36
40
122
36
40
122
36
40
122
36
40
122
36
40
122
36
40
122
36
40
122
36
40
122
36
40
122
36
40
122
36
40
122
36
40
122
36
40
122
36
40
122
36
40
147
59
59
147
59
59
147
59
59
147
59
59
147
59
59
147
59
59
147
59
59
147
59
59
147
59
59
147
59
59
147
59
59
147
59
59
147
59
59
147
59
59
147
59
59
147
59
59
147
59
59
147
59
59
147
59
59
147
59
59
147
59
59
147
59
59
147
59
59
147
59
59
147
59
59
147
59
59
147
59
59
147
59
59
147
59
59
147
59
59
147
59
59
147
59
59
147
59
59
147
59
59
147
59
59
147
59
59
147
59
59
147
59
59
147
59
59
147
59
59
147
59
59
147
59
59
147
59
59
147
59
59
147
59
59
147
59
59
147
59
59
147
59
59
147
59
59
147
59
59
147
59
59
147
59
59
147
59
59
176
85
83
176
85
83
176
85
83
176
85
83
176
85
83
176
85
83
176
85
83
176
85
83
176
85
83
176
85
83
176
85
83
176
85
83
176
85
83
176
85
83
176
85
83
176
85
83
176
85
83
176
85
83
176
85
83
176
85
83
176
85
83
176
85
83
176
85
83
176
85
83
176
85
83
176
85
83
176
85
83
176
85
83
176
85
83
176
85
83
176
85
83
176
85
83
176
85
83
176
85
83
176
85
83
176
85
83
176
85
83
176
85
83
176
85
83
176
85
83
176
85
83
176
85
83
176
85
83
176
85
83
176
85
83
176
85
83
176
85
83
176
85
83
176
85
83
176
85
83
176
85
83
176
85
83
176
85
83
176
85
83
176
85
83
92
4
19
92
4
19
92
4
19
92
4
19
92
4
19
92
4
19
92
4
19
92
4
19
92
4
19
92
4
19
92
4
19
92
4
19
92
4
19
92
4
19
92
4
19
92
4
19
92
4
19
92
4
19
92
4
19
92
4
19
92
4
19
92
4
19
92
4
19
92
4
19
92
4
19
92
4
19
92
4
19
92
4
19
92
4
19
92
4
19
92
4
19
92
4
19
92
4
19
92
4
19
92
4
19
92
4
19
92
4
19
92
4
19
92
4
19
92
4
19
92
4
19
92
4
19
92
4
19
92
4
19
92
4
19
92
4
19
92
4
19
92
4
19
92
4
19
92
4
19
92
4
19
92
4
19
108
23
30
108
23
30
108
23
30
108
23
30
108
23
30
108
23
30
108
23
30
108
23
30
108
23
30
108
23
30
108
23
30
108
23
30
108
23
30
108
23
30
108
23
30
108
23
30
108
23
30
108
23
30
108
23
30
108
23
30
108
23
30
108
23
30
108
23
30
108
23
30
108
23
30
108
23
30
108
23
30
108
23
30
108
23
30
108
23
30
108
23
30
108
23
30
108
23
30
108
23
30
108
23
30
108
23
30
108
23
30
108
23
30
108
23
30
108
23
30
108
23
30
108
23
30
108
23
30
108
23
30
108
23
30
108
23
30
108
23
30
108
23
30
108
23
30
108
23
30
108
23
30
108
23
30
108
23
30
108
23
30
108
23
30
122
36
40
122
36
40
122
36
40
122
36
40
122
36
40
122
36
40
122
36
40
122
36
40
122
36
40
122
36
40
122
36
40
122
36
40
122
36
40
122
36
40
122
36
40
122
36
40
122
36
40
122
36
40
122
36
40
122
36
40
122
36
40
122
36
40
122
36
40
122
36
40
122
36
40
122
36
40
122
36
40
122
36
40
122
36
40
122
36
40
122
36
40
122
36
40
122
36
40
122
36
40
122
36
40
122
36
40
122
36
40
122
36
40
122
36
40
122
36
40
122
36
40
147
59
59
147
59
59
147
59
59
147
59
59
147
59
59
147
59
59
147
59
59
147
59
59
147
59
59
147
59
59
147
59
59
147
59
59
147
59
59
147
59
59
147
59
59
147
59
59
147
59
59
147
59
59
147
59
59
147
59
59
147
59
59
147
59
59
147
59
59
147
59
59
147
59
59
147
59
59
147
59
59
147
59
59
147
59
59
147
59
59
147
59
59
147
59
59
147
59
59
147
59
59
147
59
59
147
59
59
147
59
59
147
59
59
147
59
59
147
59
59
147
59
59
147
59
59
147
59
59
147
59
59
147
59
59
147
59
59
147
59
59
147
59
59
147
59
59
147
59
59
147
59
59
147
59
59
147
59
59
176
85
83
176
85
83
176
85
83
176
85
83
176
85
83
176
85
83
176
85
83
176
85
83
176
85
83
176
85
83
176
85
83
176
85
83
176
85
83
176
85
83
176
85
83
176
85
83
176
85
83
176
85
83
176
85
83
176
85
83
176
85
83
176
85
83
176
85
83
176
85
83
176
85
83
176
85
83
176
85
83
176
85
83
176
85
83
176
85
83
176
85
83
176
85
83
176
85
83
176
85
83
176
85
83
176
85
83
176
85
83
176
85
83
176
85
83
176
85
83
176
85
83
176
85
83
176
85
83
176
85
83
176
85
83
176
85
83
176
85
83
176
85
83
176
85
83
176
85
83
176
85
83
176
85
83
176
85
83
176
85
83
176
85
83
92
4
19
92
4
19
92
4
19
92
4
19
92
4
19
92
4
19
92
4
19
92
4
19
92
4
19
92
4
19
92
4
19
92
4
19
92
4
19
92
4
19
92
4
19
92
4
19
92
4
19
92
4
19
92
4
19
92
4
19
92
4
19
92
4
19
92
4
19
92
4
19
92
4
19
92
4
19
92
4
19
92
4
19
92
4
19
92
4
19
92
4
19
92
4
19
92
4
19
92
4
19
92
4
19
92
4
19
92
4
19
92
4
19
92
4
19
92
4
19
92
4
19
92
4
19
92
4
19
92
4
19
92
4
19
92
4
19
92
4
19
92
4
19
92
4
19
92
4
19
92
4
19
92
4
19
108
23
30
108
23
30
108
23
30
108
23
30
108
23
30
108
23
30
108
23
30
108
23
30
108
23
30
108
23
30
108
23
30
108
23
30
108
23
30
108
23
30
108
23
30
108
23
30
108
23
30
108
23
30
108
23
30
108
23
30
108
23
30
108
23
30
108
23
30
108
23
30
108
23
30
108
23
30
108
23
30
108
23
30
108
23
30
108
23
30
108
23
30
108
23
30
108
23
30
108
23
30
108
23
30
108
23
30
108
23
30
108
23
30
108
23
30
108
23
30
108
23
30
108
23
30
108
23
30
108
23
30
108
23
30
108
23
30
108
23
30
108
23
30
108
23
30
108
23
30
108
23
30
108
23
30
108
23
30
108
23
30
108
23
30
122
36
40
122
36
40
122
36
40
122
36
40
122
36
40
122
36
40
122
36
40
122
36
40
122
36
40
122
36
40
122
36
40
122
36
40
122
36
40
122
36
40
122
36
40
122
36
40
122
36
40
122
36
40
122
36
40
122
36
40
122
36
40
122
36
40
122
36
40
122
36
40
122
36
40
122
36
40
122
36
40
122
36
40
122
36
40
122
36
40
122
36
40
122
36
40
122
36
40
122
36
40
122
36
40
122
36
40
122
36
40
122
36
40
122
36
40
122
36
40
122
36
40
147
59
59
147
59
59
147
59
59
147
59
59
147
59
59
147
59
59
147
59
59
147
59
59
147
59
59
147
59
59
147
59
59
147
59
59
147
59
59
147
59
59
147
59
59
147
59
59
147
59
59
147
59
59
147
59
59
147
59
59
147
59
59
147
59
59
147
59
59
147
59
59
147
59
59
147
59
59
147
59
59
147
59
59
147
59
59
147
59
59
147
59
59
147
59
59
147
59
59
147
59
59
147
59
59
147
59
59
147
59
59
147
59
59
147
59
59
147
59
59
147
59
59
147
59
59
147
59
59
147
59
59
147
59
59
147
59
59
147
59
59
147
59
59
147
59
59
147
59
59
147
59
59
147
59
59
147
59
59
176
85
83
176
85
83
176
85
83
176
85
83
176
85
83
176
85
83
176
85
83
176
85
83
176
85
83
176
85
83
176
85
83
176
85
83
176
85
83
176
85
83
176
85
83
176
85
83
176
85
83
176
85
83
176
85
83
176
85
83
176
85
83
176
85
83
176
85
83
176
85
83
176
85
83
176
85
83
176
85
83
176
85
83
176
85
83
176
85
83
176
85
83
176
85
83
176
85
83
176
85
83
176
85
83
176
85
83
176
85
83
176
85
83
176
85
83
176
85
83
176
85
83
176
85
83
176
85
83
176
85
83
176
85
83
176
85
83
176
85
83
176
85
83
176
85
83
176
85
83
176
85
83
176
85
83
176
85
83
176
85
83
176
85
83
92
4
19
92
4
19
92
4
19
92
4
19
92
4
19
92
4
19
92
4
19
92
4
19
92
4
19
92
4
19
92
4
19
92
4
19
92
4
19
92
4
19
92
4
19
92
4
19
92
4
19
92
4
19
92
4
19
92
4
19
92
4
19
92
4
19
92
4
19
92
4
19
92
4
19
92
4
19
92
4
19
92
4
19
92
4
19
92
4
19
92
4
19
92
4
19
92
4
19
92
4
19
92
4
19
92
4
19
92
4
19
92
4
19
92
4
19
92
4
19
92
4
19
92
4
19
92
4
19
92
4
19
92
4
19
92
4
19
92
4
19
92
4
19
92
4
19
92
4
19
92
4
19
92
4
19
108
23
30
108
23
30
108
23
30
108
23
30
108
23
30
108
23
30
108
23
30
108
23
30
108
23
30
108
23
30
108
23
30
108
23
30
108
23
30
108
23
30
108
23
30
108
23
30
108
23
30
108
23
30
108
23
30
108
23
30
108
23
30
108
23
30
108
23
30
108
23
30
108
23
30
108
23
30
108
23
30
108
23
30
108
23
30
108
23
30
108
23
30
108
23
30
108
23
30
108
23
30
108
23
30
108
23
30
108
23
30
108
23
30
108
23
30
108
23
30
108
23
30
108
23
30
108
23
30
108
23
30
108
23
30
108
23
30
108
23
30
108
23
30
108
23
30
108
23
30
108
23
30
108
23
30
108
23
30
108
23
30
108
23
30
122
36
40
122
36
40
122
36
40
122
36
40
122
36
40
122
36
40
122
36
40
122
36
40
122
36
40
122
36
40
122
36
40
122
36
40
122
36
40
122
36
40
122
36
40
122
36
40
122
36
40
122
36
40
122
36
40
122
36
40
122
36
40
122
36
40
122
36
40
122
36
40
122
36
40
122
36
40
122
36
40
122
36
40
122
36
40
122
36
40
122
36
40
122
36
40
122
36
40
122
36
40
122
36
40
122
36
40
122
36
40
122
36
40
122
36
40
122
36
40
122
36
40
147
59
59
147
59
59
147
59
59
147
59
59
147
59
59
147
59
59
147
59
59
147
59
59
147
59
59
147
59
59
147
59
59
147
59
59
147
59
59
147
59
59
147
59
59
147
59
59
147
59
59
147
59
59
147
59
59
147
59
59
147
59
59
147
59
59
147
59
59
147
59
59
147
59
59
147
59
59
147
59
59
147
59
59
147
59
59
147
59
59
147
59
59
147
59
59
147
59
59
147
59
59
147
59
59
147
59
59
147
59
59
147
59
59
147
59
59
147
59
59
147
59
59
147
59
59
147
59
59
147
59
59
147
59
59
147
59
59
147
59
59
147
59
59
147
59
59
147
59
59
147
59
59
147
59
59
147
59
59
176
85
83
176
85
83
176
85
83
176
85
83
176
85
83
176
85
83
176
85
83
176
85
83
176
85
83
176
85
83
176
85
83
176
85
83
176
85
83
176
85
83
176
85
83
176
85
83
176
85
83
176
85
83
176
85
83
176
85
83
176
85
83
176
85
83
176
85
83
176
85
83
176
85
83
176
85
83
176
85
83
176
85
83
176
85
83
176
85
83
176
85
83
176
85
83
176
85
83
176
85
83
176
85
83
176
85
83
176
85
83
176
85
83
176
85
83
176
85
83
176
85
83
176
85
83
176
85
83
176
85
83
176
85
83
176
85
83
176
85
83
176
85
83
176
85
83
176
85
83
176
85
83
176
85
83
176
85
83
176
85
83
176
85
83
92
4
19
92
4
19
92
4
19
92
4
19
92
4
19
92
4
19
92
4
19
92
4
19
92
4
19
92
4
19
92
4
19
92
4
19
92
4
19
92
4
19
92
4
19
92
4
19
92
4
19
92
4
19
92
4
19
92
4
19
92
4
19
92
4
19
92
4
19
92
4
19
92
4
19
92
4
19
92
4
19
92
4
19
92
4
19
92
4
19
92
4
19
92
4
19
92
4
19
92
4
19
92
4
19
92
4
19
92
4
19
92
4
19
92
4
19
92
4
19
92
4
19
92
4
19
92
4
19
92
4
19
92
4
19
92
4
19
92
4
19
92
4
19
92
4
19
92
4
19
92
4
19
92
4
19
108
23
30
108
23
30
108
23
30
108
23
30
108
23
30
108
23
30
108
23
30
108
23
30
108
23
30
108
23
30
108
23
30
108
23
30
108
23
30
108
23
30
108
23
30
108
23
30
108
23
30
108
23
30
108
23
30
108
23
30
108
23
30
108
23
30
108
23
30
108
23
30
108
23
30
108
23
30
108
23
30
108
23
30
108
23
30
108
23
30
108
23
30
108
23
30
108
23
30
108
23
30
108
23
30
108
23
30
108
23
30
108
23
30
108
23
30
108
23
30
108
23
30
108
23
30
108
23
30
108
23
30
108
23
30
108
23
30
108
23
30
108
23
30
108
23
30
108
23
30
108
23
30
108
23
30
108
23
30
108
23
30
108
23
30
122
36
40
122
36
40
122
36
40
122
36
40
122
36
40
122
36
40
122
36
40
122
36
40
122
36
40
122
36
40
122
36
40
122
36
40
122
36
40
122
36
40
122
36
40
122
36
40
122
36
40
122
36
40
122
36
40
122
36
40
122
36
40
122
36
40
122
36
40
122
36
40
122
36
40
122
36
40
122
36
40
122
36
40
122
36
40
122
36
40
122
36
40
122
36
40
122
36
40
122
36
40
122
36
40
122
36
40
122
36
40
122
36
40
122
36
40
122
36
40
122
36
40
147
59
59
147
59
59
147
59
59
147
59
59
147
59
59
147
59
59
147
59
59
147
59
59
147
59
59
147
59
59
147
59
59
147
59
59
147
59
59
147
59
59
147
59
59
147
59
59
147
59
59
147
59
59
147
59
59
147
59
59
147
59
59
147
59
59
147
59
59
147
59
59
147
59
59
147
59
59
147
59
59
147
59
59
147
59
59
147
59
59
147
59
59
147
59
59
147
59
59
147
59
59
147
59
59
147
59
59
147
59
59
147
59
59
147
59
59
147
59
59
147
59
59
147
59
59
147
59
59
147
59
59
147
59
59
147
59
59
147
59
59
147
59
59
147
59
59
147
59
59
147
59
59
147
59
59
147
59
59
176
85
83
176
85
83
176
85
83
176
85
83
176
85
83
176
85
83
176
85
83
176
85
83
176
85
83
176
85
83
176
85
83
176
85
83
176
85
83
176
85
83
176
85
83
176
85
83
176
85
83
176
85
83
176
85
83
176
85
83
176
85
83
176
85
83
176
85
83
176
85
83
176
85
83
176
85
83
176
85
83
176
85
83
176
85
83
176
85
83
176
85
83
176
85
83
176
85
83
176
85
83
176
85
83
176
85
83
176
85
83
176
85
83
176
85
83
176
85
83
176
85
83
176
85
83
176
85
83
176
85
83
176
85
83
176
85
83
176
85
83
176
85
83
176
85
83
176
85
83
176
85
83
176
85
83
176
85
83
176
85
83
176
85
83
92
4
19
92
4
19
92
4
19
92
4
19
92
4
19
92
4
19
92
4
19
92
4
19
92
4
19
92
4
19
92
4
19
92
4
19
92
4
19
92
4
19
92
4
19
92
4
19
92
4
19
92
4
19
92
4
19
92
4
19
92
4
19
92
4
19
92
4
19
92
4
19
92
4
19
92
4
19
92
4
19
92
4
19
92
4
19
92
4
19
92
4
19
92
4
19
92
4
19
92
4
19
92
4
19
92
4
19
92
4
19
92
4
19
92
4
19
92
4
19
92
4
19
92
4
19
92
4
19
92
4
19
92
4
19
92
4
19
92
4
19
92
4
19
92
4
19
92
4
19
92
4
19
92
4
19
108
23
30
108
23
30
108
23
30
108
23
30
108
23
30
108
23
30
108
23
30
108
23
30
108
23
30
108
23
30
108
23
30
108
23
30
108
23
30
108
23
30
108
23
30
108
23
30
108
23
30
108
23
30
108
23
30
108
23
30
108
23
30
108
23
30
108
23
30
108
23
30
108
23
30
108
23
30
108
23
30
108
23
30
108
23
30
108
23
30
108
23
30
108
23
30
108
23
30
108
23
30
108
23
30
108
23
30
108
23
30
108
23
30
108
23
30
108
23
30
108
23
30
108
23
30
108
23
30
108
23
30
108
23
30
108
23
30
108
23
30
108
23
30
108
23
30
108
23
30
108
23
30
108
23
30
108
23
30
108
23
30
108
23
30
122
36
40
122
36
40
122
36
40
122
36
40
122
36
40
122
36
40
122
36
40
122
36
40
122
36
40
122
36
40
122
36
40
122
36
40
122
36
40
122
36
40
122
36
40
122
36
40
122
36
40
122
36
40
122
36
40
122
36
40
122
36
40
122
36
40
122
36
40
122
36
40
122
36
40
122
36
40
122
36
40
122
36
40
122
36
40
122
36
40
122
36
40
122
36
40
122
36
40
122
36
40
122
36
40
122
36
40
122
36
40
122
36
40
122
36
40
122
36
40
122
36
40
147
59
59
147
59
59
147
59
59
147
59
59
147
59
59
147
59
59
147
59
59
147
59
59
147
59
59
147
59
59
147
59
59
147
59
59
147
59
59
147
59
59
147
59
59
147
59
59
147
59
59
147
59
59
147
59
59
147
59
59
147
59
59
147
59
59
147
59
59
147
59
59
147
59
59
147
59
59
147
59
59
147
59
59
147
59
59
147
59
59
147
59
59
147
59
59
147
59
59
147
59
59
147
59
59
147
59
59
147
59
59
147
59
59
147
59
59
147
59
59
147
59
59
147
59
59
147
59
59
147
59
59
147
59
59
147
59
59
147
59
59
147
59
59
147
59
59
147
59
59
147
59
59
147
59
59
147
59
59
176
85
83
176
85
83
176
85
83
176
85
83
176
85
83
176
85
83
176
85
83
176
85
83
176
85
83
176
85
83
176
85
83
176
85
83
176
85
83
176
85
83
176
85
83
176
85
83
176
85
83
176
85
83
176
85
83
176
85
83
176
85
83
176
85
83
176
85
83
176
85
83
176
85
83
176
85
83
176
85
83
176
85
83
176
85
83
176
85
83
176
85
83
176
85
83
176
85
83
176
85
83
176
85
83
176
85
83
176
85
83
176
85
83
176
85
83
176
85
83
176
85
83
176
85
83
176
85
83
176
85
83
176
85
83
176
85
83
176
85
83
176
85
83
176
85
83
176
85
83
176
85
83
176
85
83
176
85
83
176
85
83
176
85
83
108
23
30
108
23
30
108
23
30
108
23
30
108
23
30
108
23
30
108
23
30
108
23
30
108
23
30
108
23
30
108
23
30
108
23
30
108
23
30
108
23
30
108
23
30
108
23
30
108
23
30
108
23
30
108
23
30
108
23
30
108
23
30
108
23
30
108
23
30
108
23
30
108
23
30
108
23
30
108
23
30
108
23
30
108
23
30
108
23
30
108
23
30
108
23
30
108
23
30
108
23
30
108
23
30
108
23
30
108
23
30
108
23
30
108
23
30
108
23
30
108
23
30
108
23
30
108
23
30
108
23
30
108
23
30
108
23
30
108
23
30
108
23
30
108
23
30
108
23
30
108
23
30
108
23
30
108
23
30
108
23
30
108
23
30
108
23
30
108
23
30
108
23
30
108
23
30
108
23
30
108
23
30
108
23
30
108
23
30
108
23
30
108
23
30
108
23
30
108
23
30
108
23
30
108
23
30
108
23
30
108
23
30
108
23
30
108
23
30
108
23
30
108
23
30
108
23
30
108
23
30
108
23
30
108
23
30
108
23
30
108
23
30
108
23
30
108
23
30
108
23
30
108
23
30
108
23
30
108
23
30
108
23
30
108
23
30
108
23
30
108
23
30
108
23
30
108
23
30
108
23
30
108
23
30
108
23
30
108
23
30
108
23
30
108
23
30
108
23
30
108
23
30
108
23
30
108
23
30
108
23
30
108
23
30
108
23
30
108
23
30
122
36
40
122
36
40
122
36
40
122
36
40
122
36
40
122
36
40
122
36
40
122
36
40
122
36
40
122
36
40
122
36
40
122
36
40
122
36
40
122
36
40
122
36
40
122
36
40
122
36
40
122
36
40
122
36
40
122
36
40
122
36
40
122
36
40
122
36
40
122
36
40
122
36
40
122
36
40
122
36
40
122
36
40
122
36
40
122
36
40
122
36
40
122
36
40
122
36
40
122
36
40
122
36
40
122
36
40
122
36
40
122
36
40
122
36
40
122
36
40
122
36
40
147
59
59
147
59
59
147
59
59
147
59
59
147
59
59
147
59
59
147
59
59
147
59
59
147
59
59
147
59
59
147
59
59
147
59
59
147
59
59
147
59
59
147
59
59
147
59
59
147
59
59
147
59
59
147
59
59
147
59
59
147
59
59
147
59
59
147
59
59
147
59
59
147
59
59
147
59
59
147
59
59
147
59
59
147
59
59
147
59
59
147
59
59
147
59
59
147
59
59
147
59
59
147
59
59
147
59
59
147
59
59
147
59
59
147
59
59
147
59
59
147
59
59
147
59
59
147
59
59
147
59
59
147
59
59
147
59
59
147
59
59
147
59
59
147
59
59
147
59
59
147
59
59
147
59
59
147
59
59
176
85
83
176
85
83
176
85
83
176
85
83
176
85
83
176
85
83
176
85
83
176
85
83
176
85
83
176
85
83
176
85
83
176
85
83
176
85
83
176
85
83
176
85
83
176
85
83
176
85
83
176
85
83
176
85
83
176
85
83
176
85
83
176
85
83
176
85
83
176
85
83
176
85
83
176
85
83
176
85
83
176
85
83
176
85
83
176
85
83
176
85
83
176
85
83
176
85
83
176
85
83
176
85
83
176
85
83
176
85
83
176
85
83
176
85
83
176
85
83
176
85
83
176
85
83
176
85
83
176
85
83
176
85
83
176
85
83
176
85
83
176
85
83
176
85
83
176
85
83
176
85
83
176
85
83
176
85
83
176
85
83
176
85
83
