P3 256 50
255
108
23
30
108
23
30
108
23
30
108
23
30
108
23
30
108
23
30
108
23
30
108
23
30
108
23
30
108
23
30
108
23
30
108
23
30
108
23
30
108
23
30
108
23
30
108
23
30
108
23
30
108
23
30
108
23
30
108
23
30
108
23
30
108
23
30
108
23
30
108
23
30
108
23
30
108
23
30
108
23
30
108
23
30
108
23
30
108
23
30
108
23
30
108
23
30
108
23
30
108
23
30
108
23
30
108
23
30
108
23
30
108
23
30
108
23
30
108
23
30
108
23
30
108
23
30
108
23
30
108
23
30
108
23
30
108
23
30
108
23
30
108
23
30
108
23
30
108
23
30
108
23
30
108
23
30
108
23
30
108
23
30
108
23
30
108
23
30
108
23
30
108
23
30
108
23
30
108
23
30
108
23
30
108
23
30
108
23
30
108
23
30
108
23
30
108
23
30
108
23
30
108
23
30
108
23
30
108
23
30
108
23
30
108
23
30
108
23
30
108
23
30
108
23
30
108
23
30
108
23
30
108
23
30
108
23
30
108
23
30
108
23
30
108
23
30
108
23
30
108
23
30
108
23
30
108
23
30
108
23
30
108
23
30
108
23
30
108
23
30
108
23
30
108
23
30
108
23
30
108
23
30
108
23
30
108
23
30
108
23
30
108
23
30
108
23
30
108
23
30
108
23
30
108
23
30
108
23
30
108
23
30
108
23
30
108
23
30
108
23
30
122
36
40
122
36
40
122
36
40
122
36
40
122
36
40
122
36
40
122
36
40
122
36
40
122
36
40
122
36
40
122
36
40
122
36
40
122
36
40
122
36
40
122
36
40
122
36
40
122
36
40
122
36
40
122
36
40
122
36
40
122
36
40
122
36
40
122
36
40
122
36
40
122
36
40
122
36
40
122
36
40
122
36
40
122
36
40
122
36
40
122
36
40
122
36
40
122
36
40
122
36
40
122
36
40
122
36
40
122
36
40
122
36
40
122
36
40
122
36
40
122
36
40
147
59
59
147
59
59
147
59
59
147
59
59
147
59
59
147
59
59
147
59
59
147
59
59
147
59
59
147
59
59
147
59
59
147
59
59
147
59
59
147
59
59
147
59
59
147
59
59
147
59
59
147
59
59
147
59
59
147
59
59
147
59
59
147
59
59
147
59
59
147
59
59
147
59
59
147
59
59
147
59
59
147
59
59
147
59
59
147
59
59
147
59
59
147
59
59
147
59
59
147
59
59
147
59
59
147
59
59
147
59
59
147
59
59
147
59
59
147
59
59
147
59
59
147
59
59
147
59
59
147
59
59
147
59
59
147
59
59
147
59
59
147
59
59
147
59
59
147
59
59
147
59
59
147
59
59
147
59
59
147
59
59
147
59
59
147
59
59
147
59
59
147
59
59
147
59
59
147
59
59
147
59
59
147
59
59
147
59
59
147
59
59
147
59
59
147
59
59
147
59
59
147
59
59
147
59
59
147
59
59
147
59
59
147
59
59
147
59
59
147
59
59
147
59
59
147
59
59
147
59
59
147
59
59
147
59
59
147
59
59
147
59
59
147
59
59
147
59
59
147
59
59
147
59
59
147
59
59
147
59
59
147
59
59
147
59
59
147
59
59
147
59
59
147
59
59
147
59
59
147
59
59
147
59
59
147
59
59
147
59
59
147
59
59
147
59
59
147
59
59
147
59
59
147
59
59
147
59
59
147
59
59
147
59
59
147
59
59
147
59
59
147
59
59
108
23
30
108
23
30
108
23
30
108
23
30
108
23
30
108
23
30
108
23
30
108
23
30
108
23
30
108
23
30
108
23
30
108
23
30
108
23
30
108
23
30
108
23
30
108
23
30
108
23
30
108
23
30
108
23
30
108
23
30
108
23
30
108
23
30
108
23
30
108
23
30
108
23
30
108
23
30
108
23
30
108
23
30
108
23
30
108
23
30
108
23
30
108
23
30
108
23
30
108
23
30
108
23
30
108
23
30
108
23
30
108
23
30
108
23
30
108
23
30
108
23
30
108
23
30
108
23
30
108
23
30
108
23
30
108
23
30
108
23
30
108
23
30
108
23
30
108
23
30
108
23
30
108
23
30
108
23
30
108
23
30
108
23
30
108
23
30
108
23
30
108
23
30
108
23
30
108
23
30
108
23
30
108
23
30
108
23
30
108
23
30
108
23
30
108
23
30
108
23
30
108
23
30
108
23
30
108
23
30
108
23
30
108
23
30
108
23
30
108
23
30
108
23
30
108
23
30
108
23
30
108
23
30
108
23
30
108
23
30
108
23
30
108
23
30
108
23
30
108
23
30
108
23
30
108
23
30
108
23
30
108
23
30
108
23
30
108
23
30
108
23
30
108
23
30
108
23
30
108
23
30
108
23
30
108
23
30
108
23
30
108
23
30
108
23
30
108
23
30
108
23
30
108
23
30
108
23
30
108
23
30
108
23
30
108
23
30
108
23
30
122
36
40
122
36
40
122
36
40
122
36
40
122
36
40
122
36
40
122
36
40
122
36
40
122
36
40
122
36
40
122
36
40
122
36
40
122
36
40
122
36
40
122
36
40
122
36
40
122
36
40
122
36
40
122
36
40
122
36
40
122
36
40
122
36
40
122
36
40
122
36
40
122
36
40
122
36
40
122
36
40
122
36
40
122
36
40
122
36
40
122
36
40
122
36
40
122
36
40
122
36
40
122
36
40
122
36
40
122
36
40
122
36
40
122
36
40
122
36
40
122
36
40
147
59
59
147
59
59
147
59
59
147
59
59
147
59
59
147
59
59
147
59
59
147
59
59
147
59
59
147
59
59
147
59
59
147
59
59
147
59
59
147
59
59
147
59
59
147
59
59
147
59
59
147
59
59
147
59
59
147
59
59
147
59
59
147
59
59
147
59
59
147
59
59
147
59
59
147
59
59
147
59
59
147
59
59
147
59
59
147
59
59
147
59
59
147
59
59
147
59
59
147
59
59
147
59
59
147
59
59
147
59
59
147
59
59
147
59
59
147
59
59
147
59
59
147
59
59
147
59
59
147
59
59
147
59
59
147
59
59
147
59
59
147
59
59
147
59
59
147
59
59
147
59
59
147
59
59
147
59
59
147
59
59
147
59
59
147
59
59
147
59
59
147
59
59
147
59
59
147
59
59
147
59
59
147
59
59
147
59
59
147
59
59
147
59
59
147
59
59
147
59
59
147
59
59
147
59
59
147
59
59
147
59
59
147
59
59
147
59
59
147
59
59
147
59
59
147
59
59
147
59
59
147
59
59
147
59
59
147
59
59
147
59
59
147
59
59
147
59
59
147
59
59
147
59
59
147
59
59
147
59
59
147
59
59
147
59
59
147
59
59
147
59
59
147
59
59
147
59
59
147
59
59
147
59
59
147
59
59
147
59
59
147
59
59
147
59
59
147
59
59
147
59
59
147
59
59
147
59
59
147
59
59
147
59
59
147
59
59
147
59
59
147
59
59
108
23
30
108
23
30
108
23
30
108
23
30
108
23
30
108
23
30
108
23
30
108
23
30
108
23
30
108
23
30
108
23
30
108
23
30
108
23
30
108
23
30
108
23
30
108
23
30
108
23
30
108
23
30
108
23
30
108
23
30
108
23
30
108
23
30
108
23
30
108
23
30
108
23
30
108
23
30
108
23
30
108
23
30
108
23
30
108
23
30
108
23
30
108
23
30
108
23
30
108
23
30
108
23
30
108
23
30
108
23
30
108
23
30
108
23
30
108
23
30
108
23
30
108
23
30
108
23
30
108
23
30
108
23
30
108
23
30
108
23
30
108
23
30
108
23
30
108
23
30
108
23
30
108
23
30
108
23
30
108
23
30
108
23
30
108
23
30
108
23
30
108
23
30
108
23
30
108
23
30
108
23
30
108
23
30
108
23
30
108
23
30
108
23
30
108
23
30
108
23
30
108
23
30
108
23
30
108
23
30
108
23
30
108
23
30
108
23
30
108
23
30
108
23
30
108
23
30
108
23
30
108
23
30
108
23
30
108
23
30
108
23
30
108
23
30
108
23
30
108
23
30
108
23
30
108
23
30
108
23
30
108
23
30
108
23
30
108
23
30
108
23
30
108
23
30
108
23
30
108
23
30
108
23
30
108
23
30
108
23
30
108
23
30
108
23
30
108
23
30
108
23
30
108
23
30
108
23
30
108
23
30
108
23
30
108
23
30
108
23
30
122
36
40
122
36
40
122
36
40
122
36
40
122
36
40
122
36
40
122
36
40
122
36
40
122
36
40
122
36
40
122
36
40
122
36
40
122
36
40
122
36
40
122
36
40
122
36
40
122
36
40
122
36
40
122
36
40
122
36
40
122
36
40
122
36
40
122
36
40
122
36
40
122
36
40
122
36
40
122
36
40
122
36
40
122
36
40
122
36
40
122
36
40
122
36
40
122
36
40
122
36
40
122
36
40
122
36
40
122
36
40
122
36
40
122
36
40
122
36
40
122
36
40
147
59
59
147
59
59
147
59
59
147
59
59
147
59
59
147
59
59
147
59
59
147
59
59
147
59
59
147
59
59
147
59
59
147
59
59
147
59
59
147
59
59
147
59
59
147
59
59
147
59
59
147
59
59
147
59
59
147
59
59
147
59
59
147
59
59
147
59
59
147
59
59
147
59
59
147
59
59
147
59
59
147
59
59
147
59
59
147
59
59
147
59
59
147
59
59
147
59
59
147
59
59
147
59
59
147
59
59
147
59
59
147
59
59
147
59
59
147
59
59
147
59
59
147
59
59
147
59
59
147
59
59
147
59
59
147
59
59
147
59
59
147
59
59
147
59
59
147
59
59
147
59
59
147
59
59
147
59
59
147
59
59
147
59
59
147
59
59
147
59
59
147
59
59
147
59
59
147
59
59
147
59
59
147
59
59
147
59
59
147
59
59
147
59
59
147
59
59
147
59
59
147
59
59
147
59
59
147
59
59
147
59
59
147
59
59
147
59
59
147
59
59
147
59
59
147
59
59
147
59
59
147
59
59
147
59
59
147
59
59
147
59
59
147
59
59
147
59
59
147
59
59
147
59
59
147
59
59
147
59
59
147
59
59
147
59
59
147
59
59
147
59
59
147
59
59
147
59
59
147
59
59
147
59
59
147
59
59
147
59
59
147
59
59
147
59
59
147
59
59
147
59
59
147
59
59
147
59
59
147
59
59
147
59
59
147
59
59
147
59
59
147
59
59
108
23
30
108
23
30
108
23
30
108
23
30
108
23
30
108
23
30
108
23
30
108
23
30
108
23
30
108
23
30
108
23
30
108
23
30
108
23
30
108
23
30
108
23
30
108
23
30
108
23
30
108
23
30
108
23
30
108
23
30
108
23
30
108
23
30
108
23
30
108
23
30
108
23
30
108
23
30
108
23
30
108
23
30
108
23
30
108
23
30
108
23
30
108
23
30
108
23
30
108
23
30
108
23
30
108
23
30
108
23
30
108
23
30
108
23
30
108
23
30
108
23
30
108
23
30
108
23
30
108
23
30
108
23
30
108
23
30
108
23
30
108
23
30
108
23
30
108
23
30
108
23
30
108
23
30
108
23
30
108
23
30
108
23
30
108
23
30
108
23
30
108
23
30
108
23
30
108
23
30
108
23
30
108
23
30
108
23
30
108
23
30
108
23
30
108
23
30
108
23
30
108
23
30
108
23
30
108
23
30
108
23
30
108
23
30
108
23
30
108
23
30
108
23
30
108
23
30
108
23
30
108
23
30
108
23
30
108
23
30
108
23
30
108
23
30
108
23
30
108
23
30
108
23
30
108
23
30
108
23
30
108
23
30
108
23
30
108
23
30
108
23
30
108
23
30
108
23
30
108
23
30
108
23
30
108
23
30
108
23
30
108
23
30
108
23
30
108
23
30
108
23
30
108
23
30
108
23
30
108
23
30
108
23
30
108
23
30
108
23
30
122
36
40
122
36
40
122
36
40
122
36
40
122
36
40
122
36
40
122
36
40
122
36
40
122
36
40
122
36
40
122
36
40
122
36
40
122
36
40
122
36
40
122
36
40
122
36
40
122
36
40
122
36
40
122
36
40
122
36
40
122
36
40
122
36
40
122
36
40
122
36
40
122
36
40
122
36
40
122
36
40
122
36
40
122
36
40
122
36
40
122
36
40
122
36
40
122
36
40
122
36
40
122
36
40
122
36
40
122
36
40
122
36
40
122
36
40
122
36
40
122
36
40
147
59
59
147
59
59
147
59
59
147
59
59
147
59
59
147
59
59
147
59
59
147
59
59
147
59
59
147
59
59
147
59
59
147
59
59
147
59
59
147
59
59
147
59
59
147
59
59
147
59
59
147
59
59
147
59
59
147
59
59
147
59
59
147
59
59
147
59
59
147
59
59
147
59
59
147
59
59
147
59
59
147
59
59
147
59
59
147
59
59
147
59
59
147
59
59
147
59
59
147
59
59
147
59
59
147
59
59
147
59
59
147
59
59
147
59
59
147
59
59
147
59
59
147
59
59
147
59
59
147
59
59
147
59
59
147
59
59
147
59
59
147
59
59
147
59
59
147
59
59
147
59
59
147
59
59
147
59
59
147
59
59
147
59
59
147
59
59
147
59
59
147
59
59
147
59
59
147
59
59
147
59
59
147
59
59
147
59
59
147
59
59
147
59
59
147
59
59
147
59
59
147
59
59
147
59
59
147
59
59
147
59
59
147
59
59
147
59
59
147
59
59
147
59
59
147
59
59
147
59
59
147
59
59
147
59
59
147
59
59
147
59
59
147
59
59
147
59
59
147
59
59
147
59
59
147
59
59
147
59
59
147
59
59
147
59
59
147
59
59
147
59
59
147
59
59
147
59
59
147
59
59
147
59
59
147
59
59
147
59
59
147
59
59
147
59
59
147
59
59
147
59
59
147
59
59
147
59
59
147
59
59
147
59
59
147
59
59
147
59
59
147
59
59
108
23
30
108
23
30
108
23
30
108
23
30
108
23
30
108
23
30
108
23
30
108
23
30
108
23
30
108
23
30
108
23
30
108
23
30
108
23
30
108
23
30
108
23
30
108
23
30
108
23
30
108
23
30
108
23
30
108
23
30
108
23
30
108
23
30
108
23
30
108
23
30
108
23
30
108
23
30
108
23
30
108
23
30
108
23
30
108
23
30
108
23
30
108
23
30
108
23
30
108
23
30
108
23
30
108
23
30
108
23
30
108
23
30
108
23
30
108
23
30
108
23
30
108
23
30
108
23
30
108
23
30
108
23
30
108
23
30
108
23
30
108
23
30
108
23
30
108
23
30
108
23
30
108
23
30
108
23
30
108
23
30
108
23
30
108
23
30
108
23
30
108
23
30
108
23
30
108
23
30
108
23
30
108
23
30
108
23
30
108
23
30
108
23
30
108
23
30
108
23
30
108
23
30
108
23
30
108
23
30
108
23
30
108
23
30
108
23
30
108
23
30
108
23
30
108
23
30
108
23
30
108
23
30
108
23
30
108
23
30
108
23
30
108
23
30
108
23
30
108
23
30
108
23
30
108
23
30
108
23
30
108
23
30
108
23
30
108
23
30
108
23
30
108
23
30
108
23
30
108
23
30
108
23
30
108
23
30
108
23
30
108
23
30
108
23
30
108
23
30
108
23
30
108
23
30
108
23
30
108
23
30
108
23
30
108
23
30
108
23
30
122
36
40
122
36
40
122
36
40
122
36
40
122
36
40
122
36
40
122
36
40
122
36
40
122
36
40
122
36
40
122
36
40
122
36
40
122
36
40
122
36
40
122
36
40
122
36
40
122
36
40
122
36
40
122
36
40
122
36
40
122
36
40
122
36
40
122
36
40
122
36
40
122
36
40
122
36
40
122
36
40
122
36
40
122
36
40
122
36
40
122
36
40
122
36
40
122
36
40
122
36
40
122
36
40
122
36
40
122
36
40
122
36
40
122
36
40
122
36
40
122
36
40
147
59
59
147
59
59
147
59
59
147
59
59
147
59
59
147
59
59
147
59
59
147
59
59
147
59
59
147
59
59
147
59
59
147
59
59
147
59
59
147
59
59
147
59
59
147
59
59
147
59
59
147
59
59
147
59
59
147
59
59
147
59
59
147
59
59
147
59
59
147
59
59
147
59
59
147
59
59
147
59
59
147
59
59
147
59
59
147
59
59
147
59
59
147
59
59
147
59
59
147
59
59
147
59
59
147
59
59
147
59
59
147
59
59
147
59
59
147
59
59
147
59
59
147
59
59
147
59
59
147
59
59
147
59
59
147
59
59
147
59
59
147
59
59
147
59
59
147
59
59
147
59
59
147
59
59
147
59
59
147
59
59
147
59
59
147
59
59
147
59
59
147
59
59
147
59
59
147
59
59
147
59
59
147
59
59
147
59
59
147
59
59
147
59
59
147
59
59
147
59
59
147
59
59
147
59
59
147
59
59
147
59
59
147
59
59
147
59
59
147
59
59
147
59
59
147
59
59
147
59
59
147
59
59
147
59
59
147
59
59
147
59
59
147
59
59
147
59
59
147
59
59
147
59
59
147
59
59
147
59
59
147
59
59
147
59
59
147
59
59
147
59
59
147
59
59
147
59
59
147
59
59
147
59
59
147
59
59
147
59
59
147
59
59
147
59
59
147
59
59
147
59
59
147
59
59
147
59
59
147
59
59
147
59
59
147
59
59
147
59
59
147
59
59
108
23
30
108
23
30
108
23
30
108
23
30
108
23
30
108
23
30
108
23
30
108
23
30
108
23
30
108
23
30
108
23
30
108
23
30
108
23
30
108
23
30
108
23
30
108
23
30
108
23
30
108
23
30
108
23
30
108
23
30
108
23
30
108
23
30
108
23
30
108
23
30
108
23
30
108
23
30
108
23
30
108
23
30
108
23
30
108
23
30
108
23
30
108
23
30
108
23
30
108
23
30
108
23
30
108
23
30
108
23
30
108
23
30
108
23
30
108
23
30
108
23
30
108
23
30
108
23
30
108
23
30
108
23
30
108
23
30
108
23
30
108
23
30
108
23
30
108
23
30
108
23
30
108
23
30
108
23
30
108
23
30
108
23
30
108
23
30
108
23
30
108
23
30
108
23
30
108
23
30
108
23
30
108
23
30
108
23
30
108
23
30
108
23
30
108
23
30
108
23
30
108
23
30
108
23
30
108
23
30
108
23
30
108
23
30
108
23
30
108
23
30
108
23
30
108
23
30
108
23
30
108
23
30
108
23
30
108
23
30
108
23
30
108
23
30
108
23
30
108
23
30
108
23
30
108
23
30
108
23
30
108
23
30
108
23
30
108
23
30
108
23
30
108
23
30
108
23
30
108
23
30
108
23
30
108
23
30
108
23
30
108
23
30
108
23
30
108
23
30
108
23
30
108
23
30
108
23
30
108
23
30
108
23
30
108
23
30
108
23
30
122
36
40
122
36
40
122
36
40
122
36
40
122
36
40
122
36
40
122
36
40
122
36
40
122
36
40
122
36
40
122
36
40
122
36
40
122
36
40
122
36
40
122
36
40
122
36
40
122
36
40
122
36
40
122
36
40
122
36
40
122
36
40
122
36
40
122
36
40
122
36
40
122
36
40
122
36
40
122
36
40
122
36
40
122
36
40
122
36
40
122
36
40
122
36
40
122
36
40
122
36
40
122
36
40
122
36
40
122
36
40
122
36
40
122
36
40
122
36
40
122
36
40
147
59
59
147
59
59
147
59
59
147
59
59
147
59
59
147
59
59
147
59
59
147
59
59
147
59
59
147
59
59
147
59
59
147
59
59
147
59
59
147
59
59
147
59
59
147
59
59
147
59
59
147
59
59
147
59
59
147
59
59
147
59
59
147
59
59
147
59
59
147
59
59
147
59
59
147
59
59
147
59
59
147
59
59
147
59
59
147
59
59
147
59
59
147
59
59
147
59
59
147
59
59
147
59
59
147
59
59
147
59
59
147
59
59
147
59
59
147
59
59
147
59
59
147
59
59
147
59
59
147
59
59
147
59
59
147
59
59
147
59
59
147
59
59
147
59
59
147
59
59
147
59
59
147
59
59
147
59
59
147
59
59
147
59
59
147
59
59
147
59
59
147
59
59
147
59
59
147
59
59
147
59
59
147
59
59
147
59
59
147
59
59
147
59
59
147
59
59
147
59
59
147
59
59
147
59
59
147
59
59
147
59
59
147
59
59
147
59
59
147
59
59
147
59
59
147
59
59
147
59
59
147
59
59
147
59
59
147
59
59
147
59
59
147
59
59
147
59
59
147
59
59
147
59
59
147
59
59
147
59
59
147
59
59
147
59
59
147
59
59
147
59
59
147
59
59
147
59
59
147
59
59
147
59
59
147
59
59
147
59
59
147
59
59
147
59
59
147
59
59
147
59
59
147
59
59
147
59
59
147
59
59
147
59
59
147
59
59
147
59
59
147
59
59
108
23
30
108
23
30
108
23
30
108
23
30
108
23
30
108
23
30
108
23
30
108
23
30
108
23
30
108
23
30
108
23
30
108
23
30
108
23
30
108
23
30
108
23
30
108
23
30
108
23
30
108
23
30
108
23
30
108
23
30
108
23
30
108
23
30
108
23
30
108
23
30
108
23
30
108
23
30
108
23
30
108
23
30
108
23
30
108
23
30
108
23
30
108
23
30
108
23
30
108
23
30
108
23
30
108
23
30
108
23
30
108
23
30
108
23
30
108
23
30
108
23
30
108
23
30
108
23
30
108
23
30
108
23
30
108
23
30
108
23
30
108
23
30
108
23
30
108
23
30
108
23
30
108
23
30
108
23
30
108
23
30
108
23
30
108
23
30
108
23
30
108
23
30
108
23
30
108
23
30
108
23
30
108
23
30
108
23
30
108
23
30
108
23
30
108
23
30
108
23
30
108
23
30
108
23
30
108
23
30
108
23
30
108
23
30
108
23
30
108
23
30
108
23
30
108
23
30
108
23
30
108
23
30
108
23
30
108
23
30
108
23
30
108
23
30
108
23
30
108
23
30
108
23
30
108
23
30
108
23
30
108
23
30
108
23
30
108
23
30
108
23
30
108
23
30
108
23
30
108
23
30
108
23
30
108
23
30
108
23
30
108
23
30
108
23
30
108
23
30
108
23
30
108
23
30
108
23
30
108
23
30
108
23
30
108
23
30
108
23
30
122
36
40
122
36
40
122
36
40
122
36
40
122
36
40
122
36
40
122
36
40
122
36
40
122
36
40
122
36
40
122
36
40
122
36
40
122
36
40
122
36
40
122
36
40
122
36
40
122
36
40
122
36
40
122
36
40
122
36
40
122
36
40
122
36
40
122
36
40
122
36
40
122
36
40
122
36
40
122
36
40
122
36
40
122
36
40
122
36
40
122
36
40
122
36
40
122
36
40
122
36
40
122
36
40
122
36
40
122
36
40
122
36
40
122
36
40
122
36
40
122
36
40
147
59
59
147
59
59
147
59
59
147
59
59
147
59
59
147
59
59
147
59
59
147
59
59
147
59
59
147
59
59
147
59
59
147
59
59
147
59
59
147
59
59
147
59
59
147
59
59
147
59
59
147
59
59
147
59
59
147
59
59
147
59
59
147
59
59
147
59
59
147
59
59
147
59
59
147
59
59
147
59
59
147
59
59
147
59
59
147
59
59
147
59
59
147
59
59
147
59
59
147
59
59
147
59
59
147
59
59
147
59
59
147
59
59
147
59
59
147
59
59
147
59
59
147
59
59
147
59
59
147
59
59
147
59
59
147
59
59
147
59
59
147
59
59
147
59
59
147
59
59
147
59
59
147
59
59
147
59
59
147
59
59
147
59
59
147
59
59
147
59
59
147
59
59
147
59
59
147
59
59
147
59
59
147
59
59
147
59
59
147
59
59
147
59
59
147
59
59
147
59
59
147
59
59
147
59
59
147
59
59
147
59
59
147
59
59
147
59
59
147
59
59
147
59
59
147
59
59
147
59
59
147
59
59
147
59
59
147
59
59
147
59
59
147
59
59
147
59
59
147
59
59
147
59
59
147
59
59
147
59
59
147
59
59
147
59
59
147
59
59
147
59
59
147
59
59
147
59
59
147
59
59
147
59
59
147
59
59
147
59
59
147
59
59
147
59
59
147
59
59
147
59
59
147
59
59
147
59
59
147
59
59
147
59
59
147
59
59
147
59
59
147
59
59
108
23
30
108
23
30
108
23
30
108
23
30
108
23
30
108
23
30
108
23
30
108
23
30
108
23
30
108
23
30
108
23
30
108
23
30
108
23
30
108
23
30
108
23
30
108
23
30
108
23
30
108
23
30
108
23
30
108
23
30
108
23
30
108
23
30
108
23
30
108
23
30
108
23
30
108
23
30
108
23
30
108
23
30
108
23
30
108
23
30
108
23
30
108
23
30
108
23
30
108
23
30
108
23
30
108
23
30
108
23
30
108
23
30
108
23
30
108
23
30
108
23
30
108
23
30
108
23
30
108
23
30
108
23
30
108
23
30
108
23
30
108
23
30
108
23
30
108
23
30
108
23
30
108
23
30
108
23
30
108
23
30
108
23
30
108
23
30
108
23
30
108
23
30
108
23
30
108
23
30
108
23
30
108
23
30
108
23
30
108
23
30
108
23
30
108
23
30
108
23
30
108
23
30
108
23
30
108
23
30
108
23
30
108
23
30
108
23
30
108
23
30
108
23
30
108
23
30
108
23
30
108
23
30
108
23
30
108
23
30
108
23
30
108
23
30
108
23
30
108
23
30
108
23
30
108
23
30
108
23
30
108
23
30
108
23
30
108
23
30
108
23
30
108
23
30
108
23
30
108
23
30
108
23
30
108
23
30
108
23
30
108
23
30
108
23
30
108
23
30
108
23
30
108
23
30
108
23
30
108
23
30
108
23
30
108
23
30
108
23
30
122
36
40
122
36
40
122
36
40
122
36
40
122
36
40
122
36
40
122
36
40
122
36
40
122
36
40
122
36
40
122
36
40
122
36
40
122
36
40
122
36
40
122
36
40
122
36
40
122
36
40
122
36
40
122
36
40
122
36
40
122
36
40
122
36
40
122
36
40
122
36
40
122
36
40
122
36
40
122
36
40
122
36
40
122
36
40
122
36
40
122
36
40
122
36
40
122
36
40
122
36
40
122
36
40
122
36
40
122
36
40
122
36
40
122
36
40
122
36
40
122
36
40
147
59
59
147
59
59
147
59
59
147
59
59
147
59
59
147
59
59
147
59
59
147
59
59
147
59
59
147
59
59
147
59
59
147
59
59
147
59
59
147
59
59
147
59
59
147
59
59
147
59
59
147
59
59
147
59
59
147
59
59
147
59
59
147
59
59
147
59
59
147
59
59
147
59
59
147
59
59
147
59
59
147
59
59
147
59
59
147
59
59
147
59
59
147
59
59
147
59
59
147
59
59
147
59
59
147
59
59
147
59
59
147
59
59
147
59
59
147
59
59
147
59
59
147
59
59
147
59
59
147
59
59
147
59
59
147
59
59
147
59
59
147
59
59
147
59
59
147
59
59
147
59
59
147
59
59
147
59
59
147
59
59
147
59
59
147
59
59
147
59
59
147
59
59
147
59
59
147
59
59
147
59
59
147
59
59
147
59
59
147
59
59
147
59
59
147
59
59
147
59
59
147
59
59
147
59
59
147
59
59
147
59
59
147
59
59
147
59
59
147
59
59
147
59
59
147
59
59
147
59
59
147
59
59
147
59
59
147
59
59
147
59
59
147
59
59
147
59
59
147
59
59
147
59
59
147
59
59
147
59
59
147
59
59
147
59
59
147
59
59
147
59
59
147
59
59
147
59
59
147
59
59
147
59
59
147
59
59
147
59
59
147
59
59
147
59
59
147
59
59
147
59
59
147
59
59
147
59
59
147
59
59
147
59
59
147
59
59
147
59
59
147
59
59
108
23
30
108
23
30
108
23
30
108
23
30
108
23
30
108
23
30
108
23
30
108
23
30
108
23
30
108
23
30
108
23
30
108
23
30
108
23
30
108
23
30
108
23
30
108
23
30
108
23
30
108
23
30
108
23
30
108
23
30
108
23
30
108
23
30
108
23
30
108
23
30
108
23
30
108
23
30
108
23
30
108
23
30
108
23
30
108
23
30
108
23
30
108
23
30
108
23
30
108
23
30
108
23
30
108
23
30
108
23
30
108
23
30
108
23
30
108
23
30
108
23
30
108
23
30
108
23
30
108
23
30
108
23
30
108
23
30
108
23
30
108
23
30
108
23
30
108
23
30
108
23
30
108
23
30
108
23
30
108
23
30
108
23
30
108
23
30
108
23
30
108
23
30
108
23
30
108
23
30
108
23
30
108
23
30
108
23
30
108
23
30
108
23
30
108
23
30
108
23
30
108
23
30
108
23
30
108
23
30
108
23
30
108
23
30
108
23
30
108
23
30
108
23
30
108
23
30
108
23
30
108
23
30
108
23
30
108
23
30
108
23
30
108
23
30
108
23
30
108
23
30
108
23
30
108
23
30
108
23
30
108
23
30
108
23
30
108
23
30
108
23
30
108
23
30
108
23
30
108
23
30
108
23
30
108
23
30
108
23
30
108
23
30
108
23
30
108
23
30
108
23
30
108
23
30
108
23
30
108
23
30
108
23
30
108
23
30
108
23
30
122
36
40
122
36
40
122
36
40
122
36
40
122
36
40
122
36
40
122
36
40
122
36
40
122
36
40
122
36
40
122
36
40
122
36
40
122
36
40
122
36
40
122
36
40
122
36
40
122
36
40
122
36
40
122
36
40
122
36
40
122
36
40
122
36
40
122
36
40
122
36
40
122
36
40
122
36
40
122
36
40
122
36
40
122
36
40
122
36
40
122
36
40
122
36
40
122
36
40
122
36
40
122
36
40
122
36
40
122
36
40
122
36
40
122
36
40
122
36
40
122
36
40
147
59
59
147
59
59
147
59
59
147
59
59
147
59
59
147
59
59
147
59
59
147
59
59
147
59
59
147
59
59
147
59
59
147
59
59
147
59
59
147
59
59
147
59
59
147
59
59
147
59
59
147
59
59
147
59
59
147
59
59
147
59
59
147
59
59
147
59
59
147
59
59
147
59
59
147
59
59
147
59
59
147
59
59
147
59
59
147
59
59
147
59
59
147
59
59
147
59
59
147
59
59
147
59
59
147
59
59
147
59
59
147
59
59
147
59
59
147
59
59
147
59
59
147
59
59
147
59
59
147
59
59
147
59
59
147
59
59
147
59
59
147
59
59
147
59
59
147
59
59
147
59
59
147
59
59
147
59
59
147
59
59
147
59
59
147
59
59
147
59
59
147
59
59
147
59
59
147
59
59
147
59
59
147
59
59
147
59
59
147
59
59
147
59
59
147
59
59
147
59
59
147
59
59
147
59
59
147
59
59
147
59
59
147
59
59
147
59
59
147
59
59
147
59
59
147
59
59
147
59
59
147
59
59
147
59
59
147
59
59
147
59
59
147
59
59
147
59
59
147
59
59
147
59
59
147
59
59
147
59
59
147
59
59
147
59
59
147
59
59
147
59
59
147
59
59
147
59
59
147
59
59
147
59
59
147
59
59
147
59
59
147
59
59
147
59
59
147
59
59
147
59
59
147
59
59
147
59
59
147
59
59
147
59
59
147
59
59
147
59
59
147
59
59
108
23
30
108
23
30
108
23
30
108
23
30
108
23
30
108
23
30
108
23
30
108
23
30
108
23
30
108
23
30
108
23
30
108
23
30
108
23
30
108
23
30
108
23
30
108
23
30
108
23
30
108
23
30
108
23
30
108
23
30
108
23
30
108
23
30
108
23
30
108
23
30
108
23
30
108
23
30
108
23
30
108
23
30
108
23
30
108
23
30
108
23
30
108
23
30
108
23
30
108
23
30
108
23
30
108
23
30
108
23
30
108
23
30
108
23
30
108
23
30
108
23
30
108
23
30
108
23
30
108
23
30
108
23
30
108
23
30
108
23
30
108
23
30
108
23
30
108
23
30
108
23
30
108
23
30
108
23
30
108
23
30
108
23
30
108
23
30
108
23
30
108
23
30
108
23
30
108
23
30
108
23
30
108
23
30
108
23
30
108
23
30
108
23
30
108
23
30
108
23
30
108
23
30
108
23
30
108
23
30
108
23
30
108
23
30
108
23
30
108
23
30
108
23
30
108
23
30
108
23
30
108
23
30
108
23
30
108
23
30
108
23
30
108
23
30
108
23
30
108
23
30
108
23
30
108
23
30
108
23
30
108
23
30
108
23
30
108
23
30
108
23
30
108
23
30
108
23
30
108
23
30
108
23
30
108
23
30
108
23
30
108
23
30
108
23
30
108
23
30
108
23
30
108
23
30
108
23
30
108
23
30
108
23
30
108
23
30
108
23
30
122
36
40
122
36
40
122
36
40
122
36
40
122
36
40
122
36
40
122
36
40
122
36
40
122
36
40
122
36
40
122
36
40
122
36
40
122
36
40
122
36
40
122
36
40
122
36
40
122
36
40
122
36
40
122
36
40
122
36
40
122
36
40
122
36
40
122
36
40
122
36
40
122
36
40
122
36
40
122
36
40
122
36
40
122
36
40
122
36
40
122
36
40
122
36
40
122
36
40
122
36
40
122
36
40
122
36
40
122
36
40
122
36
40
122
36
40
122
36
40
122
36
40
147
59
59
147
59
59
147
59
59
147
59
59
147
59
59
147
59
59
147
59
59
147
59
59
147
59
59
147
59
59
147
59
59
147
59
59
147
59
59
147
59
59
147
59
59
147
59
59
147
59
59
147
59
59
147
59
59
147
59
59
147
59
59
147
59
59
147
59
59
147
59
59
147
59
59
147
59
59
147
59
59
147
59
59
147
59
59
147
59
59
147
59
59
147
59
59
147
59
59
147
59
59
147
59
59
147
59
59
147
59
59
147
59
59
147
59
59
147
59
59
147
59
59
147
59
59
147
59
59
147
59
59
147
59
59
147
59
59
147
59
59
147
59
59
147
59
59
147
59
59
147
59
59
147
59
59
147
59
59
147
59
59
147
59
59
147
59
59
147
59
59
147
59
59
147
59
59
147
59
59
147
59
59
147
59
59
147
59
59
147
59
59
147
59
59
147
59
59
147
59
59
147
59
59
147
59
59
147
59
59
147
59
59
147
59
59
147
59
59
147
59
59
147
59
59
147
59
59
147
59
59
147
59
59
147
59
59
147
59
59
147
59
59
147
59
59
147
59
59
147
59
59
147
59
59
147
59
59
147
59
59
147
59
59
147
59
59
147
59
59
147
59
59
147
59
59
147
59
59
147
59
59
147
59
59
147
59
59
147
59
59
147
59
59
147
59
59
147
59
59
147
59
59
147
59
59
147
59
59
147
59
59
147
59
59
147
59
59
147
59
59
147
59
59
108
23
30
108
23
30
108
23
30
108
23
30
108
23
30
108
23
30
108
23
30
108
23
30
108
23
30
108
23
30
108
23
30
108
23
30
108
23
30
108
23
30
108
23
30
108
23
30
108
23
30
108
23
30
108
23
30
108
23
30
108
23
30
108
23
30
108
23
30
108
23
30
108
23
30
108
23
30
108
23
30
108
23
30
108
23
30
108
23
30
108
23
30
108
23
30
108
23
30
108
23
30
108
23
30
108
23
30
108
23
30
108
23
30
108
23
30
108
23
30
108
23
30
108
23
30
108
23
30
108
23
30
108
23
30
108
23
30
108
23
30
108
23
30
108
23
30
108
23
30
108
23
30
108
23
30
108
23
30
108
23
30
108
23
30
108
23
30
108
23
30
108
23
30
108
23
30
108
23
30
108
23
30
108
23
30
108
23
30
108
23
30
108
23
30
108
23
30
108
23
30
108
23
30
108
23
30
108
23
30
108
23
30
108
23
30
108
23
30
108
23
30
108
23
30
108
23
30
108
23
30
108
23
30
108
23
30
108
23
30
108
23
30
108
23
30
108
23
30
108
23
30
108
23
30
108
23
30
108
23
30
108
23
30
108
23
30
108
23
30
108
23
30
108
23
30
108
23
30
108
23
30
108
23
30
108
23
30
108
23
30
108
23
30
108
23
30
108
23
30
108
23
30
108
23
30
108
23
30
108
23
30
108
23
30
108
23
30
108
23
30
122
36
40
122
36
40
122
36
40
122
36
40
122
36
40
122
36
40
122
36
40
122
36
40
122
36
40
122
36
40
122
36
40
122
36
40
122
36
40
122
36
40
122
36
40
122
36
40
122
36
40
122
36
40
122
36
40
122
36
40
122
36
40
122
36
40
122
36
40
122
36
40
122
36
40
122
36
40
122
36
40
122
36
40
122
36
40
122
36
40
122
36
40
122
36
40
122
36
40
122
36
40
122
36
40
122
36
40
122
36
40
122
36
40
122
36
40
122
36
40
122
36
40
147
59
59
147
59
59
147
59
59
147
59
59
147
59
59
147
59
59
147
59
59
147
59
59
147
59
59
147
59
59
147
59
59
147
59
59
147
59
59
147
59
59
147
59
59
147
59
59
147
59
59
147
59
59
147
59
59
147
59
59
147
59
59
147
59
59
147
59
59
147
59
59
147
59
59
147
59
59
147
59
59
147
59
59
147
59
59
147
59
59
147
59
59
147
59
59
147
59
59
147
59
59
147
59
59
147
59
59
147
59
59
147
59
59
147
59
59
147
59
59
147
59
59
147
59
59
147
59
59
147
59
59
147
59
59
147
59
59
147
59
59
147
59
59
147
59
59
147
59
59
147
59
59
147
59
59
147
59
59
147
59
59
147
59
59
147
59
59
147
59
59
147
59
59
147
59
59
147
59
59
147
59
59
147
59
59
147
59
59
147
59
59
147
59
59
147
59
59
147
59
59
147
59
59
147
59
59
147
59
59
147
59
59
147
59
59
147
59
59
147
59
59
147
59
59
147
59
59
147
59
59
147
59
59
147
59
59
147
59
59
147
59
59
147
59
59
147
59
59
147
59
59
147
59
59
147
59
59
147
59
59
147
59
59
147
59
59
147
59
59
147
59
59
147
59
59
147
59
59
147
59
59
147
59
59
147
59
59
147
59
59
147
59
59
147
59
59
147
59
59
147
59
59
147
59
59
147
59
59
147
59
59
147
59
59
147
59
59
147
59
59
147
59
59
108
23
30
108
23
30
108
23
30
108
23
30
108
23
30
108
23
30
108
23
30
108
23
30
108
23
30
108
23
30
108
23
30
108
23
30
108
23
30
108
23
30
108
23
30
108
23
30
108
23
30
108
23
30
108
23
30
108
23
30
108
23
30
108
23
30
108
23
30
108
23
30
108
23
30
108
23
30
108
23
30
108
23
30
108
23
30
108
23
30
108
23
30
108
23
30
108
23
30
108
23
30
108
23
30
108
23
30
108
23
30
108
23
30
108
23
30
108
23
30
108
23
30
108
23
30
108
23
30
108
23
30
108
23
30
108
23
30
108
23
30
108
23
30
108
23
30
108
23
30
108
23
30
108
23
30
108
23
30
108
23
30
108
23
30
108
23
30
108
23
30
108
23
30
108
23
30
108
23
30
108
23
30
108
23
30
108
23
30
108
23
30
108
23
30
108
23
30
108
23
30
108
23
30
108
23
30
108
23
30
108
23
30
108
23
30
108
23
30
108
23
30
108
23
30
108
23
30
108
23
30
108
23
30
108
23
30
108
23
30
108
23
30
108
23
30
108
23
30
108
23
30
108
23
30
108
23
30
108
23
30
108
23
30
108
23
30
108
23
30
108
23
30
108
23
30
108
23
30
108
23
30
108
23
30
108
23
30
108
23
30
108
23
30
108
23
30
108
23
30
108
23
30
108
23
30
108
23
30
108
23
30
108
23
30
108
23
30
108
23
30
122
36
40
122
36
40
122
36
40
122
36
40
122
36
40
122
36
40
122
36
40
122
36
40
122
36
40
122
36
40
122
36
40
122
36
40
122
36
40
122
36
40
122
36
40
122
36
40
122
36
40
122
36
40
122
36
40
122
36
40
122
36
40
122
36
40
122
36
40
122
36
40
122
36
40
122
36
40
122
36
40
122
36
40
122
36
40
122
36
40
122
36
40
122
36
40
122
36
40
122
36
40
122
36
40
122
36
40
122
36
40
122
36
40
122
36
40
122
36
40
122
36
40
147
59
59
147
59
59
147
59
59
147
59
59
147
59
59
147
59
59
147
59
59
147
59
59
147
59
59
147
59
59
147
59
59
147
59
59
147
59
59
147
59
59
147
59
59
147
59
59
147
59
59
147
59
59
147
59
59
147
59
59
147
59
59
147
59
59
147
59
59
147
59
59
147
59
59
147
59
59
147
59
59
147
59
59
147
59
59
147
59
59
147
59
59
147
59
59
147
59
59
147
59
59
147
59
59
147
59
59
147
59
59
147
59
59
147
59
59
147
59
59
147
59
59
147
59
59
147
59
59
147
59
59
147
59
59
147
59
59
147
59
59
147
59
59
147
59
59
147
59
59
147
59
59
147
59
59
147
59
59
147
59
59
147
59
59
147
59
59
147
59
59
147
59
59
147
59
59
147
59
59
147
59
59
147
59
59
147
59
59
147
59
59
147
59
59
147
59
59
147
59
59
147
59
59
147
59
59
147
59
59
147
59
59
147
59
59
147
59
59
147
59
59
147
59
59
147
59
59
147
59
59
147
59
59
147
59
59
147
59
59
147
59
59
147
59
59
147
59
59
147
59
59
147
59
59
147
59
59
147
59
59
147
59
59
147
59
59
147
59
59
147
59
59
147
59
59
147
59
59
147
59
59
147
59
59
147
59
59
147
59
59
147
59
59
147
59
59
147
59
59
147
59
59
147
59
59
147
59
59
147
59
59
147
59
59
147
59
59
147
59
59
147
59
59
108
23
30
108
23
30
108
23
30
108
23
30
108
23
30
108
23
30
108
23
30
108
23
30
108
23
30
108
23
30
108
23
30
108
23
30
108
23
30
108
23
30
108
23
30
108
23
30
108
23
30
108
23
30
108
23
30
108
23
30
108
23
30
108
23
30
108
23
30
108
23
30
108
23
30
108
23
30
108
23
30
108
23
30
108
23
30
108
23
30
108
23
30
108
23
30
108
23
30
108
23
30
108
23
30
108
23
30
108
23
30
108
23
30
108
23
30
108
23
30
108
23
30
108
23
30
108
23
30
108
23
30
108
23
30
108
23
30
108
23
30
108
23
30
108
23
30
108
23
30
108
23
30
108
23
30
108
23
30
108
23
30
108
23
30
108
23
30
108
23
30
108
23
30
108
23
30
108
23
30
108
23
30
108
23
30
108
23
30
108
23
30
108
23
30
108
23
30
108
23
30
108
23
30
108
23
30
108
23
30
108
23
30
108
23
30
108
23
30
108
23
30
108
23
30
108
23
30
108
23
30
108
23
30
108
23
30
108
23
30
108
23
30
108
23
30
108
23
30
108
23
30
108
23
30
108
23
30
108
23
30
108
23
30
108
23
30
108
23
30
108
23
30
108
23
30
108
23
30
108
23
30
108
23
30
108
23
30
108
23
30
108
23
30
108
23
30
108
23
30
108
23
30
108
23
30
108
23
30
108
23
30
108
23
30
108
23
30
108
23
30
122
36
40
122
36
40
122
36
40
122
36
40
122
36
40
122
36
40
122
36
40
122
36
40
122
36
40
122
36
40
122
36
40
122
36
40
122
36
40
122
36
40
122
36
40
122
36
40
122
36
40
122
36
40
122
36
40
122
36
40
122
36
40
122
36
40
122
36
40
122
36
40
122
36
40
122
36
40
122
36
40
122
36
40
122
36
40
122
36
40
122
36
40
122
36
40
122
36
40
122
36
40
122
36
40
122
36
40
122
36
40
122
36
40
122
36
40
122
36
40
122
36
40
147
59
59
147
59
59
147
59
59
147
59
59
147
59
59
147
59
59
147
59
59
147
59
59
147
59
59
147
59
59
147
59
59
147
59
59
147
59
59
147
59
59
147
59
59
147
59
59
147
59
59
147
59
59
147
59
59
147
59
59
147
59
59
147
59
59
147
59
59
147
59
59
147
59
59
147
59
59
147
59
59
147
59
59
147
59
59
147
59
59
147
59
59
147
59
59
147
59
59
147
59
59
147
59
59
147
59
59
147
59
59
147
59
59
147
59
59
147
59
59
147
59
59
147
59
59
147
59
59
147
59
59
147
59
59
147
59
59
147
59
59
147
59
59
147
59
59
147
59
59
147
59
59
147
59
59
147
59
59
147
59
59
147
59
59
147
59
59
147
59
59
147
59
59
147
59
59
147
59
59
147
59
59
147
59
59
147
59
59
147
59
59
147
59
59
147
59
59
147
59
59
147
59
59
147
59
59
147
59
59
147
59
59
147
59
59
147
59
59
147
59
59
147
59
59
147
59
59
147
59
59
147
59
59
147
59
59
147
59
59
147
59
59
147
59
59
147
59
59
147
59
59
147
59
59
147
59
59
147
59
59
147
59
59
147
59
59
147
59
59
147
59
59
147
59
59
147
59
59
147
59
59
147
59
59
147
59
59
147
59
59
147
59
59
147
59
59
147
59
59
147
59
59
147
59
59
147
59
59
147
59
59
147
59
59
147
59
59
147
59
59
147
59
59
108
23
30
108
23
30
108
23
30
108
23
30
108
23
30
108
23
30
108
23
30
108
23
30
108
23
30
108
23
30
108
23
30
108
23
30
108
23
30
108
23
30
108
23
30
108
23
30
108
23
30
108
23
30
108
23
30
108
23
30
108
23
30
108
23
30
108
23
30
108
23
30
108
23
30
108
23
30
108
23
30
108
23
30
108
23
30
108
23
30
108
23
30
108
23
30
108
23
30
108
23
30
108
23
30
108
23
30
108
23
30
108
23
30
108
23
30
108
23
30
108
23
30
108
23
30
108
23
30
108
23
30
108
23
30
108
23
30
108
23
30
108
23
30
108
23
30
108
23
30
108
23
30
108
23
30
108
23
30
108
23
30
108
23
30
108
23
30
108
23
30
108
23
30
108
23
30
108
23
30
108
23
30
108
23
30
108
23
30
108
23
30
108
23
30
108
23
30
108
23
30
108
23
30
108
23
30
108
23
30
108
23
30
108
23
30
108
23
30
108
23
30
108
23
30
108
23
30
108
23
30
108
23
30
108
23
30
108
23
30
108
23
30
108
23
30
108
23
30
108
23
30
108
23
30
108
23
30
108
23
30
108
23
30
108
23
30
108
23
30
108
23
30
108
23
30
108
23
30
108
23
30
108
23
30
108
23
30
108
23
30
108
23
30
108
23
30
108
23
30
108
23
30
108
23
30
108
23
30
108
23
30
108
23
30
108
23
30
108
23
30
122
36
40
122
36
40
122
36
40
122
36
40
122
36
40
122
36
40
122
36
40
122
36
40
122
36
40
122
36
40
122
36
40
122
36
40
122
36
40
122
36
40
122
36
40
122
36
40
122
36
40
122
36
40
122
36
40
122
36
40
122
36
40
122
36
40
122
36
40
122
36
40
122
36
40
122
36
40
122
36
40
122
36
40
122
36
40
122
36
40
122
36
40
122
36
40
122
36
40
122
36
40
122
36
40
122
36
40
122
36
40
122
36
40
122
36
40
122
36
40
122
36
40
147
59
59
147
59
59
147
59
59
147
59
59
147
59
59
147
59
59
147
59
59
147
59
59
147
59
59
147
59
59
147
59
59
147
59
59
147
59
59
147
59
59
147
59
59
147
59
59
147
59
59
147
59
59
147
59
59
147
59
59
147
59
59
147
59
59
147
59
59
147
59
59
147
59
59
147
59
59
147
59
59
147
59
59
147
59
59
147
59
59
147
59
59
147
59
59
147
59
59
147
59
59
147
59
59
147
59
59
147
59
59
147
59
59
147
59
59
147
59
59
147
59
59
147
59
59
147
59
59
147
59
59
147
59
59
147
59
59
147
59
59
147
59
59
147
59
59
147
59
59
147
59
59
147
59
59
147
59
59
147
59
59
147
59
59
147
59
59
147
59
59
147
59
59
147
59
59
147
59
59
147
59
59
147
59
59
147
59
59
147
59
59
147
59
59
147
59
59
147
59
59
147
59
59
147
59
59
147
59
59
147
59
59
147
59
59
147
59
59
147
59
59
147
59
59
147
59
59
147
59
59
147
59
59
147
59
59
147
59
59
147
59
59
147
59
59
147
59
59
147
59
59
147
59
59
147
59
59
147
59
59
147
59
59
147
59
59
147
59
59
147
59
59
147
59
59
147
59
59
147
59
59
147
59
59
147
59
59
147
59
59
147
59
59
147
59
59
147
59
59
147
59
59
147
59
59
147
59
59
147
59
59
147
59
59
147
59
59
147
59
59
147
59
59
108
23
30
108
23
30
108
23
30
108
23
30
108
23
30
108
23
30
108
23
30
108
23
30
108
23
30
108
23
30
108
23
30
108
23
30
108
23
30
108
23
30
108
23
30
108
23
30
108
23
30
108
23
30
108
23
30
108
23
30
108
23
30
108
23
30
108
23
30
108
23
30
108
23
30
108
23
30
108
23
30
108
23
30
108
23
30
108
23
30
108
23
30
108
23
30
108
23
30
108
23
30
108
23
30
108
23
30
108
23
30
108
23
30
108
23
30
108
23
30
108
23
30
108
23
30
108
23
30
108
23
30
108
23
30
108
23
30
108
23
30
108
23
30
108
23
30
108
23
30
108
23
30
108
23
30
108
23
30
108
23
30
108
23
30
108
23
30
108
23
30
108
23
30
108
23
30
108
23
30
108
23
30
108
23
30
108
23
30
108
23
30
108
23
30
108
23
30
108
23
30
108
23
30
108
23
30
108
23
30
108
23
30
108
23
30
108
23
30
108
23
30
108
23
30
108
23
30
108
23
30
108
23
30
108
23
30
108
23
30
108
23
30
108
23
30
108
23
30
108
23
30
108
23
30
108
23
30
108
23
30
108
23
30
108
23
30
108
23
30
108
23
30
108
23
30
108
23
30
108
23
30
108
23
30
108
23
30
108
23
30
108
23
30
108
23
30
108
23
30
108
23
30
108
23
30
108
23
30
108
23
30
108
23
30
108
23
30
108
23
30
122
36
40
122
36
40
122
36
40
122
36
40
122
36
40
122
36
40
122
36
40
122
36
40
122
36
40
122
36
40
122
36
40
122
36
40
122
36
40
122
36
40
122
36
40
122
36
40
122
36
40
122
36
40
122
36
40
122
36
40
122
36
40
122
36
40
122
36
40
122
36
40
122
36
40
122
36
40
122
36
40
122
36
40
122
36
40
122
36
40
122
36
40
122
36
40
122
36
40
122
36
40
122
36
40
122
36
40
122
36
40
122
36
40
122
36
40
122
36
40
122
36
40
147
59
59
147
59
59
147
59
59
147
59
59
147
59
59
147
59
59
147
59
59
147
59
59
147
59
59
147
59
59
147
59
59
147
59
59
147
59
59
147
59
59
147
59
59
147
59
59
147
59
59
147
59
59
147
59
59
147
59
59
147
59
59
147
59
59
147
59
59
147
59
59
147
59
59
147
59
59
147
59
59
147
59
59
147
59
59
147
59
59
147
59
59
147
59
59
147
59
59
147
59
59
147
59
59
147
59
59
147
59
59
147
59
59
147
59
59
147
59
59
147
59
59
147
59
59
147
59
59
147
59
59
147
59
59
147
59
59
147
59
59
147
59
59
147
59
59
147
59
59
147
59
59
147
59
59
147
59
59
147
59
59
147
59
59
147
59
59
147
59
59
147
59
59
147
59
59
147
59
59
147
59
59
147
59
59
147
59
59
147
59
59
147
59
59
147
59
59
147
59
59
147
59
59
147
59
59
147
59
59
147
59
59
147
59
59
147
59
59
147
59
59
147
59
59
147
59
59
147
59
59
147
59
59
147
59
59
147
59
59
147
59
59
147
59
59
147
59
59
147
59
59
147
59
59
147
59
59
147
59
59
147
59
59
147
59
59
147
59
59
147
59
59
147
59
59
147
59
59
147
59
59
147
59
59
147
59
59
147
59
59
147
59
59
147
59
59
147
59
59
147
59
59
147
59
59
147
59
59
147
59
59
147
59
59
147
59
59
147
59
59
147
59
59
108
23
30
108
23
30
108
23
30
108
23
30
108
23
30
108
23
30
108
23
30
108
23
30
108
23
30
108
23
30
108
23
30
108
23
30
108
23
30
108
23
30
108
23
30
108
23
30
108
23
30
108
23
30
108
23
30
108
23
30
108
23
30
108
23
30
108
23
30
108
23
30
108
23
30
108
23
30
108
23
30
108
23
30
108
23
30
108
23
30
108
23
30
108
23
30
108
23
30
108
23
30
108
23
30
108
23
30
108
23
30
108
23
30
108
23
30
108
23
30
108
23
30
108
23
30
108
23
30
108
23
30
108
23
30
108
23
30
108
23
30
108
23
30
108
23
30
108
23
30
108
23
30
108
23
30
108
23
30
108
23
30
108
23
30
108
23
30
108
23
30
108
23
30
108
23
30
108
23
30
108
23
30
108
23
30
108
23
30
108
23
30
108
23
30
108
23
30
108
23
30
108
23
30
108
23
30
108
23
30
108
23
30
108
23
30
108
23
30
108
23
30
108
23
30
108
23
30
108
23
30
108
23
30
108
23
30
108
23
30
108
23
30
108
23
30
108
23
30
108
23
30
108
23
30
108
23
30
108
23
30
108
23
30
108
23
30
108
23
30
108
23
30
108
23
30
108
23
30
108
23
30
108
23
30
108
23
30
108
23
30
108
23
30
108
23
30
108
23
30
108
23
30
108
23
30
108
23
30
108
23
30
108
23
30
108
23
30
108
23
30
122
36
40
122
36
40
122
36
40
122
36
40
122
36
40
122
36
40
122
36
40
122
36
40
122
36
40
122
36
40
122
36
40
122
36
40
122
36
40
122
36
40
122
36
40
122
36
40
122
36
40
122
36
40
122
36
40
122
36
40
122
36
40
122
36
40
122
36
40
122
36
40
122
36
40
122
36
40
122
36
40
122
36
40
122
36
40
122
36
40
122
36
40
122
36
40
122
36
40
122
36
40
122
36
40
122
36
40
122
36
40
122
36
40
122
36
40
122
36
40
122
36
40
147
59
59
147
59
59
147
59
59
147
59
59
147
59
59
147
59
59
147
59
59
147
59
59
147
59
59
147
59
59
147
59
59
147
59
59
147
59
59
147
59
59
147
59
59
147
59
59
147
59
59
147
59
59
147
59
59
147
59
59
147
59
59
147
59
59
147
59
59
147
59
59
147
59
59
147
59
59
147
59
59
147
59
59
147
59
59
147
59
59
147
59
59
147
59
59
147
59
59
147
59
59
147
59
59
147
59
59
147
59
59
147
59
59
147
59
59
147
59
59
147
59
59
147
59
59
147
59
59
147
59
59
147
59
59
147
59
59
147
59
59
147
59
59
147
59
59
147
59
59
147
59
59
147
59
59
147
59
59
147
59
59
147
59
59
147
59
59
147
59
59
147
59
59
147
59
59
147
59
59
147
59
59
147
59
59
147
59
59
147
59
59
147
59
59
147
59
59
147
59
59
147
59
59
147
59
59
147
59
59
147
59
59
147
59
59
147
59
59
147
59
59
147
59
59
147
59
59
147
59
59
147
59
59
147
59
59
147
59
59
147
59
59
147
59
59
147
59
59
147
59
59
147
59
59
147
59
59
147
59
59
147
59
59
147
59
59
147
59
59
147
59
59
147
59
59
147
59
59
147
59
59
147
59
59
147
59
59
147
59
59
147
59
59
147
59
59
147
59
59
147
59
59
147
59
59
147
59
59
147
59
59
147
59
59
147
59
59
147
59
59
147
59
59
108
23
30
108
23
30
108
23
30
108
23
30
108
23
30
108
23
30
108
23
30
108
23
30
108
23
30
108
23
30
108
23
30
108
23
30
108
23
30
108
23
30
108
23
30
108
23
30
108
23
30
108
23
30
108
23
30
108
23
30
108
23
30
108
23
30
108
23
30
108
23
30
108
23
30
108
23
30
108
23
30
108
23
30
108
23
30
108
23
30
108
23
30
108
23
30
108
23
30
108
23
30
108
23
30
108
23
30
108
23
30
108
23
30
108
23
30
108
23
30
108
23
30
108
23
30
108
23
30
108
23
30
108
23
30
108
23
30
108
23
30
108
23
30
108
23
30
108
23
30
108
23
30
108
23
30
108
23
30
108
23
30
108
23
30
108
23
30
108
23
30
108
23
30
108
23
30
108
23
30
108
23
30
108
23
30
108
23
30
108
23
30
108
23
30
108
23
30
108
23
30
108
23
30
108
23
30
108
23
30
108
23
30
108
23
30
108
23
30
108
23
30
108
23
30
108
23
30
108
23
30
108
23
30
108
23
30
108
23
30
108
23
30
108
23
30
108
23
30
108
23
30
108
23
30
108
23
30
108
23
30
108
23
30
108
23
30
108
23
30
108
23
30
108
23
30
108
23
30
108
23
30
108
23
30
108
23
30
108
23
30
108
23
30
108
23
30
108
23
30
108
23
30
108
23
30
108
23
30
108
23
30
108
23
30
108
23
30
108
23
30
122
36
40
122
36
40
122
36
40
122
36
40
122
36
40
122
36
40
122
36
40
122
36
40
122
36
40
122
36
40
122
36
40
122
36
40
122
36
40
122
36
40
122
36
40
122
36
40
122
36
40
122
36
40
122
36
40
122
36
40
122
36
40
122
36
40
122
36
40
122
36
40
122
36
40
122
36
40
122
36
40
122
36
40
122
36
40
122
36
40
122
36
40
122
36
40
122
36
40
122
36
40
122
36
40
122
36
40
122
36
40
122
36
40
122
36
40
122
36
40
122
36
40
147
59
59
147
59
59
147
59
59
147
59
59
147
59
59
147
59
59
147
59
59
147
59
59
147
59
59
147
59
59
147
59
59
147
59
59
147
59
59
147
59
59
147
59
59
147
59
59
147
59
59
147
59
59
147
59
59
147
59
59
147
59
59
147
59
59
147
59
59
147
59
59
147
59
59
147
59
59
147
59
59
147
59
59
147
59
59
147
59
59
147
59
59
147
59
59
147
59
59
147
59
59
147
59
59
147
59
59
147
59
59
147
59
59
147
59
59
147
59
59
147
59
59
147
59
59
147
59
59
147
59
59
147
59
59
147
59
59
147
59
59
147
59
59
147
59
59
147
59
59
147
59
59
147
59
59
147
59
59
147
59
59
147
59
59
147
59
59
147
59
59
147
59
59
147
59
59
147
59
59
147
59
59
147
59
59
147
59
59
147
59
59
147
59
59
147
59
59
147
59
59
147
59
59
147
59
59
147
59
59
147
59
59
147
59
59
147
59
59
147
59
59
147
59
59
147
59
59
147
59
59
147
59
59
147
59
59
147
59
59
147
59
59
147
59
59
147
59
59
147
59
59
147
59
59
147
59
59
147
59
59
147
59
59
147
59
59
147
59
59
147
59
59
147
59
59
147
59
59
147
59
59
147
59
59
147
59
59
147
59
59
147
59
59
147
59
59
147
59
59
147
59
59
147
59
59
147
59
59
147
59
59
147
59
59
147
59
59
147
59
59
147
59
59
108
23
30
108
23
30
108
23
30
108
23
30
108
23
30
108
23
30
108
23
30
108
23
30
108
23
30
108
23
30
108
23
30
108
23
30
108
23
30
108
23
30
108
23
30
108
23
30
108
23
30
108
23
30
108
23
30
108
23
30
108
23
30
108
23
30
108
23
30
108
23
30
108
23
30
108
23
30
108
23
30
108
23
30
108
23
30
108
23
30
108
23
30
108
23
30
108
23
30
108
23
30
108
23
30
108
23
30
108
23
30
108
23
30
108
23
30
108
23
30
108
23
30
108
23
30
108
23
30
108
23
30
108
23
30
108
23
30
108
23
30
108
23
30
108
23
30
108
23
30
108
23
30
108
23
30
108
23
30
108
23
30
108
23
30
108
23
30
108
23
30
108
23
30
108
23
30
108
23
30
108
23
30
108
23
30
108
23
30
108
23
30
108
23
30
108
23
30
108
23
30
108
23
30
108
23
30
108
23
30
108
23
30
108
23
30
108
23
30
108
23
30
108
23
30
108
23
30
108
23
30
108
23
30
108
23
30
108
23
30
108
23
30
108
23
30
108
23
30
108
23
30
108
23
30
108
23
30
108
23
30
108
23
30
108
23
30
108
23
30
108
23
30
108
23
30
108
23
30
108
23
30
108
23
30
108
23
30
108
23
30
108
23
30
108
23
30
108
23
30
108
23
30
108
23
30
108
23
30
108
23
30
108
23
30
108
23
30
108
23
30
122
36
40
122
36
40
122
36
40
122
36
40
122
36
40
122
36
40
122
36
40
122
36
40
122
36
40
122
36
40
122
36
40
122
36
40
122
36
40
122
36
40
122
36
40
122
36
40
122
36
40
122
36
40
122
36
40
122
36
40
122
36
40
122
36
40
122
36
40
122
36
40
122
36
40
122
36
40
122
36
40
122
36
40
122
36
40
122
36
40
122
36
40
122
36
40
122
36
40
122
36
40
122
36
40
122
36
40
122
36
40
122
36
40
122
36
40
122
36
40
122
36
40
147
59
59
147
59
59
147
59
59
147
59
59
147
59
59
147
59
59
147
59
59
147
59
59
147
59
59
147
59
59
147
59
59
147
59
59
147
59
59
147
59
59
147
59
59
147
59
59
147
59
59
147
59
59
147
59
59
147
59
59
147
59
59
147
59
59
147
59
59
147
59
59
147
59
59
147
59
59
147
59
59
147
59
59
147
59
59
147
59
59
147
59
59
147
59
59
147
59
59
147
59
59
147
59
59
147
59
59
147
59
59
147
59
59
147
59
59
147
59
59
147
59
59
147
59
59
147
59
59
147
59
59
147
59
59
147
59
59
147
59
59
147
59
59
147
59
59
147
59
59
147
59
59
147
59
59
147
59
59
147
59
59
147
59
59
147
59
59
147
59
59
147
59
59
147
59
59
147
59
59
147
59
59
147
59
59
147
59
59
147
59
59
147
59
59
147
59
59
147
59
59
147
59
59
147
59
59
147
59
59
147
59
59
147
59
59
147
59
59
147
59
59
147
59
59
147
59
59
147
59
59
147
59
59
147
59
59
147
59
59
147
59
59
147
59
59
147
59
59
147
59
59
147
59
59
147
59
59
147
59
59
147
59
59
147
59
59
147
59
59
147
59
59
147
59
59
147
59
59
147
59
59
147
59
59
147
59
59
147
59
59
147
59
59
147
59
59
147
59
59
147
59
59
147
59
59
147
59
59
147
59
59
147
59
59
147
59
59
147
59
59
147
59
59
108
23
30
108
23
30
108
23
30
108
23
30
108
23
30
108
23
30
108
23
30
108
23
30
108
23
30
108
23
30
108
23
30
108
23
30
108
23
30
108
23
30
108
23
30
108
23
30
108
23
30
108
23
30
108
23
30
108
23
30
108
23
30
108
23
30
108
23
30
108
23
30
108
23
30
108
23
30
108
23
30
108
23
30
108
23
30
108
23
30
108
23
30
108
23
30
108
23
30
108
23
30
108
23
30
108
23
30
108
23
30
108
23
30
108
23
30
108
23
30
108
23
30
108
23
30
108
23
30
108
23
30
108
23
30
108
23
30
108
23
30
108
23
30
108
23
30
108
23
30
108
23
30
108
23
30
108
23
30
108
23
30
108
23
30
108
23
30
108
23
30
108
23
30
108
23
30
108
23
30
108
23
30
108
23
30
108
23
30
108
23
30
108
23
30
108
23
30
108
23
30
108
23
30
108
23
30
108
23
30
108
23
30
108
23
30
108
23
30
108
23
30
108
23
30
108
23
30
108
23
30
108
23
30
108
23
30
108
23
30
108
23
30
108
23
30
108
23
30
108
23
30
108
23
30
108
23
30
108
23
30
108
23
30
108
23
30
108
23
30
108
23
30
108
23
30
108
23
30
108
23
30
108
23
30
108
23
30
108
23
30
108
23
30
108
23
30
108
23
30
108
23
30
108
23
30
108
23
30
108
23
30
108
23
30
108
23
30
108
23
30
122
36
40
122
36
40
122
36
40
122
36
40
122
36
40
122
36
40
122
36
40
122
36
40
122
36
40
122
36
40
122
36
40
122
36
40
122
36
40
122
36
40
122
36
40
122
36
40
122
36
40
122
36
40
122
36
40
122
36
40
122
36
40
122
36
40
122
36
40
122
36
40
122
36
40
122
36
40
122
36
40
122
36
40
122
36
40
122
36
40
122
36
40
122
36
40
122
36
40
122
36
40
122
36
40
122
36
40
122
36
40
122
36
40
122
36
40
122
36
40
122
36
40
147
59
59
147
59
59
147
59
59
147
59
59
147
59
59
147
59
59
147
59
59
147
59
59
147
59
59
147
59
59
147
59
59
147
59
59
147
59
59
147
59
59
147
59
59
147
59
59
147
59
59
147
59
59
147
59
59
147
59
59
147
59
59
147
59
59
147
59
59
147
59
59
147
59
59
147
59
59
147
59
59
147
59
59
147
59
59
147
59
59
147
59
59
147
59
59
147
59
59
147
59
59
147
59
59
147
59
59
147
59
59
147
59
59
147
59
59
147
59
59
147
59
59
147
59
59
147
59
59
147
59
59
147
59
59
147
59
59
147
59
59
147
59
59
147
59
59
147
59
59
147
59
59
147
59
59
147
59
59
147
59
59
147
59
59
147
59
59
147
59
59
147
59
59
147
59
59
147
59
59
147
59
59
147
59
59
147
59
59
147
59
59
147
59
59
147
59
59
147
59
59
147
59
59
147
59
59
147
59
59
147
59
59
147
59
59
147
59
59
147
59
59
147
59
59
147
59
59
147
59
59
147
59
59
147
59
59
147
59
59
147
59
59
147
59
59
147
59
59
147
59
59
147
59
59
147
59
59
147
59
59
147
59
59
147
59
59
147
59
59
147
59
59
147
59
59
147
59
59
147
59
59
147
59
59
147
59
59
147
59
59
147
59
59
147
59
59
147
59
59
147
59
59
147
59
59
147
59
59
147
59
59
147
59
59
147
59
59
147
59
59
147
59
59
108
23
30
108
23
30
108
23
30
108
23
30
108
23
30
108
23
30
108
23
30
108
23
30
108
23
30
108
23
30
108
23
30
108
23
30
108
23
30
108
23
30
108
23
30
108
23
30
108
23
30
108
23
30
108
23
30
108
23
30
108
23
30
108
23
30
108
23
30
108
23
30
108
23
30
108
23
30
108
23
30
108
23
30
108
23
30
108
23
30
108
23
30
108
23
30
108
23
30
108
23
30
108
23
30
108
23
30
108
23
30
108
23
30
108
23
30
108
23
30
108
23
30
108
23
30
108
23
30
108
23
30
108
23
30
108
23
30
108
23
30
108
23
30
108
23
30
108
23
30
108
23
30
108
23
30
108
23
30
108
23
30
108
23
30
108
23
30
108
23
30
108
23
30
108
23
30
108
23
30
108
23
30
108
23
30
108
23
30
108
23
30
108
23
30
108
23
30
108
23
30
108
23
30
108
23
30
108
23
30
108
23
30
108
23
30
108
23
30
108
23
30
108
23
30
108
23
30
108
23
30
108
23
30
108
23
30
108
23
30
108
23
30
108
23
30
108
23
30
108
23
30
108
23
30
108
23
30
108
23
30
108
23
30
108
23
30
108
23
30
108
23
30
108
23
30
108
23
30
108
23
30
108
23
30
108
23
30
108
23
30
108
23
30
108
23
30
108
23
30
108
23
30
108
23
30
108
23
30
108
23
30
108
23
30
108
23
30
108
23
30
122
36
40
122
36
40
122
36
40
122
36
40
122
36
40
122
36
40
122
36
40
122
36
40
122
36
40
122
36
40
122
36
40
122
36
40
122
36
40
122
36
40
122
36
40
122
36
40
122
36
40
122
36
40
122
36
40
122
36
40
122
36
40
122
36
40
122
36
40
122
36
40
122
36
40
122
36
40
122
36
40
122
36
40
122
36
40
122
36
40
122
36
40
122
36
40
122
36
40
122
36
40
122
36
40
122
36
40
122
36
40
122
36
40
122
36
40
122
36
40
122
36
40
147
59
59
147
59
59
147
59
59
147
59
59
147
59
59
147
59
59
147
59
59
147
59
59
147
59
59
147
59
59
147
59
59
147
59
59
147
59
59
147
59
59
147
59
59
147
59
59
147
59
59
147
59
59
147
59
59
147
59
59
147
59
59
147
59
59
147
59
59
147
59
59
147
59
59
147
59
59
147
59
59
147
59
59
147
59
59
147
59
59
147
59
59
147
59
59
147
59
59
147
59
59
147
59
59
147
59
59
147
59
59
147
59
59
147
59
59
147
59
59
147
59
59
147
59
59
147
59
59
147
59
59
147
59
59
147
59
59
147
59
59
147
59
59
147
59
59
147
59
59
147
59
59
147
59
59
147
59
59
147
59
59
147
59
59
147
59
59
147
59
59
147
59
59
147
59
59
147
59
59
147
59
59
147
59
59
147
59
59
147
59
59
147
59
59
147
59
59
147
59
59
147
59
59
147
59
59
147
59
59
147
59
59
147
59
59
147
59
59
147
59
59
147
59
59
147
59
59
147
59
59
147
59
59
147
59
59
147
59
59
147
59
59
147
59
59
147
59
59
147
59
59
147
59
59
147
59
59
147
59
59
147
59
59
147
59
59
147
59
59
147
59
59
147
59
59
147
59
59
147
59
59
147
59
59
147
59
59
147
59
59
147
59
59
147
59
59
147
59
59
147
59
59
147
59
59
147
59
59
147
59
59
147
59
59
147
59
59
147
59
59
147
59
59
108
23
30
108
23
30
108
23
30
108
23
30
108
23
30
108
23
30
108
23
30
108
23
30
108
23
30
108
23
30
108
23
30
108
23
30
108
23
30
108
23
30
108
23
30
108
23
30
108
23
30
108
23
30
108
23
30
108
23
30
108
23
30
108
23
30
108
23
30
108
23
30
108
23
30
108
23
30
108
23
30
108
23
30
108
23
30
108
23
30
108
23
30
108
23
30
108
23
30
108
23
30
108
23
30
108
23
30
108
23
30
108
23
30
108
23
30
108
23
30
108
23
30
108
23
30
108
23
30
108
23
30
108
23
30
108
23
30
108
23
30
108
23
30
108
23
30
108
23
30
108
23
30
108
23
30
108
23
30
108
23
30
108
23
30
108
23
30
108
23
30
108
23
30
108
23
30
108
23
30
108
23
30
108
23
30
108
23
30
108
23
30
108
23
30
108
23
30
108
23
30
108
23
30
108
23
30
108
23
30
108
23
30
108
23
30
108
23
30
108
23
30
108
23
30
108
23
30
108
23
30
108
23
30
108
23
30
108
23
30
108
23
30
108
23
30
108
23
30
108
23
30
108
23
30
108
23
30
108
23
30
108
23
30
108
23
30
108
23
30
108
23
30
108
23
30
108
23
30
108
23
30
108
23
30
108
23
30
108
23
30
108
23
30
108
23
30
108
23
30
108
23
30
108
23
30
108
23
30
108
23
30
108
23
30
108
23
30
108
23
30
122
36
40
122
36
40
122
36
40
122
36
40
122
36
40
122
36
40
122
36
40
122
36
40
122
36
40
122
36
40
122
36
40
122
36
40
122
36
40
122
36
40
122
36
40
122
36
40
122
36
40
122
36
40
122
36
40
122
36
40
122
36
40
122
36
40
122
36
40
122
36
40
122
36
40
122
36
40
122
36
40
122
36
40
122
36
40
122
36
40
122
36
40
122
36
40
122
36
40
122
36
40
122
36
40
122
36
40
122
36
40
122
36
40
122
36
40
122
36
40
122
36
40
147
59
59
147
59
59
147
59
59
147
59
59
147
59
59
147
59
59
147
59
59
147
59
59
147
59
59
147
59
59
147
59
59
147
59
59
147
59
59
147
59
59
147
59
59
147
59
59
147
59
59
147
59
59
147
59
59
147
59
59
147
59
59
147
59
59
147
59
59
147
59
59
147
59
59
147
59
59
147
59
59
147
59
59
147
59
59
147
59
59
147
59
59
147
59
59
147
59
59
147
59
59
147
59
59
147
59
59
147
59
59
147
59
59
147
59
59
147
59
59
147
59
59
147
59
59
147
59
59
147
59
59
147
59
59
147
59
59
147
59
59
147
59
59
147
59
59
147
59
59
147
59
59
147
59
59
147
59
59
147
59
59
147
59
59
147
59
59
147
59
59
147
59
59
147
59
59
147
59
59
147
59
59
147
59
59
147
59
59
147
59
59
147
59
59
147
59
59
147
59
59
147
59
59
147
59
59
147
59
59
147
59
59
147
59
59
147
59
59
147
59
59
147
59
59
147
59
59
147
59
59
147
59
59
147
59
59
147
59
59
147
59
59
147
59
59
147
59
59
147
59
59
147
59
59
147
59
59
147
59
59
147
59
59
147
59
59
147
59
59
147
59
59
147
59
59
147
59
59
147
59
59
147
59
59
147
59
59
147
59
59
147
59
59
147
59
59
147
59
59
147
59
59
147
59
59
147
59
59
147
59
59
147
59
59
147
59
59
147
59
59
147
59
59
108
23
30
108
23
30
108
23
30
108
23
30
108
23
30
108
23
30
108
23
30
108
23
30
108
23
30
108
23
30
108
23
30
108
23
30
108
23
30
108
23
30
108
23
30
108
23
30
108
23
30
108
23
30
108
23
30
108
23
30
108
23
30
108
23
30
108
23
30
108
23
30
108
23
30
108
23
30
108
23
30
108
23
30
108
23
30
108
23
30
108
23
30
108
23
30
108
23
30
108
23
30
108
23
30
108
23
30
108
23
30
108
23
30
108
23
30
108
23
30
108
23
30
108
23
30
108
23
30
108
23
30
108
23
30
108
23
30
108
23
30
108
23
30
108
23
30
108
23
30
108
23
30
108
23
30
108
23
30
108
23
30
108
23
30
108
23
30
108
23
30
108
23
30
108
23
30
108
23
30
108
23
30
108
23
30
108
23
30
108
23
30
108
23
30
108
23
30
108
23
30
108
23
30
108
23
30
108
23
30
108
23
30
108
23
30
108
23
30
108
23
30
108
23
30
108
23
30
108
23
30
108
23
30
108
23
30
108
23
30
108
23
30
108
23
30
108
23
30
108
23
30
108
23
30
108
23
30
108
23
30
108
23
30
108
23
30
108
23
30
108
23
30
108
23
30
108
23
30
108
23
30
108
23
30
108
23
30
108
23
30
108
23
30
108
23
30
108
23
30
108
23
30
108
23
30
108
23
30
108
23
30
108
23
30
108
23
30
108
23
30
122
36
40
122
36
40
122
36
40
122
36
40
122
36
40
122
36
40
122
36
40
122
36
40
122
36
40
122
36
40
122
36
40
122
36
40
122
36
40
122
36
40
122
36
40
122
36
40
122
36
40
122
36
40
122
36
40
122
36
40
122
36
40
122
36
40
122
36
40
122
36
40
122
36
40
122
36
40
122
36
40
122
36
40
122
36
40
122
36
40
122
36
40
122
36
40
122
36
40
122
36
40
122
36
40
122
36
40
122
36
40
122
36
40
122
36
40
122
36
40
122
36
40
147
59
59
147
59
59
147
59
59
147
59
59
147
59
59
147
59
59
147
59
59
147
59
59
147
59
59
147
59
59
147
59
59
147
59
59
147
59
59
147
59
59
147
59
59
147
59
59
147
59
59
147
59
59
147
59
59
147
59
59
147
59
59
147
59
59
147
59
59
147
59
59
147
59
59
147
59
59
147
59
59
147
59
59
147
59
59
147
59
59
147
59
59
147
59
59
147
59
59
147
59
59
147
59
59
147
59
59
147
59
59
147
59
59
147
59
59
147
59
59
147
59
59
147
59
59
147
59
59
147
59
59
147
59
59
147
59
59
147
59
59
147
59
59
147
59
59
147
59
59
147
59
59
147
59
59
147
59
59
147
59
59
147
59
59
147
59
59
147
59
59
147
59
59
147
59
59
147
59
59
147
59
59
147
59
59
147
59
59
147
59
59
147
59
59
147
59
59
147
59
59
147
59
59
147
59
59
147
59
59
147
59
59
147
59
59
147
59
59
147
59
59
147
59
59
147
59
59
147
59
59
147
59
59
147
59
59
147
59
59
147
59
59
147
59
59
147
59
59
147
59
59
147
59
59
147
59
59
147
59
59
147
59
59
147
59
59
147
59
59
147
59
59
147
59
59
147
59
59
147
59
59
147
59
59
147
59
59
147
59
59
147
59
59
147
59
59
147
59
59
147
59
59
147
59
59
147
59
59
147
59
59
147
59
59
147
59
59
147
59
59
147
59
59
108
23
30
108
23
30
108
23
30
108
23
30
108
23
30
108
23
30
108
23
30
108
23
30
108
23
30
108
23
30
108
23
30
108
23
30
108
23
30
108
23
30
108
23
30
108
23
30
108
23
30
108
23
30
108
23
30
108
23
30
108
23
30
108
23
30
108
23
30
108
23
30
108
23
30
108
23
30
108
23
30
108
23
30
108
23
30
108
23
30
108
23
30
108
23
30
108
23
30
108
23
30
108
23
30
108
23
30
108
23
30
108
23
30
108
23
30
108
23
30
108
23
30
108
23
30
108
23
30
108
23
30
108
23
30
108
23
30
108
23
30
108
23
30
108
23
30
108
23
30
108
23
30
108
23
30
108
23
30
108
23
30
108
23
30
108
23
30
108
23
30
108
23
30
108
23
30
108
23
30
108
23
30
108
23
30
108
23
30
108
23
30
108
23
30
108
23
30
108
23
30
108
23
30
108
23
30
108
23
30
108
23
30
108
23
30
108
23
30
108
23
30
108
23
30
108
23
30
108
23
30
108
23
30
108
23
30
108
23
30
108
23
30
108
23
30
108
23
30
108
23
30
108
23
30
108
23
30
108
23
30
108
23
30
108
23
30
108
23
30
108
23
30
108
23
30
108
23
30
108
23
30
108
23
30
108
23
30
108
23
30
108
23
30
108
23
30
108
23
30
108
23
30
108
23
30
108
23
30
108
23
30
108
23
30
108
23
30
108
23
30
122
36
40
122
36
40
122
36
40
122
36
40
122
36
40
122
36
40
122
36
40
122
36
40
122
36
40
122
36
40
122
36
40
122
36
40
122
36
40
122
36
40
122
36
40
122
36
40
122
36
40
122
36
40
122
36
40
122
36
40
122
36
40
122
36
40
122
36
40
122
36
40
122
36
40
122
36
40
122
36
40
122
36
40
122
36
40
122
36
40
122
36
40
122
36
40
122
36
40
122
36
40
122
36
40
122
36
40
122
36
40
122
36
40
122
36
40
122
36
40
122
36
40
147
59
59
147
59
59
147
59
59
147
59
59
147
59
59
147
59
59
147
59
59
147
59
59
147
59
59
147
59
59
147
59
59
147
59
59
147
59
59
147
59
59
147
59
59
147
59
59
147
59
59
147
59
59
147
59
59
147
59
59
147
59
59
147
59
59
147
59
59
147
59
59
147
59
59
147
59
59
147
59
59
147
59
59
147
59
59
147
59
59
147
59
59
147
59
59
147
59
59
147
59
59
147
59
59
147
59
59
147
59
59
147
59
59
147
59
59
147
59
59
147
59
59
147
59
59
147
59
59
147
59
59
147
59
59
147
59
59
147
59
59
147
59
59
147
59
59
147
59
59
147
59
59
147
59
59
147
59
59
147
59
59
147
59
59
147
59
59
147
59
59
147
59
59
147
59
59
147
59
59
147
59
59
147
59
59
147
59
59
147
59
59
147
59
59
147
59
59
147
59
59
147
59
59
147
59
59
147
59
59
147
59
59
147
59
59
147
59
59
147
59
59
147
59
59
147
59
59
147
59
59
147
59
59
147
59
59
147
59
59
147
59
59
147
59
59
147
59
59
147
59
59
147
59
59
147
59
59
147
59
59
147
59
59
147
59
59
147
59
59
147
59
59
147
59
59
147
59
59
147
59
59
147
59
59
147
59
59
147
59
59
147
59
59
147
59
59
147
59
59
147
59
59
147
59
59
147
59
59
147
59
59
147
59
59
147
59
59
147
59
59
147
59
59
108
23
30
108
23
30
108
23
30
108
23
30
108
23
30
108
23
30
108
23
30
108
23
30
108
23
30
108
23
30
108
23
30
108
23
30
108
23
30
108
23
30
108
23
30
108
23
30
108
23
30
108
23
30
108
23
30
108
23
30
108
23
30
108
23
30
108
23
30
108
23
30
108
23
30
108
23
30
108
23
30
108
23
30
108
23
30
108
23
30
108
23
30
108
23
30
108
23
30
108
23
30
108
23
30
108
23
30
108
23
30
108
23
30
108
23
30
108
23
30
108
23
30
108
23
30
108
23
30
108
23
30
108
23
30
108
23
30
108
23
30
108
23
30
108
23
30
108
23
30
108
23
30
108
23
30
108
23
30
108
23
30
108
23
30
108
23
30
108
23
30
108
23
30
108
23
30
108
23
30
108
23
30
108
23
30
108
23
30
108
23
30
108
23
30
108
23
30
108
23
30
108
23
30
108
23
30
108
23
30
108
23
30
108
23
30
108
23
30
108
23
30
108
23
30
108
23
30
108
23
30
108
23
30
108
23
30
108
23
30
108
23
30
108
23
30
108
23
30
108
23
30
108
23
30
108
23
30
108
23
30
108
23
30
108
23
30
108
23
30
108
23
30
108
23
30
108
23
30
108
23
30
108
23
30
108
23
30
108
23
30
108
23
30
108
23
30
108
23
30
108
23
30
108
23
30
108
23
30
108
23
30
108
23
30
108
23
30
108
23
30
122
36
40
122
36
40
122
36
40
122
36
40
122
36
40
122
36
40
122
36
40
122
36
40
122
36
40
122
36
40
122
36
40
122
36
40
122
36
40
122
36
40
122
36
40
122
36
40
122
36
40
122
36
40
122
36
40
122
36
40
122
36
40
122
36
40
122
36
40
122
36
40
122
36
40
122
36
40
122
36
40
122
36
40
122
36
40
122
36
40
122
36
40
122
36
40
122
36
40
122
36
40
122
36
40
122
36
40
122
36
40
122
36
40
122
36
40
122
36
40
122
36
40
147
59
59
147
59
59
147
59
59
147
59
59
147
59
59
147
59
59
147
59
59
147
59
59
147
59
59
147
59
59
147
59
59
147
59
59
147
59
59
147
59
59
147
59
59
147
59
59
147
59
59
147
59
59
147
59
59
147
59
59
147
59
59
147
59
59
147
59
59
147
59
59
147
59
59
147
59
59
147
59
59
147
59
59
147
59
59
147
59
59
147
59
59
147
59
59
147
59
59
147
59
59
147
59
59
147
59
59
147
59
59
147
59
59
147
59
59
147
59
59
147
59
59
147
59
59
147
59
59
147
59
59
147
59
59
147
59
59
147
59
59
147
59
59
147
59
59
147
59
59
147
59
59
147
59
59
147
59
59
147
59
59
147
59
59
147
59
59
147
59
59
147
59
59
147
59
59
147
59
59
147
59
59
147
59
59
147
59
59
147
59
59
147
59
59
147
59
59
147
59
59
147
59
59
147
59
59
147
59
59
147
59
59
147
59
59
147
59
59
147
59
59
147
59
59
147
59
59
147
59
59
147
59
59
147
59
59
147
59
59
147
59
59
147
59
59
147
59
59
147
59
59
147
59
59
147
59
59
147
59
59
147
59
59
147
59
59
147
59
59
147
59
59
147
59
59
147
59
59
147
59
59
147
59
59
147
59
59
147
59
59
147
59
59
147
59
59
147
59
59
147
59
59
147
59
59
147
59
59
147
59
59
147
59
59
147
59
59
147
59
59
147
59
59
108
23
30
108
23
30
108
23
30
108
23
30
108
23
30
108
23
30
108
23
30
108
23
30
108
23
30
108
23
30
108
23
30
108
23
30
108
23
30
108
23
30
108
23
30
108
23
30
108
23
30
108
23
30
108
23
30
108
23
30
108
23
30
108
23
30
108
23
30
108
23
30
108
23
30
108
23
30
108
23
30
108
23
30
108
23
30
108
23
30
108
23
30
108
23
30
108
23
30
108
23
30
108
23
30
108
23
30
108
23
30
108
23
30
108
23
30
108
23
30
108
23
30
108
23
30
108
23
30
108
23
30
108
23
30
108
23
30
108
23
30
108
23
30
108
23
30
108
23
30
108
23
30
108
23
30
108
23
30
108
23
30
108
23
30
108
23
30
108
23
30
108
23
30
108
23
30
108
23
30
108
23
30
108
23
30
108
23
30
108
23
30
108
23
30
108
23
30
108
23
30
108
23
30
108
23
30
108
23
30
108
23
30
108
23
30
108
23
30
108
23
30
108
23
30
108
23
30
108
23
30
108
23
30
108
23
30
108
23
30
108
23
30
108
23
30
108
23
30
108
23
30
108
23
30
108
23
30
108
23
30
108
23
30
108
23
30
108
23
30
108
23
30
108
23
30
108
23
30
108
23
30
108
23
30
108
23
30
108
23
30
108
23
30
108
23
30
108
23
30
108
23
30
108
23
30
108
23
30
108
23
30
108
23
30
108
23
30
108
23
30
122
36
40
122
36
40
122
36
40
122
36
40
122
36
40
122
36
40
122
36
40
122
36
40
122
36
40
122
36
40
122
36
40
122
36
40
122
36
40
122
36
40
122
36
40
122
36
40
122
36
40
122
36
40
122
36
40
122
36
40
122
36
40
122
36
40
122
36
40
122
36
40
122
36
40
122
36
40
122
36
40
122
36
40
122
36
40
122
36
40
122
36
40
122
36
40
122
36
40
122
36
40
122
36
40
122
36
40
122
36
40
122
36
40
122
36
40
122
36
40
122
36
40
147
59
59
147
59
59
147
59
59
147
59
59
147
59
59
147
59
59
147
59
59
147
59
59
147
59
59
147
59
59
147
59
59
147
59
59
147
59
59
147
59
59
147
59
59
147
59
59
147
59
59
147
59
59
147
59
59
147
59
59
147
59
59
147
59
59
147
59
59
147
59
59
147
59
59
147
59
59
147
59
59
147
59
59
147
59
59
147
59
59
147
59
59
147
59
59
147
59
59
147
59
59
147
59
59
147
59
59
147
59
59
147
59
59
147
59
59
147
59
59
147
59
59
147
59
59
147
59
59
147
59
59
147
59
59
147
59
59
147
59
59
147
59
59
147
59
59
147
59
59
147
59
59
147
59
59
147
59
59
147
59
59
147
59
59
147
59
59
147
59
59
147
59
59
147
59
59
147
59
59
147
59
59
147
59
59
147
59
59
147
59
59
147
59
59
147
59
59
147
59
59
147
59
59
147
59
59
147
59
59
147
59
59
147
59
59
147
59
59
147
59
59
147
59
59
147
59
59
147
59
59
147
59
59
147
59
59
147
59
59
147
59
59
147
59
59
147
59
59
147
59
59
147
59
59
147
59
59
147
59
59
147
59
59
147
59
59
147
59
59
147
59
59
147
59
59
147
59
59
147
59
59
147
59
59
147
59
59
147
59
59
147
59
59
147
59
59
147
59
59
147
59
59
147
59
59
147
59
59
147
59
59
147
59
59
147
59
59
147
59
59
147
59
59
108
23
30
108
23
30
108
23
30
108
23
30
108
23
30
108
23
30
108
23
30
108
23
30
108
23
30
108
23
30
108
23
30
108
23
30
108
23
30
108
23
30
108
23
30
108
23
30
108
23
30
108
23
30
108
23
30
108
23
30
108
23
30
108
23
30
108
23
30
108
23
30
108
23
30
108
23
30
108
23
30
108
23
30
108
23
30
108
23
30
108
23
30
108
23
30
108
23
30
108
23
30
108
23
30
108
23
30
108
23
30
108
23
30
108
23
30
108
23
30
108
23
30
108
23
30
108
23
30
108
23
30
108
23
30
108
23
30
108
23
30
108
23
30
108
23
30
108
23
30
108
23
30
108
23
30
108
23
30
108
23
30
108
23
30
108
23
30
108
23
30
108
23
30
108
23
30
108
23
30
108
23
30
108
23
30
108
23
30
108
23
30
108
23
30
108
23
30
108
23
30
108
23
30
108
23
30
108
23
30
108
23
30
108
23
30
108
23
30
108
23
30
108
23
30
108
23
30
108
23
30
108
23
30
108
23
30
108
23
30
108
23
30
108
23
30
108
23
30
108
23
30
108
23
30
108
23
30
108
23
30
108
23
30
108
23
30
108
23
30
108
23
30
108
23
30
108
23
30
108
23
30
108
23
30
108
23
30
108
23
30
108
23
30
108
23
30
108
23
30
108
23
30
108
23
30
108
23
30
108
23
30
108
23
30
108
23
30
108
23
30
122
36
40
122
36
40
122
36
40
122
36
40
122
36
40
122
36
40
122
36
40
122
36
40
122
36
40
122
36
40
122
36
40
122
36
40
122
36
40
122
36
40
122
36
40
122
36
40
122
36
40
122
36
40
122
36
40
122
36
40
122
36
40
122
36
40
122
36
40
122
36
40
122
36
40
122
36
40
122
36
40
122
36
40
122
36
40
122
36
40
122
36
40
122
36
40
122
36
40
122
36
40
122
36
40
122
36
40
122
36
40
122
36
40
122
36
40
122
36
40
122
36
40
147
59
59
147
59
59
147
59
59
147
59
59
147
59
59
147
59
59
147
59
59
147
59
59
147
59
59
147
59
59
147
59
59
147
59
59
147
59
59
147
59
59
147
59
59
147
59
59
147
59
59
147
59
59
147
59
59
147
59
59
147
59
59
147
59
59
147
59
59
147
59
59
147
59
59
147
59
59
147
59
59
147
59
59
147
59
59
147
59
59
147
59
59
147
59
59
147
59
59
147
59
59
147
59
59
147
59
59
147
59
59
147
59
59
147
59
59
147
59
59
147
59
59
147
59
59
147
59
59
147
59
59
147
59
59
147
59
59
147
59
59
147
59
59
147
59
59
147
59
59
147
59
59
147
59
59
147
59
59
147
59
59
147
59
59
147
59
59
147
59
59
147
59
59
147
59
59
147
59
59
147
59
59
147
59
59
147
59
59
147
59
59
147
59
59
147
59
59
147
59
59
147
59
59
147
59
59
147
59
59
147
59
59
147
59
59
147
59
59
147
59
59
147
59
59
147
59
59
147
59
59
147
59
59
147
59
59
147
59
59
147
59
59
147
59
59
147
59
59
147
59
59
147
59
59
147
59
59
147
59
59
147
59
59
147
59
59
147
59
59
147
59
59
147
59
59
147
59
59
147
59
59
147
59
59
147
59
59
147
59
59
147
59
59
147
59
59
147
59
59
147
59
59
147
59
59
147
59
59
147
59
59
147
59
59
147
59
59
147
59
59
147
59
59
108
23
30
108
23
30
108
23
30
108
23
30
108
23
30
108
23
30
108
23
30
108
23
30
108
23
30
108
23
30
108
23
30
108
23
30
108
23
30
108
23
30
108
23
30
108
23
30
108
23
30
108
23
30
108
23
30
108
23
30
108
23
30
108
23
30
108
23
30
108
23
30
108
23
30
108
23
30
108
23
30
108
23
30
108
23
30
108
23
30
108
23
30
108
23
30
108
23
30
108
23
30
108
23
30
108
23
30
108
23
30
108
23
30
108
23
30
108
23
30
108
23
30
108
23
30
108
23
30
108
23
30
108
23
30
108
23
30
108
23
30
108
23
30
108
23
30
108
23
30
108
23
30
108
23
30
108
23
30
108
23
30
108
23
30
108
23
30
108
23
30
108
23
30
108
23
30
108
23
30
108
23
30
108
23
30
108
23
30
108
23
30
108
23
30
108
23
30
108
23
30
108
23
30
108
23
30
108
23
30
108
23
30
108
23
30
108
23
30
108
23
30
108
23
30
108
23
30
108
23
30
108
23
30
108
23
30
108
23
30
108
23
30
108
23
30
108
23
30
108
23
30
108
23
30
108
23
30
108
23
30
108
23
30
108
23
30
108
23
30
108
23
30
108
23
30
108
23
30
108
23
30
108
23
30
108
23
30
108
23
30
108
23
30
108
23
30
108
23
30
108
23
30
108
23
30
108
23
30
108
23
30
108
23
30
108
23
30
108
23
30
122
36
40
122
36
40
122
36
40
122
36
40
122
36
40
122
36
40
122
36
40
122
36
40
122
36
40
122
36
40
122
36
40
122
36
40
122
36
40
122
36
40
122
36
40
122
36
40
122
36
40
122
36
40
122
36
40
122
36
40
122
36
40
122
36
40
122
36
40
122
36
40
122
36
40
122
36
40
122
36
40
122
36
40
122
36
40
122
36
40
122
36
40
122
36
40
122
36
40
122
36
40
122
36
40
122
36
40
122
36
40
122
36
40
122
36
40
122
36
40
122
36
40
147
59
59
147
59
59
147
59
59
147
59
59
147
59
59
147
59
59
147
59
59
147
59
59
147
59
59
147
59
59
147
59
59
147
59
59
147
59
59
147
59
59
147
59
59
147
59
59
147
59
59
147
59
59
147
59
59
147
59
59
147
59
59
147
59
59
147
59
59
147
59
59
147
59
59
147
59
59
147
59
59
147
59
59
147
59
59
147
59
59
147
59
59
147
59
59
147
59
59
147
59
59
147
59
59
147
59
59
147
59
59
147
59
59
147
59
59
147
59
59
147
59
59
147
59
59
147
59
59
147
59
59
147
59
59
147
59
59
147
59
59
147
59
59
147
59
59
147
59
59
147
59
59
147
59
59
147
59
59
147
59
59
147
59
59
147
59
59
147
59
59
147
59
59
147
59
59
147
59
59
147
59
59
147
59
59
147
59
59
147
59
59
147
59
59
147
59
59
147
59
59
147
59
59
147
59
59
147
59
59
147
59
59
147
59
59
147
59
59
147
59
59
147
59
59
147
59
59
147
59
59
147
59
59
147
59
59
147
59
59
147
59
59
147
59
59
147
59
59
147
59
59
147
59
59
147
59
59
147
59
59
147
59
59
147
59
59
147
59
59
147
59
59
147
59
59
147
59
59
147
59
59
147
59
59
147
59
59
147
59
59
147
59
59
147
59
59
147
59
59
147
59
59
147
59
59
147
59
59
147
59
59
147
59
59
147
59
59
147
59
59
147
59
59
108
23
30
108
23
30
108
23
30
108
23
30
108
23
30
108
23
30
108
23
30
108
23
30
108
23
30
108
23
30
108
23
30
108
23
30
108
23
30
108
23
30
108
23
30
108
23
30
108
23
30
108
23
30
108
23
30
108
23
30
108
23
30
108
23
30
108
23
30
108
23
30
108
23
30
108
23
30
108
23
30
108
23
30
108
23
30
108
23
30
108
23
30
108
23
30
108
23
30
108
23
30
108
23
30
108
23
30
108
23
30
108
23
30
108
23
30
108
23
30
108
23
30
108
23
30
108
23
30
108
23
30
108
23
30
108
23
30
108
23
30
108
23
30
108
23
30
108
23
30
108
23
30
108
23
30
108
23
30
108
23
30
108
23
30
108
23
30
108
23
30
108
23
30
108
23
30
108
23
30
108
23
30
108
23
30
108
23
30
108
23
30
108
23
30
108
23
30
108
23
30
108
23
30
108
23
30
108
23
30
108
23
30
108
23
30
108
23
30
108
23
30
108
23
30
108
23
30
108
23
30
108
23
30
108
23
30
108
23
30
108
23
30
108
23
30
108
23
30
108
23
30
108
23
30
108
23
30
108
23
30
108
23
30
108
23
30
108
23
30
108
23
30
108
23
30
108
23
30
108
23
30
108
23
30
108
23
30
108
23
30
108
23
30
108
23
30
108
23
30
108
23
30
108
23
30
108
23
30
108
23
30
108
23
30
108
23
30
108
23
30
122
36
40
122
36
40
122
36
40
122
36
40
122
36
40
122
36
40
122
36
40
122
36
40
122
36
40
122
36
40
122
36
40
122
36
40
122
36
40
122
36
40
122
36
40
122
36
40
122
36
40
122
36
40
122
36
40
122
36
40
122
36
40
122
36
40
122
36
40
122
36
40
122
36
40
122
36
40
122
36
40
122
36
40
122
36
40
122
36
40
122
36
40
122
36
40
122
36
40
122
36
40
122
36
40
122
36
40
122
36
40
122
36
40
122
36
40
122
36
40
122
36
40
147
59
59
147
59
59
147
59
59
147
59
59
147
59
59
147
59
59
147
59
59
147
59
59
147
59
59
147
59
59
147
59
59
147
59
59
147
59
59
147
59
59
147
59
59
147
59
59
147
59
59
147
59
59
147
59
59
147
59
59
147
59
59
147
59
59
147
59
59
147
59
59
147
59
59
147
59
59
147
59
59
147
59
59
147
59
59
147
59
59
147
59
59
147
59
59
147
59
59
147
59
59
147
59
59
147
59
59
147
59
59
147
59
59
147
59
59
147
59
59
147
59
59
147
59
59
147
59
59
147
59
59
147
59
59
147
59
59
147
59
59
147
59
59
147
59
59
147
59
59
147
59
59
147
59
59
147
59
59
147
59
59
147
59
59
147
59
59
147
59
59
147
59
59
147
59
59
147
59
59
147
59
59
147
59
59
147
59
59
147
59
59
147
59
59
147
59
59
147
59
59
147
59
59
147
59
59
147
59
59
147
59
59
147
59
59
147
59
59
147
59
59
147
59
59
147
59
59
147
59
59
147
59
59
147
59
59
147
59
59
147
59
59
147
59
59
147
59
59
147
59
59
147
59
59
147
59
59
147
59
59
147
59
59
147
59
59
147
59
59
147
59
59
147
59
59
147
59
59
147
59
59
147
59
59
147
59
59
147
59
59
147
59
59
147
59
59
147
59
59
147
59
59
147
59
59
147
59
59
147
59
59
147
59
59
147
59
59
147
59
59
147
59
59
108
23
30
108
23
30
108
23
30
108
23
30
108
23
30
108
23
30
108
23
30
108
23
30
108
23
30
108
23
30
108
23
30
108
23
30
108
23
30
108
23
30
108
23
30
108
23
30
108
23
30
108
23
30
108
23
30
108
23
30
108
23
30
108
23
30
108
23
30
108
23
30
108
23
30
108
23
30
108
23
30
108
23
30
108
23
30
108
23
30
108
23
30
108
23
30
108
23
30
108
23
30
108
23
30
108
23
30
108
23
30
108
23
30
108
23
30
108
23
30
108
23
30
108
23
30
108
23
30
108
23
30
108
23
30
108
23
30
108
23
30
108
23
30
108
23
30
108
23
30
108
23
30
108
23
30
108
23
30
108
23
30
108
23
30
108
23
30
108
23
30
108
23
30
108
23
30
108
23
30
108
23
30
108
23
30
108
23
30
108
23
30
108
23
30
108
23
30
108
23
30
108
23
30
108
23
30
108
23
30
108
23
30
108
23
30
108
23
30
108
23
30
108
23
30
108
23
30
108
23
30
108
23
30
108
23
30
108
23
30
108
23
30
108
23
30
108
23
30
108
23
30
108
23
30
108
23
30
108
23
30
108
23
30
108
23
30
108
23
30
108
23
30
108
23
30
108
23
30
108
23
30
108
23
30
108
23
30
108
23
30
108
23
30
108
23
30
108
23
30
108
23
30
108
23
30
108
23
30
108
23
30
108
23
30
108
23
30
108
23
30
122
36
40
122
36
40
122
36
40
122
36
40
122
36
40
122
36
40
122
36
40
122
36
40
122
36
40
122
36
40
122
36
40
122
36
40
122
36
40
122
36
40
122
36
40
122
36
40
122
36
40
122
36
40
122
36
40
122
36
40
122
36
40
122
36
40
122
36
40
122
36
40
122
36
40
122
36
40
122
36
40
122
36
40
122
36
40
122
36
40
122
36
40
122
36
40
122
36
40
122
36
40
122
36
40
122
36
40
122
36
40
122
36
40
122
36
40
122
36
40
122
36
40
147
59
59
147
59
59
147
59
59
147
59
59
147
59
59
147
59
59
147
59
59
147
59
59
147
59
59
147
59
59
147
59
59
147
59
59
147
59
59
147
59
59
147
59
59
147
59
59
147
59
59
147
59
59
147
59
59
147
59
59
147
59
59
147
59
59
147
59
59
147
59
59
147
59
59
147
59
59
147
59
59
147
59
59
147
59
59
147
59
59
147
59
59
147
59
59
147
59
59
147
59
59
147
59
59
147
59
59
147
59
59
147
59
59
147
59
59
147
59
59
147
59
59
147
59
59
147
59
59
147
59
59
147
59
59
147
59
59
147
59
59
147
59
59
147
59
59
147
59
59
147
59
59
147
59
59
147
59
59
147
59
59
147
59
59
147
59
59
147
59
59
147
59
59
147
59
59
147
59
59
147
59
59
147
59
59
147
59
59
147
59
59
147
59
59
147
59
59
147
59
59
147
59
59
147
59
59
147
59
59
147
59
59
147
59
59
147
59
59
147
59
59
147
59
59
147
59
59
147
59
59
147
59
59
147
59
59
147
59
59
147
59
59
147
59
59
147
59
59
147
59
59
147
59
59
147
59
59
147
59
59
147
59
59
147
59
59
147
59
59
147
59
59
147
59
59
147
59
59
147
59
59
147
59
59
147
59
59
147
59
59
147
59
59
147
59
59
147
59
59
147
59
59
147
59
59
147
59
59
147
59
59
147
59
59
147
59
59
147
59
59
147
59
59
108
23
30
108
23
30
108
23
30
108
23
30
108
23
30
108
23
30
108
23
30
108
23
30
108
23
30
108
23
30
108
23
30
108
23
30
108
23
30
108
23
30
108
23
30
108
23
30
108
23
30
108
23
30
108
23
30
108
23
30
108
23
30
108
23
30
108
23
30
108
23
30
108
23
30
108
23
30
108
23
30
108
23
30
108
23
30
108
23
30
108
23
30
108
23
30
108
23
30
108
23
30
108
23
30
108
23
30
108
23
30
108
23
30
108
23
30
108
23
30
108
23
30
108
23
30
108
23
30
108
23
30
108
23
30
108
23
30
108
23
30
108
23
30
108
23
30
108
23
30
108
23
30
108
23
30
108
23
30
108
23
30
108
23
30
108
23
30
108
23
30
108
23
30
108
23
30
108
23
30
108
23
30
108
23
30
108
23
30
108
23
30
108
23
30
108
23
30
108
23
30
108
23
30
108
23
30
108
23
30
108
23
30
108
23
30
108
23
30
108
23
30
108
23
30
108
23
30
108
23
30
108
23
30
108
23
30
108
23
30
108
23
30
108
23
30
108
23
30
108
23
30
108
23
30
108
23
30
108
23
30
108
23
30
108
23
30
108
23
30
108
23
30
108
23
30
108
23
30
108
23
30
108
23
30
108
23
30
108
23
30
108
23
30
108
23
30
108
23
30
108
23
30
108
23
30
108
23
30
108
23
30
108
23
30
108
23
30
108
23
30
122
36
40
122
36
40
122
36
40
122
36
40
122
36
40
122
36
40
122
36
40
122
36
40
122
36
40
122
36
40
122
36
40
122
36
40
122
36
40
122
36
40
122
36
40
122
36
40
122
36
40
122
36
40
122
36
40
122
36
40
122
36
40
122
36
40
122
36
40
122
36
40
122
36
40
122
36
40
122
36
40
122
36
40
122
36
40
122
36
40
122
36
40
122
36
40
122
36
40
122
36
40
122
36
40
122
36
40
122
36
40
122
36
40
122
36
40
122
36
40
122
36
40
147
59
59
147
59
59
147
59
59
147
59
59
147
59
59
147
59
59
147
59
59
147
59
59
147
59
59
147
59
59
147
59
59
147
59
59
147
59
59
147
59
59
147
59
59
147
59
59
147
59
59
147
59
59
147
59
59
147
59
59
147
59
59
147
59
59
147
59
59
147
59
59
147
59
59
147
59
59
147
59
59
147
59
59
147
59
59
147
59
59
147
59
59
147
59
59
147
59
59
147
59
59
147
59
59
147
59
59
147
59
59
147
59
59
147
59
59
147
59
59
147
59
59
147
59
59
147
59
59
147
59
59
147
59
59
147
59
59
147
59
59
147
59
59
147
59
59
147
59
59
147
59
59
147
59
59
147
59
59
147
59
59
147
59
59
147
59
59
147
59
59
147
59
59
147
59
59
147
59
59
147
59
59
147
59
59
147
59
59
147
59
59
147
59
59
147
59
59
147
59
59
147
59
59
147
59
59
147
59
59
147
59
59
147
59
59
147
59
59
147
59
59
147
59
59
147
59
59
147
59
59
147
59
59
147
59
59
147
59
59
147
59
59
147
59
59
147
59
59
147
59
59
147
59
59
147
59
59
147
59
59
147
59
59
147
59
59
147
59
59
147
59
59
147
59
59
147
59
59
147
59
59
147
59
59
147
59
59
147
59
59
147
59
59
147
59
59
147
59
59
147
59
59
147
59
59
147
59
59
147
59
59
147
59
59
147
59
59
147
59
59
147
59
59
108
23
30
108
23
30
108
23
30
108
23
30
108
23
30
108
23
30
108
23
30
108
23
30
108
23
30
108
23
30
108
23
30
108
23
30
108
23
30
108
23
30
108
23
30
108
23
30
108
23
30
108
23
30
108
23
30
108
23
30
108
23
30
108
23
30
108
23
30
108
23
30
108
23
30
108
23
30
108
23
30
108
23
30
108
23
30
108
23
30
108
23
30
108
23
30
108
23
30
108
23
30
108
23
30
108
23
30
108
23
30
108
23
30
108
23
30
108
23
30
108
23
30
108
23
30
108
23
30
108
23
30
108
23
30
108
23
30
108
23
30
108
23
30
108
23
30
108
23
30
108
23
30
108
23
30
108
23
30
108
23
30
108
23
30
108
23
30
108
23
30
108
23
30
108
23
30
108
23
30
108
23
30
108
23
30
108
23
30
108
23
30
108
23
30
108
23
30
108
23
30
108
23
30
108
23
30
108
23
30
108
23
30
108
23
30
108
23
30
108
23
30
108
23
30
108
23
30
108
23
30
108
23
30
108
23
30
108
23
30
108
23
30
108
23
30
108
23
30
108
23
30
108
23
30
108
23
30
108
23
30
108
23
30
108
23
30
108
23
30
108
23
30
108
23
30
108
23
30
108
23
30
108
23
30
108
23
30
108
23
30
108
23
30
108
23
30
108
23
30
108
23
30
108
23
30
108
23
30
108
23
30
108
23
30
108
23
30
108
23
30
122
36
40
122
36
40
122
36
40
122
36
40
122
36
40
122
36
40
122
36
40
122
36
40
122
36
40
122
36
40
122
36
40
122
36
40
122
36
40
122
36
40
122
36
40
122
36
40
122
36
40
122
36
40
122
36
40
122
36
40
122
36
40
122
36
40
122
36
40
122
36
40
122
36
40
122
36
40
122
36
40
122
36
40
122
36
40
122
36
40
122
36
40
122
36
40
122
36
40
122
36
40
122
36
40
122
36
40
122
36
40
122
36
40
122
36
40
122
36
40
122
36
40
147
59
59
147
59
59
147
59
59
147
59
59
147
59
59
147
59
59
147
59
59
147
59
59
147
59
59
147
59
59
147
59
59
147
59
59
147
59
59
147
59
59
147
59
59
147
59
59
147
59
59
147
59
59
147
59
59
147
59
59
147
59
59
147
59
59
147
59
59
147
59
59
147
59
59
147
59
59
147
59
59
147
59
59
147
59
59
147
59
59
147
59
59
147
59
59
147
59
59
147
59
59
147
59
59
147
59
59
147
59
59
147
59
59
147
59
59
147
59
59
147
59
59
147
59
59
147
59
59
147
59
59
147
59
59
147
59
59
147
59
59
147
59
59
147
59
59
147
59
59
147
59
59
147
59
59
147
59
59
147
59
59
147
59
59
147
59
59
147
59
59
147
59
59
147
59
59
147
59
59
147
59
59
147
59
59
147
59
59
147
59
59
147
59
59
147
59
59
147
59
59
147
59
59
147
59
59
147
59
59
147
59
59
147
59
59
147
59
59
147
59
59
147
59
59
147
59
59
147
59
59
147
59
59
147
59
59
147
59
59
147
59
59
147
59
59
147
59
59
147
59
59
147
59
59
147
59
59
147
59
59
147
59
59
147
59
59
147
59
59
147
59
59
147
59
59
147
59
59
147
59
59
147
59
59
147
59
59
147
59
59
147
59
59
147
59
59
147
59
59
147
59
59
147
59
59
147
59
59
147
59
59
147
59
59
147
59
59
147
59
59
147
59
59
108
23
30
108
23
30
108
23
30
108
23
30
108
23
30
108
23
30
108
23
30
108
23
30
108
23
30
108
23
30
108
23
30
108
23
30
108
23
30
108
23
30
108
23
30
108
23
30
108
23
30
108
23
30
108
23
30
108
23
30
108
23
30
108
23
30
108
23
30
108
23
30
108
23
30
108
23
30
108
23
30
108
23
30
108
23
30
108
23
30
108
23
30
108
23
30
108
23
30
108
23
30
108
23
30
108
23
30
108
23
30
108
23
30
108
23
30
108
23
30
108
23
30
108
23
30
108
23
30
108
23
30
108
23
30
108
23
30
108
23
30
108
23
30
108
23
30
108
23
30
108
23
30
108
23
30
108
23
30
108
23
30
108
23
30
108
23
30
108
23
30
108
23
30
108
23
30
108
23
30
108
23
30
108
23
30
108
23
30
108
23
30
108
23
30
108
23
30
108
23
30
108
23
30
108
23
30
108
23
30
108
23
30
108
23
30
108
23
30
108
23
30
108
23
30
108
23
30
108
23
30
108
23
30
108
23
30
108
23
30
108
23
30
108
23
30
108
23
30
108
23
30
108
23
30
108
23
30
108
23
30
108
23
30
108
23
30
108
23
30
108
23
30
108
23
30
108
23
30
108
23
30
108
23
30
108
23
30
108
23
30
108
23
30
108
23
30
108
23
30
108
23
30
108
23
30
108
23
30
108
23
30
108
23
30
108
23
30
108
23
30
122
36
40
122
36
40
122
36
40
122
36
40
122
36
40
122
36
40
122
36
40
122
36
40
122
36
40
122
36
40
122
36
40
122
36
40
122
36
40
122
36
40
122
36
40
122
36
40
122
36
40
122
36
40
122
36
40
122
36
40
122
36
40
122
36
40
122
36
40
122
36
40
122
36
40
122
36
40
122
36
40
122
36
40
122
36
40
122
36
40
122
36
40
122
36
40
122
36
40
122
36
40
122
36
40
122
36
40
122
36
40
122
36
40
122
36
40
122
36
40
122
36
40
147
59
59
147
59
59
147
59
59
147
59
59
147
59
59
147
59
59
147
59
59
147
59
59
147
59
59
147
59
59
147
59
59
147
59
59
147
59
59
147
59
59
147
59
59
147
59
59
147
59
59
147
59
59
147
59
59
147
59
59
147
59
59
147
59
59
147
59
59
147
59
59
147
59
59
147
59
59
147
59
59
147
59
59
147
59
59
147
59
59
147
59
59
147
59
59
147
59
59
147
59
59
147
59
59
147
59
59
147
59
59
147
59
59
147
59
59
147
59
59
147
59
59
147
59
59
147
59
59
147
59
59
147
59
59
147
59
59
147
59
59
147
59
59
147
59
59
147
59
59
147
59
59
147
59
59
147
59
59
147
59
59
147
59
59
147
59
59
147
59
59
147
59
59
147
59
59
147
59
59
147
59
59
147
59
59
147
59
59
147
59
59
147
59
59
147
59
59
147
59
59
147
59
59
147
59
59
147
59
59
147
59
59
147
59
59
147
59
59
147
59
59
147
59
59
147
59
59
147
59
59
147
59
59
147
59
59
147
59
59
147
59
59
147
59
59
147
59
59
147
59
59
147
59
59
147
59
59
147
59
59
147
59
59
147
59
59
147
59
59
147
59
59
147
59
59
147
59
59
147
59
59
147
59
59
147
59
59
147
59
59
147
59
59
147
59
59
147
59
59
147
59
59
147
59
59
147
59
59
147
59
59
147
59
59
147
59
59
147
59
59
147
59
59
108
23
30
108
23
30
108
23
30
108
23
30
108
23
30
108
23
30
108
23
30
108
23
30
108
23
30
108
23
30
108
23
30
108
23
30
108
23
30
108
23
30
108
23
30
108
23
30
108
23
30
108
23
30
108
23
30
108
23
30
108
23
30
108
23
30
108
23
30
108
23
30
108
23
30
108
23
30
108
23
30
108
23
30
108
23
30
108
23
30
108
23
30
108
23
30
108
23
30
108
23
30
108
23
30
108
23
30
108
23
30
108
23
30
108
23
30
108
23
30
108
23
30
108
23
30
108
23
30
108
23
30
108
23
30
108
23
30
108
23
30
108
23
30
108
23
30
108
23
30
108
23
30
108
23
30
108
23
30
108
23
30
108
23
30
108
23
30
108
23
30
108
23
30
108
23
30
108
23
30
108
23
30
108
23
30
108
23
30
108
23
30
108
23
30
108
23
30
108
23
30
108
23
30
108
23
30
108
23
30
108
23
30
108
23
30
108
23
30
108
23
30
108
23
30
108
23
30
108
23
30
108
23
30
108
23
30
108
23
30
108
23
30
108
23
30
108
23
30
108
23
30
108
23
30
108
23
30
108
23
30
108
23
30
108
23
30
108
23
30
108
23
30
108
23
30
108
23
30
108
23
30
108
23
30
108
23
30
108
23
30
108
23
30
108
23
30
108
23
30
108
23
30
108
23
30
108
23
30
108
23
30
108
23
30
108
23
30
108
23
30
122
36
40
122
36
40
122
36
40
122
36
40
122
36
40
122
36
40
122
36
40
122
36
40
122
36
40
122
36
40
122
36
40
122
36
40
122
36
40
122
36
40
122
36
40
122
36
40
122
36
40
122
36
40
122
36
40
122
36
40
122
36
40
122
36
40
122
36
40
122
36
40
122
36
40
122
36
40
122
36
40
122
36
40
122
36
40
122
36
40
122
36
40
122
36
40
122
36
40
122
36
40
122
36
40
122
36
40
122
36
40
122
36
40
122
36
40
122
36
40
122
36
40
147
59
59
147
59
59
147
59
59
147
59
59
147
59
59
147
59
59
147
59
59
147
59
59
147
59
59
147
59
59
147
59
59
147
59
59
147
59
59
147
59
59
147
59
59
147
59
59
147
59
59
147
59
59
147
59
59
147
59
59
147
59
59
147
59
59
147
59
59
147
59
59
147
59
59
147
59
59
147
59
59
147
59
59
147
59
59
147
59
59
147
59
59
147
59
59
147
59
59
147
59
59
147
59
59
147
59
59
147
59
59
147
59
59
147
59
59
147
59
59
147
59
59
147
59
59
147
59
59
147
59
59
147
59
59
147
59
59
147
59
59
147
59
59
147
59
59
147
59
59
147
59
59
147
59
59
147
59
59
147
59
59
147
59
59
147
59
59
147
59
59
147
59
59
147
59
59
147
59
59
147
59
59
147
59
59
147
59
59
147
59
59
147
59
59
147
59
59
147
59
59
147
59
59
147
59
59
147
59
59
147
59
59
147
59
59
147
59
59
147
59
59
147
59
59
147
59
59
147
59
59
147
59
59
147
59
59
147
59
59
147
59
59
147
59
59
147
59
59
147
59
59
147
59
59
147
59
59
147
59
59
147
59
59
147
59
59
147
59
59
147
59
59
147
59
59
147
59
59
147
59
59
147
59
59
147
59
59
147
59
59
147
59
59
147
59
59
147
59
59
147
59
59
147
59
59
147
59
59
147
59
59
147
59
59
147
59
59
147
59
59
147
59
59
108
23
30
108
23
30
108
23
30
108
23
30
108
23
30
108
23
30
108
23
30
108
23
30
108
23
30
108
23
30
108
23
30
108
23
30
108
23
30
108
23
30
108
23
30
108
23
30
108
23
30
108
23
30
108
23
30
108
23
30
108
23
30
108
23
30
108
23
30
108
23
30
108
23
30
108
23
30
108
23
30
108
23
30
108
23
30
108
23
30
108
23
30
108
23
30
108
23
30
108
23
30
108
23
30
108
23
30
108
23
30
108
23
30
108
23
30
108
23
30
108
23
30
108
23
30
108
23
30
108
23
30
108
23
30
108
23
30
108
23
30
108
23
30
108
23
30
108
23
30
108
23
30
108
23
30
108
23
30
108
23
30
108
23
30
108
23
30
108
23
30
108
23
30
108
23
30
108
23
30
108
23
30
108
23
30
108
23
30
108
23
30
108
23
30
108
23
30
108
23
30
108
23
30
108
23
30
108
23
30
108
23
30
108
23
30
108
23
30
108
23
30
108
23
30
108
23
30
108
23
30
108
23
30
108
23
30
108
23
30
108
23
30
108
23
30
108
23
30
108
23
30
108
23
30
108
23
30
108
23
30
108
23
30
108
23
30
108
23
30
108
23
30
108
23
30
108
23
30
108
23
30
108
23
30
108
23
30
108
23
30
108
23
30
108
23
30
108
23
30
108
23
30
108
23
30
108
23
30
108
23
30
108
23
30
108
23
30
108
23
30
122
36
40
122
36
40
122
36
40
122
36
40
122
36
40
122
36
40
122
36
40
122
36
40
122
36
40
122
36
40
122
36
40
122
36
40
122
36
40
122
36
40
122
36
40
122
36
40
122
36
40
122
36
40
122
36
40
122
36
40
122
36
40
122
36
40
122
36
40
122
36
40
122
36
40
122
36
40
122
36
40
122
36
40
122
36
40
122
36
40
122
36
40
122
36
40
122
36
40
122
36
40
122
36
40
122
36
40
122
36
40
122
36
40
122
36
40
122
36
40
122
36
40
147
59
59
147
59
59
147
59
59
147
59
59
147
59
59
147
59
59
147
59
59
147
59
59
147
59
59
147
59
59
147
59
59
147
59
59
147
59
59
147
59
59
147
59
59
147
59
59
147
59
59
147
59
59
147
59
59
147
59
59
147
59
59
147
59
59
147
59
59
147
59
59
147
59
59
147
59
59
147
59
59
147
59
59
147
59
59
147
59
59
147
59
59
147
59
59
147
59
59
147
59
59
147
59
59
147
59
59
147
59
59
147
59
59
147
59
59
147
59
59
147
59
59
147
59
59
147
59
59
147
59
59
147
59
59
147
59
59
147
59
59
147
59
59
147
59
59
147
59
59
147
59
59
147
59
59
147
59
59
147
59
59
147
59
59
147
59
59
147
59
59
147
59
59
147
59
59
147
59
59
147
59
59
147
59
59
147
59
59
147
59
59
147
59
59
147
59
59
147
59
59
147
59
59
147
59
59
147
59
59
147
59
59
147
59
59
147
59
59
147
59
59
147
59
59
147
59
59
147
59
59
147
59
59
147
59
59
147
59
59
147
59
59
147
59
59
147
59
59
147
59
59
147
59
59
147
59
59
147
59
59
147
59
59
147
59
59
147
59
59
147
59
59
147
59
59
147
59
59
147
59
59
147
59
59
147
59
59
147
59
59
147
59
59
147
59
59
147
59
59
147
59
59
147
59
59
147
59
59
147
59
59
147
59
59
147
59
59
147
59
59
147
59
59
108
23
30
108
23
30
108
23
30
108
23
30
108
23
30
108
23
30
108
23
30
108
23
30
108
23
30
108
23
30
108
23
30
108
23
30
108
23
30
108
23
30
108
23
30
108
23
30
108
23
30
108
23
30
108
23
30
108
23
30
108
23
30
108
23
30
108
23
30
108
23
30
108
23
30
108
23
30
108
23
30
108
23
30
108
23
30
108
23
30
108
23
30
108
23
30
108
23
30
108
23
30
108
23
30
108
23
30
108
23
30
108
23
30
108
23
30
108
23
30
108
23
30
108
23
30
108
23
30
108
23
30
108
23
30
108
23
30
108
23
30
108
23
30
108
23
30
108
23
30
108
23
30
108
23
30
108
23
30
108
23
30
108
23
30
108
23
30
108
23
30
108
23
30
108
23
30
108
23
30
108
23
30
108
23
30
108
23
30
108
23
30
108
23
30
108
23
30
108
23
30
108
23
30
108
23
30
108
23
30
108
23
30
108
23
30
108
23
30
108
23
30
108
23
30
108
23
30
108
23
30
108
23
30
108
23
30
108
23
30
108
23
30
108
23
30
108
23
30
108
23
30
108
23
30
108
23
30
108
23
30
108
23
30
108
23
30
108
23
30
108
23
30
108
23
30
108
23
30
108
23
30
108
23
30
108
23
30
108
23
30
108
23
30
108
23
30
108
23
30
108
23
30
108
23
30
108
23
30
108
23
30
108
23
30
108
23
30
108
23
30
122
36
40
122
36
40
122
36
40
122
36
40
122
36
40
122
36
40
122
36
40
122
36
40
122
36
40
122
36
40
122
36
40
122
36
40
122
36
40
122
36
40
122
36
40
122
36
40
122
36
40
122
36
40
122
36
40
122
36
40
122
36
40
122
36
40
122
36
40
122
36
40
122
36
40
122
36
40
122
36
40
122
36
40
122
36
40
122
36
40
122
36
40
122
36
40
122
36
40
122
36
40
122
36
40
122
36
40
122
36
40
122
36
40
122
36
40
122
36
40
122
36
40
147
59
59
147
59
59
147
59
59
147
59
59
147
59
59
147
59
59
147
59
59
147
59
59
147
59
59
147
59
59
147
59
59
147
59
59
147
59
59
147
59
59
147
59
59
147
59
59
147
59
59
147
59
59
147
59
59
147
59
59
147
59
59
147
59
59
147
59
59
147
59
59
147
59
59
147
59
59
147
59
59
147
59
59
147
59
59
147
59
59
147
59
59
147
59
59
147
59
59
147
59
59
147
59
59
147
59
59
147
59
59
147
59
59
147
59
59
147
59
59
147
59
59
147
59
59
147
59
59
147
59
59
147
59
59
147
59
59
147
59
59
147
59
59
147
59
59
147
59
59
147
59
59
147
59
59
147
59
59
147
59
59
147
59
59
147
59
59
147
59
59
147
59
59
147
59
59
147
59
59
147
59
59
147
59
59
147
59
59
147
59
59
147
59
59
147
59
59
147
59
59
147
59
59
147
59
59
147
59
59
147
59
59
147
59
59
147
59
59
147
59
59
147
59
59
147
59
59
147
59
59
147
59
59
147
59
59
147
59
59
147
59
59
147
59
59
147
59
59
147
59
59
147
59
59
147
59
59
147
59
59
147
59
59
147
59
59
147
59
59
147
59
59
147
59
59
147
59
59
147
59
59
147
59
59
147
59
59
147
59
59
147
59
59
147
59
59
147
59
59
147
59
59
147
59
59
147
59
59
147
59
59
147
59
59
147
59
59
147
59
59
147
59
59
108
23
30
108
23
30
108
23
30
108
23
30
108
23
30
108
23
30
108
23
30
108
23
30
108
23
30
108
23
30
108
23
30
108
23
30
108
23
30
108
23
30
108
23
30
108
23
30
108
23
30
108
23
30
108
23
30
108
23
30
108
23
30
108
23
30
108
23
30
108
23
30
108
23
30
108
23
30
108
23
30
108
23
30
108
23
30
108
23
30
108
23
30
108
23
30
108
23
30
108
23
30
108
23
30
108
23
30
108
23
30
108
23
30
108
23
30
108
23
30
108
23
30
108
23
30
108
23
30
108
23
30
108
23
30
108
23
30
108
23
30
108
23
30
108
23
30
108
23
30
108
23
30
108
23
30
108
23
30
108
23
30
108
23
30
108
23
30
108
23
30
108
23
30
108
23
30
108
23
30
108
23
30
108
23
30
108
23
30
108
23
30
108
23
30
108
23
30
108
23
30
108
23
30
108
23
30
108
23
30
108
23
30
108
23
30
108
23
30
108
23
30
108
23
30
108
23
30
108
23
30
108
23
30
108
23
30
108
23
30
108
23
30
108
23
30
108
23
30
108
23
30
108
23
30
108
23
30
108
23
30
108
23
30
108
23
30
108
23
30
108
23
30
108
23
30
108
23
30
108
23
30
108
23
30
108
23
30
108
23
30
108
23
30
108
23
30
108
23
30
108
23
30
108
23
30
108
23
30
108
23
30
108
23
30
108
23
30
108
23
30
122
36
40
122
36
40
122
36
40
122
36
40
122
36
40
122
36
40
122
36
40
122
36
40
122
36
40
122
36
40
122
36
40
122
36
40
122
36
40
122
36
40
122
36
40
122
36
40
122
36
40
122
36
40
122
36
40
122
36
40
122
36
40
122
36
40
122
36
40
122
36
40
122
36
40
122
36
40
122
36
40
122
36
40
122
36
40
122
36
40
122
36
40
122
36
40
122
36
40
122
36
40
122
36
40
122
36
40
122
36
40
122
36
40
122
36
40
122
36
40
122
36
40
147
59
59
147
59
59
147
59
59
147
59
59
147
59
59
147
59
59
147
59
59
147
59
59
147
59
59
147
59
59
147
59
59
147
59
59
147
59
59
147
59
59
147
59
59
147
59
59
147
59
59
147
59
59
147
59
59
147
59
59
147
59
59
147
59
59
147
59
59
147
59
59
147
59
59
147
59
59
147
59
59
147
59
59
147
59
59
147
59
59
147
59
59
147
59
59
147
59
59
147
59
59
147
59
59
147
59
59
147
59
59
147
59
59
147
59
59
147
59
59
147
59
59
147
59
59
147
59
59
147
59
59
147
59
59
147
59
59
147
59
59
147
59
59
147
59
59
147
59
59
147
59
59
147
59
59
147
59
59
147
59
59
147
59
59
147
59
59
147
59
59
147
59
59
147
59
59
147
59
59
147
59
59
147
59
59
147
59
59
147
59
59
147
59
59
147
59
59
147
59
59
147
59
59
147
59
59
147
59
59
147
59
59
147
59
59
147
59
59
147
59
59
147
59
59
147
59
59
147
59
59
147
59
59
147
59
59
147
59
59
147
59
59
147
59
59
147
59
59
147
59
59
147
59
59
147
59
59
147
59
59
147
59
59
147
59
59
147
59
59
147
59
59
147
59
59
147
59
59
147
59
59
147
59
59
147
59
59
147
59
59
147
59
59
147
59
59
147
59
59
147
59
59
147
59
59
147
59
59
147
59
59
147
59
59
147
59
59
147
59
59
147
59
59
108
23
30
108
23
30
108
23
30
108
23
30
108
23
30
108
23
30
108
23
30
108
23
30
108
23
30
108
23
30
108
23
30
108
23
30
108
23
30
108
23
30
108
23
30
108
23
30
108
23
30
108
23
30
108
23
30
108
23
30
108
23
30
108
23
30
108
23
30
108
23
30
108
23
30
108
23
30
108
23
30
108
23
30
108
23
30
108
23
30
108
23
30
108
23
30
108
23
30
108
23
30
108
23
30
108
23
30
108
23
30
108
23
30
108
23
30
108
23
30
108
23
30
108
23
30
108
23
30
108
23
30
108
23
30
108
23
30
108
23
30
108
23
30
108
23
30
108
23
30
108
23
30
108
23
30
108
23
30
108
23
30
108
23
30
108
23
30
108
23
30
108
23
30
108
23
30
108
23
30
108
23
30
108
23
30
108
23
30
108
23
30
108
23
30
108
23
30
108
23
30
108
23
30
108
23
30
108
23
30
108
23
30
108
23
30
108
23
30
108
23
30
108
23
30
108
23
30
108
23
30
108
23
30
108
23
30
108
23
30
108
23
30
108
23
30
108
23
30
108
23
30
108
23
30
108
23
30
108
23
30
108
23
30
108
23
30
108
23
30
108
23
30
108
23
30
108
23
30
108
23
30
108
23
30
108
23
30
108
23
30
108
23
30
108
23
30
108
23
30
108
23
30
108
23
30
108
23
30
108
23
30
108
23
30
108
23
30
108
23
30
122
36
40
122
36
40
122
36
40
122
36
40
122
36
40
122
36
40
122
36
40
122
36
40
122
36
40
122
36
40
122
36
40
122
36
40
122
36
40
122
36
40
122
36
40
122
36
40
122
36
40
122
36
40
122
36
40
122
36
40
122
36
40
122
36
40
122
36
40
122
36
40
122
36
40
122
36
40
122
36
40
122
36
40
122
36
40
122
36
40
122
36
40
122
36
40
122
36
40
122
36
40
122
36
40
122
36
40
122
36
40
122
36
40
122
36
40
122
36
40
122
36
40
147
59
59
147
59
59
147
59
59
147
59
59
147
59
59
147
59
59
147
59
59
147
59
59
147
59
59
147
59
59
147
59
59
147
59
59
147
59
59
147
59
59
147
59
59
147
59
59
147
59
59
147
59
59
147
59
59
147
59
59
147
59
59
147
59
59
147
59
59
147
59
59
147
59
59
147
59
59
147
59
59
147
59
59
147
59
59
147
59
59
147
59
59
147
59
59
147
59
59
147
59
59
147
59
59
147
59
59
147
59
59
147
59
59
147
59
59
147
59
59
147
59
59
147
59
59
147
59
59
147
59
59
147
59
59
147
59
59
147
59
59
147
59
59
147
59
59
147
59
59
147
59
59
147
59
59
147
59
59
147
59
59
147
59
59
147
59
59
147
59
59
147
59
59
147
59
59
147
59
59
147
59
59
147
59
59
147
59
59
147
59
59
147
59
59
147
59
59
147
59
59
147
59
59
147
59
59
147
59
59
147
59
59
147
59
59
147
59
59
147
59
59
147
59
59
147
59
59
147
59
59
147
59
59
147
59
59
147
59
59
147
59
59
147
59
59
147
59
59
147
59
59
147
59
59
147
59
59
147
59
59
147
59
59
147
59
59
147
59
59
147
59
59
147
59
59
147
59
59
147
59
59
147
59
59
147
59
59
147
59
59
147
59
59
147
59
59
147
59
59
147
59
59
147
59
59
147
59
59
147
59
59
147
59
59
147
59
59
147
59
59
147
59
59
108
23
30
108
23
30
108
23
30
108
23
30
108
23
30
108
23
30
108
23
30
108
23
30
108
23
30
108
23
30
108
23
30
108
23
30
108
23
30
108
23
30
108
23
30
108
23
30
108
23
30
108
23
30
108
23
30
108
23
30
108
23
30
108
23
30
108
23
30
108
23
30
108
23
30
108
23
30
108
23
30
108
23
30
108
23
30
108
23
30
108
23
30
108
23
30
108
23
30
108
23
30
108
23
30
108
23
30
108
23
30
108
23
30
108
23
30
108
23
30
108
23
30
108
23
30
108
23
30
108
23
30
108
23
30
108
23
30
108
23
30
108
23
30
108
23
30
108
23
30
108
23
30
108
23
30
108
23
30
108
23
30
108
23
30
108
23
30
108
23
30
108
23
30
108
23
30
108
23
30
108
23
30
108
23
30
108
23
30
108
23
30
108
23
30
108
23
30
108
23
30
108
23
30
108
23
30
108
23
30
108
23
30
108
23
30
108
23
30
108
23
30
108
23
30
108
23
30
108
23
30
108
23
30
108
23
30
108
23
30
108
23
30
108
23
30
108
23
30
108
23
30
108
23
30
108
23
30
108
23
30
108
23
30
108
23
30
108
23
30
108
23
30
108
23
30
108
23
30
108
23
30
108
23
30
108
23
30
108
23
30
108
23
30
108
23
30
108
23
30
108
23
30
108
23
30
108
23
30
108
23
30
108
23
30
108
23
30
108
23
30
122
36
40
122
36
40
122
36
40
122
36
40
122
36
40
122
36
40
122
36
40
122
36
40
122
36
40
122
36
40
122
36
40
122
36
40
122
36
40
122
36
40
122
36
40
122
36
40
122
36
40
122
36
40
122
36
40
122
36
40
122
36
40
122
36
40
122
36
40
122
36
40
122
36
40
122
36
40
122
36
40
122
36
40
122
36
40
122
36
40
122
36
40
122
36
40
122
36
40
122
36
40
122
36
40
122
36
40
122
36
40
122
36
40
122
36
40
122
36
40
122
36
40
147
59
59
147
59
59
147
59
59
147
59
59
147
59
59
147
59
59
147
59
59
147
59
59
147
59
59
147
59
59
147
59
59
147
59
59
147
59
59
147
59
59
147
59
59
147
59
59
147
59
59
147
59
59
147
59
59
147
59
59
147
59
59
147
59
59
147
59
59
147
59
59
147
59
59
147
59
59
147
59
59
147
59
59
147
59
59
147
59
59
147
59
59
147
59
59
147
59
59
147
59
59
147
59
59
147
59
59
147
59
59
147
59
59
147
59
59
147
59
59
147
59
59
147
59
59
147
59
59
147
59
59
147
59
59
147
59
59
147
59
59
147
59
59
147
59
59
147
59
59
147
59
59
147
59
59
147
59
59
147
59
59
147
59
59
147
59
59
147
59
59
147
59
59
147
59
59
147
59
59
147
59
59
147
59
59
147
59
59
147
59
59
147
59
59
147
59
59
147
59
59
147
59
59
147
59
59
147
59
59
147
59
59
147
59
59
147
59
59
147
59
59
147
59
59
147
59
59
147
59
59
147
59
59
147
59
59
147
59
59
147
59
59
147
59
59
147
59
59
147
59
59
147
59
59
147
59
59
147
59
59
147
59
59
147
59
59
147
59
59
147
59
59
147
59
59
147
59
59
147
59
59
147
59
59
147
59
59
147
59
59
147
59
59
147
59
59
147
59
59
147
59
59
147
59
59
147
59
59
147
59
59
147
59
59
147
59
59
147
59
59
147
59
59
108
23
30
108
23
30
108
23
30
108
23
30
108
23
30
108
23
30
108
23
30
108
23
30
108
23
30
108
23
30
108
23
30
108
23
30
108
23
30
108
23
30
108
23
30
108
23
30
108
23
30
108
23
30
108
23
30
108
23
30
108
23
30
108
23
30
108
23
30
108
23
30
108
23
30
108
23
30
108
23
30
108
23
30
108
23
30
108
23
30
108
23
30
108
23
30
108
23
30
108
23
30
108
23
30
108
23
30
108
23
30
108
23
30
108
23
30
108
23
30
108
23
30
108
23
30
108
23
30
108
23
30
108
23
30
108
23
30
108
23
30
108
23
30
108
23
30
108
23
30
108
23
30
108
23
30
108
23
30
108
23
30
108
23
30
108
23
30
108
23
30
108
23
30
108
23
30
108
23
30
108
23
30
108
23
30
108
23
30
108
23
30
108
23
30
108
23
30
108
23
30
108
23
30
108
23
30
108
23
30
108
23
30
108
23
30
108
23
30
108
23
30
108
23
30
108
23
30
108
23
30
108
23
30
108
23
30
108
23
30
108
23
30
108
23
30
108
23
30
108
23
30
108
23
30
108
23
30
108
23
30
108
23
30
108
23
30
108
23
30
108
23
30
108
23
30
108
23
30
108
23
30
108
23
30
108
23
30
108
23
30
108
23
30
108
23
30
108
23
30
108
23
30
108
23
30
108
23
30
108
23
30
108
23
30
108
23
30
108
23
30
122
36
40
122
36
40
122
36
40
122
36
40
122
36
40
122
36
40
122
36
40
122
36
40
122
36
40
122
36
40
122
36
40
122
36
40
122
36
40
122
36
40
122
36
40
122
36
40
122
36
40
122
36
40
122
36
40
122
36
40
122
36
40
122
36
40
122
36
40
122
36
40
122
36
40
122
36
40
122
36
40
122
36
40
122
36
40
122
36
40
122
36
40
122
36
40
122
36
40
122
36
40
122
36
40
122
36
40
122
36
40
122
36
40
122
36
40
122
36
40
122
36
40
147
59
59
147
59
59
147
59
59
147
59
59
147
59
59
147
59
59
147
59
59
147
59
59
147
59
59
147
59
59
147
59
59
147
59
59
147
59
59
147
59
59
147
59
59
147
59
59
147
59
59
147
59
59
147
59
59
147
59
59
147
59
59
147
59
59
147
59
59
147
59
59
147
59
59
147
59
59
147
59
59
147
59
59
147
59
59
147
59
59
147
59
59
147
59
59
147
59
59
147
59
59
147
59
59
147
59
59
147
59
59
147
59
59
147
59
59
147
59
59
147
59
59
147
59
59
147
59
59
147
59
59
147
59
59
147
59
59
147
59
59
147
59
59
147
59
59
147
59
59
147
59
59
147
59
59
147
59
59
147
59
59
147
59
59
147
59
59
147
59
59
147
59
59
147
59
59
147
59
59
147
59
59
147
59
59
147
59
59
147
59
59
147
59
59
147
59
59
147
59
59
147
59
59
147
59
59
147
59
59
147
59
59
147
59
59
147
59
59
147
59
59
147
59
59
147
59
59
147
59
59
147
59
59
147
59
59
147
59
59
147
59
59
147
59
59
147
59
59
147
59
59
147
59
59
147
59
59
147
59
59
147
59
59
147
59
59
147
59
59
147
59
59
147
59
59
147
59
59
147
59
59
147
59
59
147
59
59
147
59
59
147
59
59
147
59
59
147
59
59
147
59
59
147
59
59
147
59
59
147
59
59
147
59
59
147
59
59
147
59
59
147
59
59
108
23
30
108
23
30
108
23
30
108
23
30
108
23
30
108
23
30
108
23
30
108
23
30
108
23
30
108
23
30
108
23
30
108
23
30
108
23
30
108
23
30
108
23
30
108
23
30
108
23
30
108
23
30
108
23
30
108
23
30
108
23
30
108
23
30
108
23
30
108
23
30
108
23
30
108
23
30
108
23
30
108
23
30
108
23
30
108
23
30
108
23
30
108
23
30
108
23
30
108
23
30
108
23
30
108
23
30
108
23
30
108
23
30
108
23
30
108
23
30
108
23
30
108
23
30
108
23
30
108
23
30
108
23
30
108
23
30
108
23
30
108
23
30
108
23
30
108
23
30
108
23
30
108
23
30
108
23
30
108
23
30
108
23
30
108
23
30
108
23
30
108
23
30
108
23
30
108
23
30
108
23
30
108
23
30
108
23
30
108
23
30
108
23
30
108
23
30
108
23
30
108
23
30
108
23
30
108
23
30
108
23
30
108
23
30
108
23
30
108
23
30
108
23
30
108
23
30
108
23
30
108
23
30
108
23
30
108
23
30
108
23
30
108
23
30
108
23
30
108
23
30
108
23
30
108
23
30
108
23
30
108
23
30
108
23
30
108
23
30
108
23
30
108
23
30
108
23
30
108
23
30
108
23
30
108
23
30
108
23
30
108
23
30
108
23
30
108
23
30
108
23
30
108
23
30
108
23
30
108
23
30
108
23
30
108
23
30
108
23
30
122
36
40
122
36
40
122
36
40
122
36
40
122
36
40
122
36
40
122
36
40
122
36
40
122
36
40
122
36
40
122
36
40
122
36
40
122
36
40
122
36
40
122
36
40
122
36
40
122
36
40
122
36
40
122
36
40
122
36
40
122
36
40
122
36
40
122
36
40
122
36
40
122
36
40
122
36
40
122
36
40
122
36
40
122
36
40
122
36
40
122
36
40
122
36
40
122
36
40
122
36
40
122
36
40
122
36
40
122
36
40
122
36
40
122
36
40
122
36
40
122
36
40
147
59
59
147
59
59
147
59
59
147
59
59
147
59
59
147
59
59
147
59
59
147
59
59
147
59
59
147
59
59
147
59
59
147
59
59
147
59
59
147
59
59
147
59
59
147
59
59
147
59
59
147
59
59
147
59
59
147
59
59
147
59
59
147
59
59
147
59
59
147
59
59
147
59
59
147
59
59
147
59
59
147
59
59
147
59
59
147
59
59
147
59
59
147
59
59
147
59
59
147
59
59
147
59
59
147
59
59
147
59
59
147
59
59
147
59
59
147
59
59
147
59
59
147
59
59
147
59
59
147
59
59
147
59
59
147
59
59
147
59
59
147
59
59
147
59
59
147
59
59
147
59
59
147
59
59
147
59
59
147
59
59
147
59
59
147
59
59
147
59
59
147
59
59
147
59
59
147
59
59
147
59
59
147
59
59
147
59
59
147
59
59
147
59
59
147
59
59
147
59
59
147
59
59
147
59
59
147
59
59
147
59
59
147
59
59
147
59
59
147
59
59
147
59
59
147
59
59
147
59
59
147
59
59
147
59
59
147
59
59
147
59
59
147
59
59
147
59
59
147
59
59
147
59
59
147
59
59
147
59
59
147
59
59
147
59
59
147
59
59
147
59
59
147
59
59
147
59
59
147
59
59
147
59
59
147
59
59
147
59
59
147
59
59
147
59
59
147
59
59
147
59
59
147
59
59
147
59
59
147
59
59
147
59
59
147
59
59
147
59
59
147
59
59
108
23
30
108
23
30
108
23
30
108
23
30
108
23
30
108
23
30
108
23
30
108
23
30
108
23
30
108
23
30
108
23
30
108
23
30
108
23
30
108
23
30
108
23
30
108
23
30
108
23
30
108
23
30
108
23
30
108
23
30
108
23
30
108
23
30
108
23
30
108
23
30
108
23
30
108
23
30
108
23
30
108
23
30
108
23
30
108
23
30
108
23
30
108
23
30
108
23
30
108
23
30
108
23
30
108
23
30
108
23
30
108
23
30
108
23
30
108
23
30
108
23
30
108
23
30
108
23
30
108
23
30
108
23
30
108
23
30
108
23
30
108
23
30
108
23
30
108
23
30
108
23
30
108
23
30
108
23
30
108
23
30
108
23
30
108
23
30
108
23
30
108
23
30
108
23
30
108
23
30
108
23
30
108
23
30
108
23
30
108
23
30
108
23
30
108
23
30
108
23
30
108
23
30
108
23
30
108
23
30
108
23
30
108
23
30
108
23
30
108
23
30
108
23
30
108
23
30
108
23
30
108
23
30
108
23
30
108
23
30
108
23
30
108
23
30
108
23
30
108
23
30
108
23
30
108
23
30
108
23
30
108
23
30
108
23
30
108
23
30
108
23
30
108
23
30
108
23
30
108
23
30
108
23
30
108
23
30
108
23
30
108
23
30
108
23
30
108
23
30
108
23
30
108
23
30
108
23
30
108
23
30
108
23
30
108
23
30
108
23
30
122
36
40
122
36
40
122
36
40
122
36
40
122
36
40
122
36
40
122
36
40
122
36
40
122
36
40
122
36
40
122
36
40
122
36
40
122
36
40
122
36
40
122
36
40
122
36
40
122
36
40
122
36
40
122
36
40
122
36
40
122
36
40
122
36
40
122
36
40
122
36
40
122
36
40
122
36
40
122
36
40
122
36
40
122
36
40
122
36
40
122
36
40
122
36
40
122
36
40
122
36
40
122
36
40
122
36
40
122
36
40
122
36
40
122
36
40
122
36
40
122
36
40
147
59
59
147
59
59
147
59
59
147
59
59
147
59
59
147
59
59
147
59
59
147
59
59
147
59
59
147
59
59
147
59
59
147
59
59
147
59
59
147
59
59
147
59
59
147
59
59
147
59
59
147
59
59
147
59
59
147
59
59
147
59
59
147
59
59
147
59
59
147
59
59
147
59
59
147
59
59
147
59
59
147
59
59
147
59
59
147
59
59
147
59
59
147
59
59
147
59
59
147
59
59
147
59
59
147
59
59
147
59
59
147
59
59
147
59
59
147
59
59
147
59
59
147
59
59
147
59
59
147
59
59
147
59
59
147
59
59
147
59
59
147
59
59
147
59
59
147
59
59
147
59
59
147
59
59
147
59
59
147
59
59
147
59
59
147
59
59
147
59
59
147
59
59
147
59
59
147
59
59
147
59
59
147
59
59
147
59
59
147
59
59
147
59
59
147
59
59
147
59
59
147
59
59
147
59
59
147
59
59
147
59
59
147
59
59
147
59
59
147
59
59
147
59
59
147
59
59
147
59
59
147
59
59
147
59
59
147
59
59
147
59
59
147
59
59
147
59
59
147
59
59
147
59
59
147
59
59
147
59
59
147
59
59
147
59
59
147
59
59
147
59
59
147
59
59
147
59
59
147
59
59
147
59
59
147
59
59
147
59
59
147
59
59
147
59
59
147
59
59
147
59
59
147
59
59
147
59
59
147
59
59
147
59
59
147
59
59
147
59
59
147
59
59
108
23
30
108
23
30
108
23
30
108
23
30
108
23
30
108
23
30
108
23
30
108
23
30
108
23
30
108
23
30
108
23
30
108
23
30
108
23
30
108
23
30
108
23
30
108
23
30
108
23
30
108
23
30
108
23
30
108
23
30
108
23
30
108
23
30
108
23
30
108
23
30
108
23
30
108
23
30
108
23
30
108
23
30
108
23
30
108
23
30
108
23
30
108
23
30
108
23
30
108
23
30
108
23
30
108
23
30
108
23
30
108
23
30
108
23
30
108
23
30
108
23
30
108
23
30
108
23
30
108
23
30
108
23
30
108
23
30
108
23
30
108
23
30
108
23
30
108
23
30
108
23
30
108
23
30
108
23
30
108
23
30
108
23
30
108
23
30
108
23
30
108
23
30
108
23
30
108
23
30
108
23
30
108
23
30
108
23
30
108
23
30
108
23
30
108
23
30
108
23
30
108
23
30
108
23
30
108
23
30
108
23
30
108
23
30
108
23
30
108
23
30
108
23
30
108
23
30
108
23
30
108
23
30
108
23
30
108
23
30
108
23
30
108
23
30
108
23
30
108
23
30
108
23
30
108
23
30
108
23
30
108
23
30
108
23
30
108
23
30
108
23
30
108
23
30
108
23
30
108
23
30
108
23
30
108
23
30
108
23
30
108
23
30
108
23
30
108
23
30
108
23
30
108
23
30
108
23
30
108
23
30
108
23
30
108
23
30
108
23
30
122
36
40
122
36
40
122
36
40
122
36
40
122
36
40
122
36
40
122
36
40
122
36
40
122
36
40
122
36
40
122
36
40
122
36
40
122
36
40
122
36
40
122
36
40
122
36
40
122
36
40
122
36
40
122
36
40
122
36
40
122
36
40
122
36
40
122
36
40
122
36
40
122
36
40
122
36
40
122
36
40
122
36
40
122
36
40
122
36
40
122
36
40
122
36
40
122
36
40
122
36
40
122
36
40
122
36
40
122
36
40
122
36
40
122
36
40
122
36
40
122
36
40
147
59
59
147
59
59
147
59
59
147
59
59
147
59
59
147
59
59
147
59
59
147
59
59
147
59
59
147
59
59
147
59
59
147
59
59
147
59
59
147
59
59
147
59
59
147
59
59
147
59
59
147
59
59
147
59
59
147
59
59
147
59
59
147
59
59
147
59
59
147
59
59
147
59
59
147
59
59
147
59
59
147
59
59
147
59
59
147
59
59
147
59
59
147
59
59
147
59
59
147
59
59
147
59
59
147
59
59
147
59
59
147
59
59
147
59
59
147
59
59
147
59
59
147
59
59
147
59
59
147
59
59
147
59
59
147
59
59
147
59
59
147
59
59
147
59
59
147
59
59
147
59
59
147
59
59
147
59
59
147
59
59
147
59
59
147
59
59
147
59
59
147
59
59
147
59
59
147
59
59
147
59
59
147
59
59
147
59
59
147
59
59
147
59
59
147
59
59
147
59
59
147
59
59
147
59
59
147
59
59
147
59
59
147
59
59
147
59
59
147
59
59
147
59
59
147
59
59
147
59
59
147
59
59
147
59
59
147
59
59
147
59
59
147
59
59
147
59
59
147
59
59
147
59
59
147
59
59
147
59
59
147
59
59
147
59
59
147
59
59
147
59
59
147
59
59
147
59
59
147
59
59
147
59
59
147
59
59
147
59
59
147
59
59
147
59
59
147
59
59
147
59
59
147
59
59
147
59
59
147
59
59
147
59
59
147
59
59
147
59
59
147
59
59
108
23
30
108
23
30
108
23
30
108
23
30
108
23
30
108
23
30
108
23
30
108
23
30
108
23
30
108
23
30
108
23
30
108
23
30
108
23
30
108
23
30
108
23
30
108
23
30
108
23
30
108
23
30
108
23
30
108
23
30
108
23
30
108
23
30
108
23
30
108
23
30
108
23
30
108
23
30
108
23
30
108
23
30
108
23
30
108
23
30
108
23
30
108
23
30
108
23
30
108
23
30
108
23
30
108
23
30
108
23
30
108
23
30
108
23
30
108
23
30
108
23
30
108
23
30
108
23
30
108
23
30
108
23
30
108
23
30
108
23
30
108
23
30
108
23
30
108
23
30
108
23
30
108
23
30
108
23
30
108
23
30
108
23
30
108
23
30
108
23
30
108
23
30
108
23
30
108
23
30
108
23
30
108
23
30
108
23
30
108
23
30
108
23
30
108
23
30
108
23
30
108
23
30
108
23
30
108
23
30
108
23
30
108
23
30
108
23
30
108
23
30
108
23
30
108
23
30
108
23
30
108
23
30
108
23
30
108
23
30
108
23
30
108
23
30
108
23
30
108
23
30
108
23
30
108
23
30
108
23
30
108
23
30
108
23
30
108
23
30
108
23
30
108
23
30
108
23
30
108
23
30
108
23
30
108
23
30
108
23
30
108
23
30
108
23
30
108
23
30
108
23
30
108
23
30
108
23
30
108
23
30
108
23
30
108
23
30
108
23
30
122
36
40
122
36
40
122
36
40
122
36
40
122
36
40
122
36
40
122
36
40
122
36
40
122
36
40
122
36
40
122
36
40
122
36
40
122
36
40
122
36
40
122
36
40
122
36
40
122
36
40
122
36
40
122
36
40
122
36
40
122
36
40
122
36
40
122
36
40
122
36
40
122
36
40
122
36
40
122
36
40
122
36
40
122
36
40
122
36
40
122
36
40
122
36
40
122
36
40
122
36
40
122
36
40
122
36
40
122
36
40
122
36
40
122
36
40
122
36
40
122
36
40
147
59
59
147
59
59
147
59
59
147
59
59
147
59
59
147
59
59
147
59
59
147
59
59
147
59
59
147
59
59
147
59
59
147
59
59
147
59
59
147
59
59
147
59
59
147
59
59
147
59
59
147
59
59
147
59
59
147
59
59
147
59
59
147
59
59
147
59
59
147
59
59
147
59
59
147
59
59
147
59
59
147
59
59
147
59
59
147
59
59
147
59
59
147
59
59
147
59
59
147
59
59
147
59
59
147
59
59
147
59
59
147
59
59
147
59
59
147
59
59
147
59
59
147
59
59
147
59
59
147
59
59
147
59
59
147
59
59
147
59
59
147
59
59
147
59
59
147
59
59
147
59
59
147
59
59
147
59
59
147
59
59
147
59
59
147
59
59
147
59
59
147
59
59
147
59
59
147
59
59
147
59
59
147
59
59
147
59
59
147
59
59
147
59
59
147
59
59
147
59
59
147
59
59
147
59
59
147
59
59
147
59
59
147
59
59
147
59
59
147
59
59
147
59
59
147
59
59
147
59
59
147
59
59
147
59
59
147
59
59
147
59
59
147
59
59
147
59
59
147
59
59
147
59
59
147
59
59
147
59
59
147
59
59
147
59
59
147
59
59
147
59
59
147
59
59
147
59
59
147
59
59
147
59
59
147
59
59
147
59
59
147
59
59
147
59
59
147
59
59
147
59
59
147
59
59
147
59
59
147
59
59
147
59
59
147
59
59
147
59
59
147
59
59
108
23
30
108
23
30
108
23
30
108
23
30
108
23
30
108
23
30
108
23
30
108
23
30
108
23
30
108
23
30
108
23
30
108
23
30
108
23
30
108
23
30
108
23
30
108
23
30
108
23
30
108
23
30
108
23
30
108
23
30
108
23
30
108
23
30
108
23
30
108
23
30
108
23
30
108
23
30
108
23
30
108
23
30
108
23
30
108
23
30
108
23
30
108
23
30
108
23
30
108
23
30
108
23
30
108
23
30
108
23
30
108
23
30
108
23
30
108
23
30
108
23
30
108
23
30
108
23
30
108
23
30
108
23
30
108
23
30
108
23
30
108
23
30
108
23
30
108
23
30
108
23
30
108
23
30
108
23
30
108
23
30
108
23
30
108
23
30
108
23
30
108
23
30
108
23
30
108
23
30
108
23
30
108
23
30
108
23
30
108
23
30
108
23
30
108
23
30
108
23
30
108
23
30
108
23
30
108
23
30
108
23
30
108
23
30
108
23
30
108
23
30
108
23
30
108
23
30
108
23
30
108
23
30
108
23
30
108
23
30
108
23
30
108
23
30
108
23
30
108
23
30
108
23
30
108
23
30
108
23
30
108
23
30
108
23
30
108
23
30
108
23
30
108
23
30
108
23
30
108
23
30
108
23
30
108
23
30
108
23
30
108
23
30
108
23
30
108
23
30
108
23
30
108
23
30
108
23
30
108
23
30
108
23
30
108
23
30
108
23
30
122
36
40
122
36
40
122
36
40
122
36
40
122
36
40
122
36
40
122
36
40
122
36
40
122
36
40
122
36
40
122
36
40
122
36
40
122
36
40
122
36
40
122
36
40
122
36
40
122
36
40
122
36
40
122
36
40
122
36
40
122
36
40
122
36
40
122
36
40
122
36
40
122
36
40
122
36
40
122
36
40
122
36
40
122
36
40
122
36
40
122
36
40
122
36
40
122
36
40
122
36
40
122
36
40
122
36
40
122
36
40
122
36
40
122
36
40
122
36
40
122
36
40
147
59
59
147
59
59
147
59
59
147
59
59
147
59
59
147
59
59
147
59
59
147
59
59
147
59
59
147
59
59
147
59
59
147
59
59
147
59
59
147
59
59
147
59
59
147
59
59
147
59
59
147
59
59
147
59
59
147
59
59
147
59
59
147
59
59
147
59
59
147
59
59
147
59
59
147
59
59
147
59
59
147
59
59
147
59
59
147
59
59
147
59
59
147
59
59
147
59
59
147
59
59
147
59
59
147
59
59
147
59
59
147
59
59
147
59
59
147
59
59
147
59
59
147
59
59
147
59
59
147
59
59
147
59
59
147
59
59
147
59
59
147
59
59
147
59
59
147
59
59
147
59
59
147
59
59
147
59
59
147
59
59
147
59
59
147
59
59
147
59
59
147
59
59
147
59
59
147
59
59
147
59
59
147
59
59
147
59
59
147
59
59
147
59
59
147
59
59
147
59
59
147
59
59
147
59
59
147
59
59
147
59
59
147
59
59
147
59
59
147
59
59
147
59
59
147
59
59
147
59
59
147
59
59
147
59
59
147
59
59
147
59
59
147
59
59
147
59
59
147
59
59
147
59
59
147
59
59
147
59
59
147
59
59
147
59
59
147
59
59
147
59
59
147
59
59
147
59
59
147
59
59
147
59
59
147
59
59
147
59
59
147
59
59
147
59
59
147
59
59
147
59
59
147
59
59
147
59
59
147
59
59
147
59
59
147
59
59
147
59
59
147
59
59
108
23
30
108
23
30
108
23
30
108
23
30
108
23
30
108
23
30
108
23
30
108
23
30
108
23
30
108
23
30
108
23
30
108
23
30
108
23
30
108
23
30
108
23
30
108
23
30
108
23
30
108
23
30
108
23
30
108
23
30
108
23
30
108
23
30
108
23
30
108
23
30
108
23
30
108
23
30
108
23
30
108
23
30
108
23
30
108
23
30
108
23
30
108
23
30
108
23
30
108
23
30
108
23
30
108
23
30
108
23
30
108
23
30
108
23
30
108
23
30
108
23
30
108
23
30
108
23
30
108
23
30
108
23
30
108
23
30
108
23
30
108
23
30
108
23
30
108
23
30
108
23
30
108
23
30
108
23
30
108
23
30
108
23
30
108
23
30
108
23
30
108
23
30
108
23
30
108
23
30
108
23
30
108
23
30
108
23
30
108
23
30
108
23
30
108
23
30
108
23
30
108
23
30
108
23
30
108
23
30
108
23
30
108
23
30
108
23
30
108
23
30
108
23
30
108
23
30
108
23
30
108
23
30
108
23
30
108
23
30
108
23
30
108
23
30
108
23
30
108
23
30
108
23
30
108
23
30
108
23
30
108
23
30
108
23
30
108
23
30
108
23
30
108
23
30
108
23
30
108
23
30
108
23
30
108
23
30
108
23
30
108
23
30
108
23
30
108
23
30
108
23
30
108
23
30
108
23
30
108
23
30
108
23
30
108
23
30
108
23
30
122
36
40
122
36
40
122
36
40
122
36
40
122
36
40
122
36
40
122
36
40
122
36
40
122
36
40
122
36
40
122
36
40
122
36
40
122
36
40
122
36
40
122
36
40
122
36
40
122
36
40
122
36
40
122
36
40
122
36
40
122
36
40
122
36
40
122
36
40
122
36
40
122
36
40
122
36
40
122
36
40
122
36
40
122
36
40
122
36
40
122
36
40
122
36
40
122
36
40
122
36
40
122
36
40
122
36
40
122
36
40
122
36
40
122
36
40
122
36
40
122
36
40
147
59
59
147
59
59
147
59
59
147
59
59
147
59
59
147
59
59
147
59
59
147
59
59
147
59
59
147
59
59
147
59
59
147
59
59
147
59
59
147
59
59
147
59
59
147
59
59
147
59
59
147
59
59
147
59
59
147
59
59
147
59
59
147
59
59
147
59
59
147
59
59
147
59
59
147
59
59
147
59
59
147
59
59
147
59
59
147
59
59
147
59
59
147
59
59
147
59
59
147
59
59
147
59
59
147
59
59
147
59
59
147
59
59
147
59
59
147
59
59
147
59
59
147
59
59
147
59
59
147
59
59
147
59
59
147
59
59
147
59
59
147
59
59
147
59
59
147
59
59
147
59
59
147
59
59
147
59
59
147
59
59
147
59
59
147
59
59
147
59
59
147
59
59
147
59
59
147
59
59
147
59
59
147
59
59
147
59
59
147
59
59
147
59
59
147
59
59
147
59
59
147
59
59
147
59
59
147
59
59
147
59
59
147
59
59
147
59
59
147
59
59
147
59
59
147
59
59
147
59
59
147
59
59
147
59
59
147
59
59
147
59
59
147
59
59
147
59
59
147
59
59
147
59
59
147
59
59
147
59
59
147
59
59
147
59
59
147
59
59
147
59
59
147
59
59
147
59
59
147
59
59
147
59
59
147
59
59
147
59
59
147
59
59
147
59
59
147
59
59
147
59
59
147
59
59
147
59
59
147
59
59
147
59
59
147
59
59
147
59
59
147
59
59
108
23
30
108
23
30
108
23
30
108
23
30
108
23
30
108
23
30
108
23
30
108
23
30
108
23
30
108
23
30
108
23
30
108
23
30
108
23
30
108
23
30
108
23
30
108
23
30
108
23
30
108
23
30
108
23
30
108
23
30
108
23
30
108
23
30
108
23
30
108
23
30
108
23
30
108
23
30
108
23
30
108
23
30
108
23
30
108
23
30
108
23
30
108
23
30
108
23
30
108
23
30
108
23
30
108
23
30
108
23
30
108
23
30
108
23
30
108
23
30
108
23
30
108
23
30
108
23
30
108
23
30
108
23
30
108
23
30
108
23
30
108
23
30
108
23
30
108
23
30
108
23
30
108
23
30
108
23
30
108
23
30
108
23
30
108
23
30
108
23
30
108
23
30
108
23
30
108
23
30
108
23
30
108
23
30
108
23
30
108
23
30
108
23
30
108
23
30
108
23
30
108
23
30
108
23
30
108
23
30
108
23
30
108
23
30
108
23
30
108
23
30
108
23
30
108
23
30
108
23
30
108
23
30
108
23
30
108
23
30
108
23
30
108
23
30
108
23
30
108
23
30
108
23
30
108
23
30
108
23
30
108
23
30
108
23
30
108
23
30
108
23
30
108
23
30
108
23
30
108
23
30
108
23
30
108
23
30
108
23
30
108
23
30
108
23
30
108
23
30
108
23
30
108
23
30
108
23
30
108
23
30
108
23
30
108
23
30
108
23
30
122
36
40
122
36
40
122
36
40
122
36
40
122
36
40
122
36
40
122
36
40
122
36
40
122
36
40
122
36
40
122
36
40
122
36
40
122
36
40
122
36
40
122
36
40
122
36
40
122
36
40
122
36
40
122
36
40
122
36
40
122
36
40
122
36
40
122
36
40
122
36
40
122
36
40
122
36
40
122
36
40
122
36
40
122
36
40
122
36
40
122
36
40
122
36
40
122
36
40
122
36
40
122
36
40
122
36
40
122
36
40
122
36
40
122
36
40
122
36
40
122
36
40
147
59
59
147
59
59
147
59
59
147
59
59
147
59
59
147
59
59
147
59
59
147
59
59
147
59
59
147
59
59
147
59
59
147
59
59
147
59
59
147
59
59
147
59
59
147
59
59
147
59
59
147
59
59
147
59
59
147
59
59
147
59
59
147
59
59
147
59
59
147
59
59
147
59
59
147
59
59
147
59
59
147
59
59
147
59
59
147
59
59
147
59
59
147
59
59
147
59
59
147
59
59
147
59
59
147
59
59
147
59
59
147
59
59
147
59
59
147
59
59
147
59
59
147
59
59
147
59
59
147
59
59
147
59
59
147
59
59
147
59
59
147
59
59
147
59
59
147
59
59
147
59
59
147
59
59
147
59
59
147
59
59
147
59
59
147
59
59
147
59
59
147
59
59
147
59
59
147
59
59
147
59
59
147
59
59
147
59
59
147
59
59
147
59
59
147
59
59
147
59
59
147
59
59
147
59
59
147
59
59
147
59
59
147
59
59
147
59
59
147
59
59
147
59
59
147
59
59
147
59
59
147
59
59
147
59
59
147
59
59
147
59
59
147
59
59
147
59
59
147
59
59
147
59
59
147
59
59
147
59
59
147
59
59
147
59
59
147
59
59
147
59
59
147
59
59
147
59
59
147
59
59
147
59
59
147
59
59
147
59
59
147
59
59
147
59
59
147
59
59
147
59
59
147
59
59
147
59
59
147
59
59
147
59
59
147
59
59
147
59
59
147
59
59
108
23
30
108
23
30
108
23
30
108
23
30
108
23
30
108
23
30
108
23
30
108
23
30
108
23
30
108
23
30
108
23
30
108
23
30
108
23
30
108
23
30
108
23
30
108
23
30
108
23
30
108
23
30
108
23
30
108
23
30
108
23
30
108
23
30
108
23
30
108
23
30
108
23
30
108
23
30
108
23
30
108
23
30
108
23
30
108
23
30
108
23
30
108
23
30
108
23
30
108
23
30
108
23
30
108
23
30
108
23
30
108
23
30
108
23
30
108
23
30
108
23
30
108
23
30
108
23
30
108
23
30
108
23
30
108
23
30
108
23
30
108
23
30
108
23
30
108
23
30
108
23
30
108
23
30
108
23
30
108
23
30
108
23
30
108
23
30
108
23
30
108
23
30
108
23
30
108
23
30
108
23
30
108
23
30
108
23
30
108
23
30
108
23
30
108
23
30
108
23
30
108
23
30
108
23
30
108
23
30
108
23
30
108
23
30
108
23
30
108
23
30
108
23
30
108
23
30
108
23
30
108
23
30
108
23
30
108
23
30
108
23
30
108
23
30
108
23
30
108
23
30
108
23
30
108
23
30
108
23
30
108
23
30
108
23
30
108
23
30
108
23
30
108
23
30
108
23
30
108
23
30
108
23
30
108
23
30
108
23
30
108
23
30
108
23
30
108
23
30
108
23
30
108
23
30
108
23
30
108
23
30
108
23
30
108
23
30
108
23
30
122
36
40
122
36
40
122
36
40
122
36
40
122
36
40
122
36
40
122
36
40
122
36
40
122
36
40
122
36
40
122
36
40
122
36
40
122
36
40
122
36
40
122
36
40
122
36
40
122
36
40
122
36
40
122
36
40
122
36
40
122
36
40
122
36
40
122
36
40
122
36
40
122
36
40
122
36
40
122
36
40
122
36
40
122
36
40
122
36
40
122
36
40
122
36
40
122
36
40
122
36
40
122
36
40
122
36
40
122
36
40
122
36
40
122
36
40
122
36
40
122
36
40
147
59
59
147
59
59
147
59
59
147
59
59
147
59
59
147
59
59
147
59
59
147
59
59
147
59
59
147
59
59
147
59
59
147
59
59
147
59
59
147
59
59
147
59
59
147
59
59
147
59
59
147
59
59
147
59
59
147
59
59
147
59
59
147
59
59
147
59
59
147
59
59
147
59
59
147
59
59
147
59
59
147
59
59
147
59
59
147
59
59
147
59
59
147
59
59
147
59
59
147
59
59
147
59
59
147
59
59
147
59
59
147
59
59
147
59
59
147
59
59
147
59
59
147
59
59
147
59
59
147
59
59
147
59
59
147
59
59
147
59
59
147
59
59
147
59
59
147
59
59
147
59
59
147
59
59
147
59
59
147
59
59
147
59
59
147
59
59
147
59
59
147
59
59
147
59
59
147
59
59
147
59
59
147
59
59
147
59
59
147
59
59
147
59
59
147
59
59
147
59
59
147
59
59
147
59
59
147
59
59
147
59
59
147
59
59
147
59
59
147
59
59
147
59
59
147
59
59
147
59
59
147
59
59
147
59
59
147
59
59
147
59
59
147
59
59
147
59
59
147
59
59
147
59
59
147
59
59
147
59
59
147
59
59
147
59
59
147
59
59
147
59
59
147
59
59
147
59
59
147
59
59
147
59
59
147
59
59
147
59
59
147
59
59
147
59
59
147
59
59
147
59
59
147
59
59
147
59
59
147
59
59
147
59
59
147
59
59
147
59
59
147
59
59
108
23
30
108
23
30
108
23
30
108
23
30
108
23
30
108
23
30
108
23
30
108
23
30
108
23
30
108
23
30
108
23
30
108
23
30
108
23
30
108
23
30
108
23
30
108
23
30
108
23
30
108
23
30
108
23
30
108
23
30
108
23
30
108
23
30
108
23
30
108
23
30
108
23
30
108
23
30
108
23
30
108
23
30
108
23
30
108
23
30
108
23
30
108
23
30
108
23
30
108
23
30
108
23
30
108
23
30
108
23
30
108
23
30
108
23
30
108
23
30
108
23
30
108
23
30
108
23
30
108
23
30
108
23
30
108
23
30
108
23
30
108
23
30
108
23
30
108
23
30
108
23
30
108
23
30
108
23
30
108
23
30
108
23
30
108
23
30
108
23
30
108
23
30
108
23
30
108
23
30
108
23
30
108
23
30
108
23
30
108
23
30
108
23
30
108
23
30
108
23
30
108
23
30
108
23
30
108
23
30
108
23
30
108
23
30
108
23
30
108
23
30
108
23
30
108
23
30
108
23
30
108
23
30
108
23
30
108
23
30
108
23
30
108
23
30
108
23
30
108
23
30
108
23
30
108
23
30
108
23
30
108
23
30
108
23
30
108
23
30
108
23
30
108
23
30
108
23
30
108
23
30
108
23
30
108
23
30
108
23
30
108
23
30
108
23
30
108
23
30
108
23
30
108
23
30
108
23
30
108
23
30
108
23
30
108
23
30
108
23
30
122
36
40
122
36
40
122
36
40
122
36
40
122
36
40
122
36
40
122
36
40
122
36
40
122
36
40
122
36
40
122
36
40
122
36
40
122
36
40
122
36
40
122
36
40
122
36
40
122
36
40
122
36
40
122
36
40
122
36
40
122
36
40
122
36
40
122
36
40
122
36
40
122
36
40
122
36
40
122
36
40
122
36
40
122
36
40
122
36
40
122
36
40
122
36
40
122
36
40
122
36
40
122
36
40
122
36
40
122
36
40
122
36
40
122
36
40
122
36
40
122
36
40
147
59
59
147
59
59
147
59
59
147
59
59
147
59
59
147
59
59
147
59
59
147
59
59
147
59
59
147
59
59
147
59
59
147
59
59
147
59
59
147
59
59
147
59
59
147
59
59
147
59
59
147
59
59
147
59
59
147
59
59
147
59
59
147
59
59
147
59
59
147
59
59
147
59
59
147
59
59
147
59
59
147
59
59
147
59
59
147
59
59
147
59
59
147
59
59
147
59
59
147
59
59
147
59
59
147
59
59
147
59
59
147
59
59
147
59
59
147
59
59
147
59
59
147
59
59
147
59
59
147
59
59
147
59
59
147
59
59
147
59
59
147
59
59
147
59
59
147
59
59
147
59
59
147
59
59
147
59
59
147
59
59
147
59
59
147
59
59
147
59
59
147
59
59
147
59
59
147
59
59
147
59
59
147
59
59
147
59
59
147
59
59
147
59
59
147
59
59
147
59
59
147
59
59
147
59
59
147
59
59
147
59
59
147
59
59
147
59
59
147
59
59
147
59
59
147
59
59
147
59
59
147
59
59
147
59
59
147
59
59
147
59
59
147
59
59
147
59
59
147
59
59
147
59
59
147
59
59
147
59
59
147
59
59
147
59
59
147
59
59
147
59
59
147
59
59
147
59
59
147
59
59
147
59
59
147
59
59
147
59
59
147
59
59
147
59
59
147
59
59
147
59
59
147
59
59
147
59
59
147
59
59
147
59
59
147
59
59
147
59
59
147
59
59
108
23
30
108
23
30
108
23
30
108
23
30
108
23
30
108
23
30
108
23
30
108
23
30
108
23
30
108
23
30
108
23
30
108
23
30
108
23
30
108
23
30
108
23
30
108
23
30
108
23
30
108
23
30
108
23
30
108
23
30
108
23
30
108
23
30
108
23
30
108
23
30
108
23
30
108
23
30
108
23
30
108
23
30
108
23
30
108
23
30
108
23
30
108
23
30
108
23
30
108
23
30
108
23
30
108
23
30
108
23
30
108
23
30
108
23
30
108
23
30
108
23
30
108
23
30
108
23
30
108
23
30
108
23
30
108
23
30
108
23
30
108
23
30
108
23
30
108
23
30
108
23
30
108
23
30
108
23
30
108
23
30
108
23
30
108
23
30
108
23
30
108
23
30
108
23
30
108
23
30
108
23
30
108
23
30
108
23
30
108
23
30
108
23
30
108
23
30
108
23
30
108
23
30
108
23
30
108
23
30
108
23
30
108
23
30
108
23
30
108
23
30
108
23
30
108
23
30
108
23
30
108
23
30
108
23
30
108
23
30
108
23
30
108
23
30
108
23
30
108
23
30
108
23
30
108
23
30
108
23
30
108
23
30
108
23
30
108
23
30
108
23
30
108
23
30
108
23
30
108
23
30
108
23
30
108
23
30
108
23
30
108
23
30
108
23
30
108
23
30
108
23
30
108
23
30
108
23
30
108
23
30
108
23
30
108
23
30
108
23
30
122
36
40
122
36
40
122
36
40
122
36
40
122
36
40
122
36
40
122
36
40
122
36
40
122
36
40
122
36
40
122
36
40
122
36
40
122
36
40
122
36
40
122
36
40
122
36
40
122
36
40
122
36
40
122
36
40
122
36
40
122
36
40
122
36
40
122
36
40
122
36
40
122
36
40
122
36
40
122
36
40
122
36
40
122
36
40
122
36
40
122
36
40
122
36
40
122
36
40
122
36
40
122
36
40
122
36
40
122
36
40
122
36
40
122
36
40
122
36
40
122
36
40
147
59
59
147
59
59
147
59
59
147
59
59
147
59
59
147
59
59
147
59
59
147
59
59
147
59
59
147
59
59
147
59
59
147
59
59
147
59
59
147
59
59
147
59
59
147
59
59
147
59
59
147
59
59
147
59
59
147
59
59
147
59
59
147
59
59
147
59
59
147
59
59
147
59
59
147
59
59
147
59
59
147
59
59
147
59
59
147
59
59
147
59
59
147
59
59
147
59
59
147
59
59
147
59
59
147
59
59
147
59
59
147
59
59
147
59
59
147
59
59
147
59
59
147
59
59
147
59
59
147
59
59
147
59
59
147
59
59
147
59
59
147
59
59
147
59
59
147
59
59
147
59
59
147
59
59
147
59
59
147
59
59
147
59
59
147
59
59
147
59
59
147
59
59
147
59
59
147
59
59
147
59
59
147
59
59
147
59
59
147
59
59
147
59
59
147
59
59
147
59
59
147
59
59
147
59
59
147
59
59
147
59
59
147
59
59
147
59
59
147
59
59
147
59
59
147
59
59
147
59
59
147
59
59
147
59
59
147
59
59
147
59
59
147
59
59
147
59
59
147
59
59
147
59
59
147
59
59
147
59
59
147
59
59
147
59
59
147
59
59
147
59
59
147
59
59
147
59
59
147
59
59
147
59
59
147
59
59
147
59
59
147
59
59
147
59
59
147
59
59
147
59
59
147
59
59
147
59
59
147
59
59
147
59
59
147
59
59
147
59
59
147
59
59
108
23
30
108
23
30
108
23
30
108
23
30
108
23
30
108
23
30
108
23
30
108
23
30
108
23
30
108
23
30
108
23
30
108
23
30
108
23
30
108
23
30
108
23
30
108
23
30
108
23
30
108
23
30
108
23
30
108
23
30
108
23
30
108
23
30
108
23
30
108
23
30
108
23
30
108
23
30
108
23
30
108
23
30
108
23
30
108
23
30
108
23
30
108
23
30
108
23
30
108
23
30
108
23
30
108
23
30
108
23
30
108
23
30
108
23
30
108
23
30
108
23
30
108
23
30
108
23
30
108
23
30
108
23
30
108
23
30
108
23
30
108
23
30
108
23
30
108
23
30
108
23
30
108
23
30
108
23
30
108
23
30
108
23
30
108
23
30
108
23
30
108
23
30
108
23
30
108
23
30
108
23
30
108
23
30
108
23
30
108
23
30
108
23
30
108
23
30
108
23
30
108
23
30
108
23
30
108
23
30
108
23
30
108
23
30
108
23
30
108
23
30
108
23
30
108
23
30
108
23
30
108
23
30
108
23
30
108
23
30
108
23
30
108
23
30
108
23
30
108
23
30
108
23
30
108
23
30
108
23
30
108
23
30
108
23
30
108
23
30
108
23
30
108
23
30
108
23
30
108
23
30
108
23
30
108
23
30
108
23
30
108
23
30
108
23
30
108
23
30
108
23
30
108
23
30
108
23
30
108
23
30
108
23
30
108
23
30
108
23
30
122
36
40
122
36
40
122
36
40
122
36
40
122
36
40
122
36
40
122
36
40
122
36
40
122
36
40
122
36
40
122
36
40
122
36
40
122
36
40
122
36
40
122
36
40
122
36
40
122
36
40
122
36
40
122
36
40
122
36
40
122
36
40
122
36
40
122
36
40
122
36
40
122
36
40
122
36
40
122
36
40
122
36
40
122
36
40
122
36
40
122
36
40
122
36
40
122
36
40
122
36
40
122
36
40
122
36
40
122
36
40
122
36
40
122
36
40
122
36
40
122
36
40
147
59
59
147
59
59
147
59
59
147
59
59
147
59
59
147
59
59
147
59
59
147
59
59
147
59
59
147
59
59
147
59
59
147
59
59
147
59
59
147
59
59
147
59
59
147
59
59
147
59
59
147
59
59
147
59
59
147
59
59
147
59
59
147
59
59
147
59
59
147
59
59
147
59
59
147
59
59
147
59
59
147
59
59
147
59
59
147
59
59
147
59
59
147
59
59
147
59
59
147
59
59
147
59
59
147
59
59
147
59
59
147
59
59
147
59
59
147
59
59
147
59
59
147
59
59
147
59
59
147
59
59
147
59
59
147
59
59
147
59
59
147
59
59
147
59
59
147
59
59
147
59
59
147
59
59
147
59
59
147
59
59
147
59
59
147
59
59
147
59
59
147
59
59
147
59
59
147
59
59
147
59
59
147
59
59
147
59
59
147
59
59
147
59
59
147
59
59
147
59
59
147
59
59
147
59
59
147
59
59
147
59
59
147
59
59
147
59
59
147
59
59
147
59
59
147
59
59
147
59
59
147
59
59
147
59
59
147
59
59
147
59
59
147
59
59
147
59
59
147
59
59
147
59
59
147
59
59
147
59
59
147
59
59
147
59
59
147
59
59
147
59
59
147
59
59
147
59
59
147
59
59
147
59
59
147
59
59
147
59
59
147
59
59
147
59
59
147
59
59
147
59
59
147
59
59
147
59
59
147
59
59
147
59
59
147
59
59
147
59
59
147
59
59
