P3 128 128
255
0
0
0
0
0
0
0
0
0
0
0
0
0
0
0
0
0
0
0
0
0
0
0
0
0
0
0
0
0
0
0
0
0
0
0
0
0
0
0
0
0
0
0
0
0
0
0
0
0
0
0
0
0
0
0
0
0
0
0
0
0
0
0
0
0
0
0
0
0
0
0
0
0
0
0
0
0
0
0
0
0
0
0
0
0
0
0
0
0
0
0
0
0
0
0
0
1
1
1
1
1
1
4
3
3
1
1
1
1
0
0
0
0
0
0
0
0
0
0
0
0
0
0
0
0
0
0
0
0
0
0
0
0
0
0
0
0
0
0
0
0
0
0
0
0
0
0
0
0
0
3
3
3
8
8
8
10
10
10
1
1
1
0
0
0
0
0
0
0
0
0
0
0
0
0
0
0
0
0
0
0
0
0
0
0
0
0
0
0
0
0
0
0
0
0
0
0
0
0
0
0
0
0
0
0
0
0
0
0
0
0
0
0
0
0
0
0
0
0
0
0
0
0
0
0
0
0
0
0
0
0
0
0
0
0
0
0
0
0
0
150
122
86
166
139
110
170
142
109
146
118
81
137
111
76
136
113
80
131
108
75
143
119
87
147
123
91
183
160
130
190
168
139
190
170
141
195
175
148
180
156
126
171
144
110
163
135
101
180
154
120
187
162
134
168
144
112
156
131
100
131
106
73
137
112
78
159
130
94
139
110
70
127
99
60
144
115
74
160
133
101
147
121
86
150
127
94
148
123
87
147
121
87
157
131
97
161
141
113
182
163
138
174
153
125
141
119
91
120
99
68
144
121
91
137
116
86
114
90
60
119
96
63
147
125
93
145
120
89
148
122
90
169
147
121
167
146
121
161
136
110
136
115
87
0
0
0
0
0
0
0
0
0
0
0
0
0
0
0
0
0
0
0
0
0
0
0
0
0
0
0
0
0
0
0
0
0
0
0
0
0
0
0
0
0
0
0
0
0
0
0
0
0
0
0
0
0
0
0
0
0
0
0
0
0
0
0
0
0
0
0
0
0
0
0
0
0
0
0
0
0
0
0
0
0
0
0
0
0
0
0
0
0
0
2
2
1
22
16
13
68
55
46
100
85
76
112
97
86
67
55
49
9
7
6
1
1
1
0
0
0
0
0
0
0
0
0
0
0
0
0
0
0
0
0
0
0
0
0
0
0
0
0
0
0
0
0
0
0
0
0
0
0
0
3
3
3
10
10
10
14
14
14
12
12
12
5
5
5
0
0
0
0
0
0
0
0
0
0
0
0
0
0
0
0
0
0
0
0
0
0
0
0
0
0
0
0
0
0
0
0
0
0
0
0
0
0
0
0
0
0
0
0
0
0
0
0
0
0
0
0
0
0
0
0
0
0
0
0
0
0
0
0
0
0
0
0
0
0
0
0
0
0
0
159
132
100
170
146
117
168
140
107
148
120
85
140
114
78
135
110
78
144
120
88
152
127
94
160
136
105
157
134
103
160
136
105
185
159
127
180
157
127
180
153
122
159
134
100
165
140
106
178
154
120
167
143
111
165
142
111
151
126
94
135
109
73
134
107
69
145
113
75
145
116
78
130
102
68
138
113
78
146
122
90
150
123
91
171
144
114
166
141
110
156
134
107
166
144
117
172
152
125
180
159
131
166
142
111
130
108
76
142
120
89
135
110
80
118
95
63
108
85
55
128
105
75
142
118
85
148
124
91
151
127
95
170
150
122
177
158
132
154
134
107
125
104
75
0
0
0
0
0
0
0
0
0
0
0
0
0
0
0
0
0
0
0
0
0
0
0
0
0
0
0
0
0
0
0
0
0
0
0
0
0
0
0
0
0
0
0
0
0
0
0
0
0
0
0
0
0
0
0
0
0
0
0
0
0
0
0
0
0
0
0
0
0
0
0
0
0
0
0
0
0
0
0
0
0
0
0
0
1
1
0
20
16
13
116
99
83
197
172
148
220
203
181
219
203
182
215
200
180
198
182
164
122
107
96
12
10
9
0
0
1
0
0
0
0
0
0
0
0
0
0
0
0
0
0
0
0
0
0
0
0
0
0
0
0
0
0
0
0
0
0
0
0
0
11
11
11
2
2
2
9
9
9
5
5
5
0
0
0
0
0
0
0
0
0
0
0
0
0
0
0
0
0
0
0
0
0
0
0
0
0
0
0
0
0
0
0
0
0
0
0
0
0
0
0
0
0
0
0
0
0
0
0
0
0
0
0
0
0
0
0
0
0
0
0
0
0
0
0
0
0
0
0
0
0
0
0
0
0
0
0
0
0
0
169
144
114
179
154
125
170
145
114
148
123
91
139
115
83
130
105
71
156
130
95
133
107
70
137
111
74
163
137
102
173
147
114
161
138
106
188
167
140
172
149
119
136
110
75
171
146
116
178
153
124
172
151
124
163
139
109
144
120
86
153
125
91
155
127
93
166
138
103
142
120
90
165
144
117
118
96
68
132
108
74
135
108
77
169
142
110
162
139
108
153
131
103
164
141
111
171
150
120
184
160
130
149
126
94
152
128
96
149
128
97
128
104
74
127
102
73
118
93
63
131
105
76
144
120
86
155
129
96
148
126
94
168
148
120
178
160
136
158
138
110
115
94
66
0
0
0
0
0
0
0
0
0
0
0
0
0
0
0
0
0
0
0
0
0
0
0
0
0
0
0
0
0
0
0
0
0
0
0
0
0
0
0
0
0
0
0
0
0
0
0
0
0
0
0
0
0
0
0
0
0
0
0
0
0
0
0
0
0
0
0
0
0
0
0
0
0
0
0
0
0
0
1
0
1
3
2
3
70
56
44
188
163
136
212
192
167
192
175
153
181
164
145
175
159
141
185
169
153
191
174
157
197
180
162
60
50
44
3
3
3
0
0
0
0
0
0
0
0
0
0
0
0
0
0
0
0
0
0
0
0
0
0
0
0
0
0
0
3
3
3
10
10
10
12
12
12
11
11
11
7
7
7
0
0
0
0
0
0
0
0
0
0
0
0
0
0
0
0
0
0
0
0
0
0
0
0
0
0
0
0
0
0
0
0
0
0
0
0
0
0
0
0
0
0
0
0
0
0
0
0
0
0
0
0
0
0
0
0
0
0
0
0
0
0
0
0
0
0
0
0
0
0
0
0
0
0
0
0
0
0
0
0
0
167
142
112
166
140
111
139
114
83
123
99
65
138
113
78
146
121
88
126
101
65
158
132
92
174
144
107
157
130
95
150
125
92
171
148
114
180
153
124
161
133
97
165
141
112
177
156
130
169
147
115
176
151
121
163
139
107
181
158
126
173
149
117
174
150
121
172
154
128
147
126
99
110
85
55
119
96
65
87
64
34
114
90
57
140
117
87
145
120
92
144
118
89
167
140
111
182
157
127
179
156
126
146
123
91
151
126
98
122
99
69
151
128
97
125
102
71
113
89
59
111
86
55
129
104
70
134
109
77
148
129
99
173
151
125
171
148
122
142
120
92
131
113
82
0
0
0
0
0
0
0
0
0
0
0
0
0
0
0
0
0
0
0
0
0
0
0
0
0
0
0
0
0
0
0
0
0
0
0
0
0
0
0
0
0
0
0
0
0
0
0
0
0
0
0
0
0
0
0
0
0
0
0
0
0
0
0
0
0
0
0
0
0
0
0
0
0
0
0
1
0
1
7
5
4
100
82
64
206
181
150
205
186
161
182
164
146
180
164
149
181
167
154
179
165
152
186
173
162
180
165
152
183
168
152
174
157
144
32
27
25
1
0
0
0
0
0
0
0
0
0
0
0
0
0
0
0
0
0
0
0
0
2
2
2
2
2
2
11
11
11
4
4
4
12
12
12
2
2
2
0
0
0
0
0
0
0
0
0
0
0
0
0
0
0
0
0
0
0
0
0
0
0
0
0
0
0
0
0
0
0
0
0
0
0
0
0
0
0
0
0
0
0
0
0
0
0
0
0
0
0
0
0
0
0
0
0
0
0
0
0
0
0
0
0
0
0
0
0
0
0
0
0
0
0
0
0
0
0
0
0
0
0
0
169
144
115
161
136
106
145
120
89
144
119
87
143
118
83
130
104
68
133
107
69
171
143
106
156
128
94
136
111
79
164
140
109
170
144
114
167
143
109
151
125
92
175
152
121
165
142
111
174
148
118
177
152
119
186
163
132
188
166
137
181
158
133
176
156
131
147
123
94
132
107
76
128
102
68
103
79
47
100
75
46
118
92
61
119
94
62
128
104
69
126
103
69
178
153
120
180
157
125
170
145
115
154
131
100
122
100
69
131
106
75
160
136
104
107
82
52
94
69
39
111
87
53
139
113
78
137
109
73
144
122
90
163
141
114
171
151
125
159
138
111
139
119
91
0
0
0
0
0
0
0
0
0
0
0
0
0
0
0
0
0
0
0
0
0
0
0
0
0
0
0
0
0
0
0
0
0
0
0
0
0
0
0
0
0
0
0
0
0
0
0
0
1
1
1
6
6
6
7
7
7
2
2
2
0
0
0
0
0
0
0
0
0
0
0
0
0
0
0
4
4
4
103
85
65
206
181
150
196
174
148
183
166
151
184
169
158
184
172
163
180
167
159
176
162
153
177
165
157
175
162
152
176
162
151
189
176
163
120
107
98
4
3
3
0
0
0
0
0
0
0
0
0
0
0
0
0
0
0
3
3
3
7
7
7
14
14
14
7
7
7
11
11
11
8
8
8
0
0
0
0
0
0
0
0
0
0
0
0
0
0
0
0
0
0
0
0
0
0
0
0
0
0
0
0
0
0
0
0
0
0
0
0
0
0
0
0
0
0
0
0
0
0
0
0
0
0
0
0
0
0
0
0
0
0
0
0
0
0
0
0
0
0
0
0
0
0
0
0
0
0
0
0
0
0
0
0
0
0
0
0
0
0
0
173
151
122
172
146
116
145
120
87
144
117
82
147
119
82
157
127
91
172
144
113
168
143
112
143
119
88
149
126
98
150
125
94
142
117
81
139
115
79
145
123
89
149
126
93
170
145
112
166
141
108
181
158
128
194
175
151
186
168
143
155
131
99
149
123
87
134
110
73
119
93
58
94
71
40
102
77
46
112
86
52
120
92
54
102
76
42
140
116
83
168
143
112
172
149
118
160
135
104
139
118
85
156
133
102
150
127
97
155
132
100
135
110
78
92
67
36
89
64
34
116
91
60
151
126
91
145
119
82
152
129
100
159
139
113
173
154
128
159
138
112
158
139
112
0
0
0
0
0
0
0
0
0
0
0
0
0
0
0
0
0
0
0
0
0
0
0
0
0
0
0
0
0
0
0
0
0
0
0
0
0
0
0
0
0
0
0
0
0
0
0
0
1
1
1
11
11
11
12
12
12
10
10
10
5
5
5
0
0
0
0
0
0
0
0
0
5
3
3
89
77
63
207
181
146
192
169
143
181
163
148
178
163
153
182
169
162
182
172
167
173
162
158
171
161
156
173
160
155
170
156
147
174
160
151
172
158
146
187
170
157
58
48
45
0
0
0
0
0
0
0
0
0
0
0
0
1
1
1
12
12
12
5
5
5
8
8
8
12
12
12
5
5
5
0
0
0
0
0
0
0
0
0
0
0
0
0
0
0
0
0
0
0
0
0
0
0
0
0
0
0
0
0
0
0
0
0
0
0
0
0
0
0
0
0
0
0
0
0
0
0
0
0
0
0
0
0
0
0
0
0
0
0
0
0
0
0
0
0
0
0
0
0
2
2
2
0
0
0
0
0
0
0
0
0
0
0
0
0
0
0
0
0
0
162
136
101
163
138
105
148
122
89
168
141
110
167
140
108
149
120
87
134
109
75
120
95
62
127
102
68
112
85
50
111
84
49
134
106
71
159
130
98
159
132
98
158
133
100
158
133
102
172
149
119
183
163
137
156
135
105
133
111
77
126
102
68
154
129
96
141
116
75
105
79
50
105
81
51
112
85
53
130
102
67
122
94
56
125
99
64
169
140
109
150
124
90
148
123
89
152
129
97
142
119
86
183
159
133
154
130
100
135
113
80
98
74
42
85
59
32
101
77
43
128
103
72
145
120
87
144
121
92
154
134
109
146
124
97
168
148
120
169
151
128
172
154
131
0
0
0
0
0
0
0
0
0
0
0
0
0
0
0
0
0
0
0
0
0
0
0
0
0
0
0
0
0
0
0
0
0
0
0
0
0
0
0
0
0
0
0
0
0
0
0
0
8
8
8
5
5
5
10
10
10
8
8
8
2
2
2
0
0
0
0
0
0
2
2
1
88
76
62
200
176
146
193
172
144
177
158
141
181
165
155
187
174
166
187
177
172
181
171
169
182
174
171
181
174
171
181
172
169
177
165
159
170
157
150
174
160
150
185
169
154
142
127
115
8
6
6
0
0
0
0
0
0
0
0
0
1
1
1
10
10
10
9
9
9
12
12
12
3
3
3
0
0
0
0
0
0
0
0
0
0
0
0
0
0
0
0
0
0
0
0
0
0
0
0
0
0
0
0
0
0
0
0
0
0
0
0
0
0
0
0
0
0
0
0
0
0
0
0
0
0
0
0
0
0
0
0
0
0
0
0
0
0
0
0
0
0
4
4
4
9
9
9
9
9
9
2
2
2
0
0
0
0
0
0
0
0
0
0
0
0
0
0
0
140
114
77
134
107
73
145
117
81
165
138
105
166
139
109
139
112
73
132
108
76
137
112
81
130
101
61
134
104
68
144
116
81
159
131
98
165
137
104
164
136
103
171
146
114
181
158
131
179
158
132
153
128
95
140
113
80
136
113
80
168
142
115
166
139
109
149
122
86
123
98
67
134
110
80
102
77
44
117
92
57
110
85
51
138
111
78
152
123
90
153
126
93
147
122
89
166
142
112
176
152
125
185
163
135
141
118
86
130
107
78
84
62
33
119
96
67
137
113
80
134
110
77
150
129
98
153
131
106
131
111
82
142
121
90
168
148
120
170
152
130
159
142
120
0
0
0
0
0
0
0
0
0
0
0
0
0
0
0
0
0
0
0
0
0
0
0
0
0
0
0
0
0
0
0
0
0
0
0
0
0
0
0
0
0
0
1
1
1
5
5
5
11
11
11
7
7
7
8
8
8
2
2
2
0
0
0
0
0
0
0
0
0
61
53
45
187
165
135
186
162
134
171
149
130
183
168
156
190
178
169
184
175
168
184
175
172
183
173
171
183
177
174
178
172
169
173
165
162
166
157
153
168
155
148
166
148
139
177
162
151
190
176
165
38
33
30
0
0
0
0
0
0
2
2
2
4
4
4
1
1
1
5
5
5
8
8
8
0
0
0
0
0
0
0
0
0
0
0
0
0
0
0
0
0
0
0
0
0
0
0
0
0
0
0
0
0
0
0
0
0
0
0
0
0
0
0
0
0
0
0
0
0
0
0
0
0
0
0
0
0
0
0
0
0
0
0
0
0
0
0
0
0
0
0
0
0
5
5
5
10
10
10
13
13
13
10
10
10
4
4
4
0
0
0
0
0
0
0
0
0
0
0
0
132
106
69
130
104
70
165
138
101
175
148
116
164
138
103
145
118
86
151
127
94
142
118
83
145
120
85
165
141
110
159
135
103
145
119
86
154
129
94
159
135
101
160
135
103
168
144
112
176
148
119
187
163
135
181
158
129
193
168
138
180
157
126
150
128
98
136
113
86
100
79
52
88
68
40
101
77
47
116
91
56
126
101
68
140
114
75
154
125
92
162
134
106
148
123
88
161
138
107
166
143
115
150
127
97
120
98
67
100
79
50
108
88
61
155
130
103
120
98
68
114
95
73
138
117
90
113
90
59
137
113
79
146
125
96
164
144
116
176
161
137
103
86
61
0
0
0
0
0
0
0
0
0
0
0
0
0
0
0
0
0
0
0
0
0
0
0
0
0
0
0
0
0
0
0
0
0
0
0
0
0
0
0
1
1
1
7
7
7
8
8
8
12
12
12
7
7
7
2
2
2
0
0
0
0
0
0
0
0
0
27
23
19
179
159
133
184
159
131
165
141
122
179
161
148
191
177
168
186
174
167
186
177
173
188
179
176
185
176
173
181
173
171
175
169
167
169
163
160
166
158
154
162
148
143
161
142
136
170
155
148
193
179
169
79
71
65
0
0
0
1
1
1
11
11
11
12
12
12
2
2
2
1
1
1
0
0
0
0
0
0
0
0
0
0
0
0
0
0
0
0
0
0
0
0
0
0
0
0
0
0
0
0
0
0
0
0
0
0
0
0
0
0
0
0
0
0
0
0
0
0
0
0
0
0
0
0
0
0
0
0
0
0
0
0
0
0
0
0
0
0
0
0
0
1
1
1
10
10
10
3
3
3
9
9
9
5
5
5
0
0
0
0
0
0
0
0
0
0
0
0
0
0
0
131
103
65
169
139
105
173
148
114
177
154
123
168
144
112
169
143
116
166
140
113
148
123
93
113
85
52
132
106
74
139
112
79
160
133
96
168
138
101
154
124
87
158
133
99
181
158
126
186
163
133
177
150
117
164
136
101
154
128
94
145
122
90
139
116
86
129
104
75
104
79
49
116
89
57
102
79
47
104
80
51
120
93
61
138
107
72
164
136
104
165
139
107
172
147
116
164
138
109
143
120
86
161
138
107
157
134
102
156
133
102
167
144
114
138
114
80
125
103
73
123
102
75
89
68
39
126
103
73
148
122
90
155
134
102
184
165
141
163
147
122
108
89
64
0
0
0
0
0
0
0
0
0
0
0
0
0
0
0
0
0
0
0
0
0
0
0
0
0
0
0
0
0
0
0
0
0
1
1
1
4
4
4
12
12
12
8
8
8
9
9
9
11
11
11
0
0
0
0
0
0
0
0
0
0
0
0
5
4
4
144
127
107
194
172
143
171
147
126
171
151
137
185
169
158
195
184
175
193
184
177
194
184
179
193
184
182
187
178
176
182
175
175
182
175
175
177
169
167
170
160
158
166
154
150
163
146
141
165
148
142
183
169
162
137
123
114
7
6
6
8
8
8
13
13
13
11
11
11
7
7
7
0
0
0
0
0
0
0
0
0
0
0
0
0
0
0
0
0
0
0
0
0
0
0
0
0
0
0
0
0
0
0
0
0
0
0
0
0
0
0
0
0
0
0
0
0
0
0
0
0
0
0
0
0
0
0
0
0
0
0
0
0
0
0
0
0
0
0
0
0
4
4
4
9
9
9
11
11
11
11
11
11
6
6
6
0
0
0
0
0
0
0
0
0
0
0
0
0
0
0
0
0
0
165
137
103
172
144
114
183
161
132
180
156
128
162
139
109
153
127
97
139
115
82
121
96
60
110
85
45
106
80
48
104
80
46
143
117
78
175
145
111
171
141
106
179
150
116
171
144
113
173
147
117
149
124
93
162
138
107
167
143
113
148
125
94
140
117
87
122
97
66
99
76
48
101
76
47
94
73
44
126
103
74
131
105
74
136
111
78
163
139
109
171
148
118
177
155
124
152
129
98
165
142
112
168
145
115
159
137
105
164
143
112
152
130
98
146
121
88
126
103
75
93
70
42
94
73
44
137
114
83
158
133
102
165
144
114
179
162
139
153
135
109
120
100
75
0
0
0
0
0
0
0
0
0
0
0
0
0
0
0
0
0
0
0
0
0
0
0
0
0
0
0
0
0
0
0
0
0
9
9
9
5
5
5
10
10
10
10
10
10
8
8
8
3
3
3
0
0
0
0
0
0
0
0
0
1
1
1
92
82
70
199
176
148
179
154
129
180
159
143
187
170
159
196
183
173
198
187
179
192
181
174
194
183
178
194
184
181
193
184
182
189
183
181
182
174
173
176
167
165
168
158
157
166
154
151
164
151
144
168
150
143
179
164
155
173
157
146
31
27
25
8
8
7
10
10
10
4
4
4
0
0
0
0
0
0
0
0
0
0
0
0
0
0
0
0
0
0
0
0
0
0
0
0
0
0
0
0
0
0
0
0
0
0
0
0
0
0
0
0
0
0
0
0
0
0
0
0
0
0
0
0
0
0
0
0
0
0
0
0
0
0
0
0
0
0
3
3
3
4
4
4
11
11
11
6
6
6
10
10
10
2
2
2
0
0
0
0
0
0
0
0
0
0
0
0
0
0
0
0
0
0
0
0
0
172
150
122
185
162
136
172
153
126
155
131
99
149
125
92
146
119
85
143
116
81
139
113
78
155
126
92
148
118
81
125
98
61
145
120
85
158
133
101
146
120
87
145
119
86
159
134
102
157
133
102
167
143
114
173
151
124
164
142
110
149
127
97
145
123
92
140
119
93
107
88
64
96
74
48
102
78
49
134
110
78
128
104
69
139
114
82
167
142
114
173
151
121
162
142
114
172
152
126
167
145
117
166
142
111
162
139
107
166
145
114
141
119
89
120
97
71
97
75
48
97
75
45
114
92
60
122
99
67
131
108
77
174
154
127
179
162
139
159
140
113
133
111
82
0
0
0
0
0
0
0
0
0
0
0
0
0
0
0
0
0
0
0
0
0
0
0
0
0
0
0
0
0
0
0
0
0
12
12
12
12
12
12
12
12
12
6
6
6
2
2
2
0
0
0
0
0
0
0
0
0
1
1
0
39
33
27
196
177
152
186
161
135
172
149
129
185
168
153
193
177
164
191
177
166
184
172
164
185
174
169
183
173
171
183
174
172
184
176
174
185
179
177
183
175
175
177
168
166
170
160
157
165
155
151
162
149
143
161
140
133
169
148
140
190
173
159
64
52
42
12
12
13
7
7
7
0
0
0
0
0
0
0
0
0
0
0
0
0
0
0
0
0
0
0
0
0
0
0
0
0
0
0
0
0
0
0
0
0
0
0
0
0
0
0
0
0
0
0
0
0
0
0
0
0
0
0
0
0
0
0
0
0
0
0
0
0
0
0
0
0
0
5
5
5
8
8
8
14
14
14
7
7
7
11
11
11
6
6
6
0
0
0
0
0
0
0
0
0
0
0
0
0
0
0
0
0
0
0
0
0
0
0
0
184
156
123
185
155
121
153
125
90
129
106
76
160
138
108
164
142
113
162
136
100
170
144
110
168
140
106
148
123
93
163
138
108
155
130
97
146
119
83
145
118
81
143
117
82
164
140
109
171
149
120
173
152
125
178
158
131
157
136
111
131
112
88
93
73
50
90
70
44
111
84
54
114
89
58
113
89
59
119
94
66
129
102
72
164
140
112
165
144
114
166
142
113
157
133
101
161
138
108
165
141
110
191
170
143
153
136
109
141
119
91
117
96
68
113
92
65
108
89
61
105
84
55
105
82
54
111
87
57
139
116
86
178
160
135
180
162
138
151
133
107
117
98
70
0
0
0
0
0
0
0
0
0
0
0
0
0
0
0
0
0
0
0
0
0
0
0
0
0
0
0
0
0
0
0
0
0
1
1
1
3
3
3
11
11
11
1
1
1
0
0
0
0
0
0
0
0
0
0
0
0
18
15
13
161
142
118
186
160
133
172
147
125
181
161
145
189
172
159
190
172
162
188
173
166
184
172
168
185
175
172
185
175
174
188
178
176
185
177
177
181
172
173
178
169
169
173
163
161
168
157
153
165
153
147
168
153
147
166
148
141
172
150
141
186
168
155
67
57
51
4
4
5
0
0
0
0
0
0
0
0
0
0
0
0
0
0
0
0
0
0
0
0
0
0
0
0
0
0
0
0
0
0
0
0
0
0
0
0
0
0
0
0
0
0
0
0
0
0
0
0
0
0
0
0
0
0
0
0
0
0
0
0
0
0
0
0
0
0
2
2
2
11
11
11
5
5
5
8
8
8
13
13
13
4
4
4
0
0
0
0
0
0
0
0
0
0
0
0
0
0
0
0
0
0
0
0
0
0
0
0
0
0
0
164
137
104
141
115
79
139
111
74
152
128
92
164
139
106
176
146
118
198
176
151
183
163
135
174
150
120
159
132
101
141
116
82
141
114
79
128
101
62
127
99
60
144
118
83
171
145
115
188
165
135
175
154
125
167
146
117
135
113
83
116
91
61
113
88
58
127
102
71
143
115
81
143
114
80
126
104
76
129
107
83
136
114
87
146
123
93
165
143
112
178
154
124
137
113
79
167
146
115
187
170
145
180
159
133
138
113
82
130
108
74
124
102
69
126
105
74
108
87
57
100
78
50
95
72
40
106
82
50
142
122
89
178
160
135
183
165
139
121
102
74
117
97
71
0
0
0
0
0
0
0
0
0
0
0
0
0
0
0
0
0
0
0
0
0
0
0
0
0
0
0
8
8
8
12
12
12
2
2
2
3
3
3
2
2
2
0
0
0
0
0
0
0
0
0
0
0
0
1
1
2
121
108
92
197
171
142
175
149
123
174
151
131
185
166
149
194
177
165
194
178
169
191
177
171
193
183
179
198
189
186
196
186
184
192
182
180
187
179
177
189
181
179
182
173
171
176
166
164
169
156
151
165
152
146
167
149
143
174
157
150
173
150
143
187
168
155
107
93
81
1
0
0
0
0
0
0
0
0
0
0
0
0
0
0
0
0
0
0
0
0
0
0
0
0
0
0
0
0
0
0
0
0
0
0
0
0
0
0
0
0
0
0
0
0
0
0
0
0
0
0
0
0
0
0
0
0
0
0
0
0
0
0
0
0
0
0
0
0
1
1
1
10
10
10
9
9
9
12
12
12
2
2
2
0
0
0
0
0
0
0
0
0
0
0
0
0
0
0
0
0
0
0
0
0
0
0
0
0
0
0
0
0
0
150
119
79
151
120
81
167
138
103
167
140
107
162
135
103
166
143
115
166
145
115
157
134
104
141
117
83
133
107
71
137
112
75
137
109
74
143
114
77
151
121
85
172
144
107
163
140
105
156
131
100
139
118
87
132
112
81
147
125
94
144
119
89
149
124
95
156
132
102
159
137
107
149
123
93
101
77
43
107
85
54
116
95
62
131
108
77
135
112
82
137
113
84
145
123
95
178
158
133
171
152
123
164
143
112
135
113
79
134
111
79
131
107
77
136
114
84
125
103
72
117
96
65
115
92
62
127
104
72
140
117
85
165
146
118
147
130
102
112
88
62
93
75
50
0
0
0
0
0
0
0
0
0
0
0
0
0
0
0
0
0
0
1
1
1
1
1
1
3
3
3
12
12
12
10
10
10
8
8
8
0
0
0
0
0
0
0
0
0
0
0
0
0
0
0
0
0
1
33
28
23
185
165
140
177
147
120
166
135
115
178
153
137
191
172
159
198
181
172
201
189
181
194
184
180
197
187
183
202
193
189
204
197
192
207
201
197
201
196
193
188
180
178
182
172
170
178
167
164
173
158
153
169
152
144
173
155
149
172
154
148
174
151
145
183
163
153
147
129
117
2
2
1
0
0
0
0
0
0
0
0
0
0
0
0
0
0
0
0
0
0
0
0
0
0
0
0
0
0
0
0
0
0
0
0
0
0
0
0
0
0
0
0
0
0
0
0
0
0
0
0
0
0
0
0
0
0
0
0
0
0
0
0
0
0
0
2
2
2
3
3
3
1
1
1
7
7
7
7
7
7
0
0
0
0
0
0
0
0
0
0
0
0
0
0
0
0
0
0
0
0
0
0
0
0
0
0
0
0
0
0
0
0
0
164
133
93
161
129
92
166
135
102
173
146
115
171
148
119
165
145
120
133
111
77
115
90
58
120
95
60
130
105
75
135
111
77
123
98
61
140
114
79
151
124
88
150
124
89
137
114
80
148
125
93
166
143
111
153
130
100
136
112
79
137
112
78
142
118
83
150
121
82
160
126
89
143
115
79
107
82
49
114
90
60
111
88
56
115
91
61
138
114
84
141
118
89
166
144
116
184
164
140
170
149
120
154
130
102
138
116
83
118
95
62
127
104
74
141
120
89
147
125
95
131
110
79
135
112
82
140
116
84
148
125
95
121
102
73
94
74
47
107
85
57
95
72
44
0
0
0
0
0
0
0
0
0
0
0
0
0
0
0
0
0
0
9
9
9
11
11
11
11
11
11
11
11
11
10
10
10
3
3
3
0
0
0
0
0
0
0
0
0
0
0
0
0
0
0
5
4
3
136
121
103
180
155
126
160
127
105
181
157
138
198
180
165
196
179
168
198
185
176
203
193
187
204
196
190
205
197
193
214
207
202
210
202
199
211
205
201
210
205
202
206
200
198
193
185
183
177
164
161
177
160
154
176
158
151
175
159
152
176
158
151
173
151
144
177
153
143
172
153
143
13
9
7
3
2
2
0
0
0
0
0
0
0
0
0
0
0
0
0
0
0
0
0
0
0
0
0
0
0
0
0
0
0
0
0
0
0
0
0
0
0
0
0
0
0
0
0
0
0
0
0
0
0
0
0
0
0
0
0
0
0
0
0
1
1
1
12
12
12
12
12
12
2
2
2
0
0
0
0
0
0
0
0
0
0
0
0
0
0
0
0
0
0
0
0
0
0
0
0
0
0
0
0
0
0
0
0
0
0
0
0
0
0
0
148
119
79
157
127
89
166
138
103
162
138
104
166
143
113
141
119
89
126
102
66
125
101
67
142
117
82
135
109
75
149
123
88
137
111
74
146
119
84
152
126
91
152
122
86
147
119
83
158
133
99
149
126
94
149
126
96
155
130
98
165
139
106
156
130
96
162
131
93
132
105
69
103
78
48
96
71
41
100
76
46
103
79
51
129
106
76
144
122
90
153
130
101
162
141
110
170
149
121
158
138
109
153
130
102
125
105
74
121
98
68
113
91
60
121
101
70
124
104
75
131
111
81
147
126
97
139
118
87
148
127
98
97
76
47
92
71
44
98
77
48
114
91
60
0
0
0
0
0
0
0
0
0
0
0
0
0
0
0
1
1
1
4
4
4
10
10
10
8
8
8
11
11
11
1
1
1
0
0
0
0
0
0
0
0
0
0
0
0
0
0
0
0
1
1
70
60
47
184
161
135
175
147
123
179
157
141
187
169
153
190
171
158
189
172
163
193
178
171
198
187
179
205
196
189
201
192
185
201
192
187
209
202
197
212
206
202
207
201
199
203
196
194
204
195
193
195
186
183
180
167
163
177
162
157
181
166
159
181
166
162
174
151
144
179
153
144
191
174
164
42
31
22
1
1
2
0
0
0
0
0
0
0
0
0
0
0
0
0
0
0
0
0
0
0
0
0
0
0
0
0
0
0
0
0
0
0
0
0
0
0
0
0
0
0
0
0
0
0
0
0
0
0
0
0
0
0
6
6
6
4
4
4
9
9
9
13
13
13
12
12
12
6
6
6
0
0
0
0
0
0
0
0
0
0
0
0
0
0
0
0
0
0
0
0
0
0
0
0
0
0
0
0
0
0
0
0
0
0
0
0
0
0
0
148
119
77
143
113
71
149
119
81
154
128
93
161
136
103
145
117
83
152
126
93
160
136
104
164
139
109
164
139
107
152
126
93
143
117
81
147
121
86
132
105
70
127
101
66
131
104
71
143
120
88
151
128
96
155
130
99
158
135
105
164
145
117
176
155
128
166
141
113
127
102
70
96
72
42
91
66
36
89
63
32
112
87
55
136
107
70
132
106
69
139
114
81
145
124
90
156
135
103
168
145
115
144
123
92
131
110
81
118
94
64
118
95
65
127
104
76
129
107
78
138
117
88
151
129
99
144
121
90
138
119
89
99
77
50
100
78
51
107
84
53
137
114
82
0
0
0
0
0
0
0
0
0
2
2
2
3
3
3
8
8
8
9
9
9
11
11
11
8
8
8
2
2
2
0
0
0
0
0
0
0
0
0
0
0
0
0
0
0
0
0
0
18
13
10
176
156
133
175
149
124
176
151
130
183
160
141
184
165
151
189
171
159
191
174
165
189
174
166
190
179
171
196
186
180
200
190
185
206
198
192
204
196
192
208
201
197
211
206
203
208
200
197
199
190
187
186
174
170
182
169
164
182
167
161
178
162
157
184
170
166
178
155
150
175
148
141
187
168
157
40
33
26
1
1
1
0
0
0
0
0
0
0
0
0
0
0
0
0
0
0
0
0
0
0
0
0
0
0
0
0
0
0
0
0
0
0
0
0
0
0
0
0
0
0
0
0
0
0
0
0
0
0
0
0
0
0
7
7
7
13
13
13
6
6
6
10
10
10
3
3
3
0
0
0
0
0
0
0
0
0
0
0
0
0
0
0
0
0
0
0
0
0
0
0
0
0
0
0
0
0
0
0
0
0
0
0
0
0
0
0
0
0
0
166
138
101
174
145
108
176
147
113
177
152
121
170
145
115
165
140
109
159
137
103
157
133
99
162
136
105
156
130
97
150
124
89
138
112
77
127
101
67
123
99
65
120
94
63
127
102
71
127
105
73
157
134
104
163
139
111
165
143
116
162
139
112
158
136
107
154
131
102
147
122
90
131
105
72
123
97
61
127
99
61
136
106
67
146
115
81
163
135
102
164
135
102
142
118
85
141
118
89
151
129
101
139
119
90
140
121
92
131
109
79
127
107
80
96
74
49
108
86
56
127
104
72
151
128
96
149
127
98
124
102
75
108
86
61
88
67
40
113
89
57
134
110
79
0
0
0
0
0
0
0
0
0
2
2
2
13
13
13
9
9
9
10
10
10
10
10
10
1
1
1
0
0
0
0
0
0
0
0
0
0
0
0
0
0
0
0
0
0
2
1
2
96
84
69
183
159
133
177
150
129
171
145
126
176
154
138
191
174
161
196
180
168
199
186
177
204
192
184
204
193
186
207
198
192
201
191
185
195
185
180
195
184
181
206
198
194
202
193
190
204
198
194
206
200
197
194
184
181
178
162
158
177
160
154
183
171
166
189
176
171
188
170
165
184
162
155
192
175
164
31
24
19
2
2
2
0
0
0
0
0
0
0
0
0
0
0
0
0
0
0
0
0
0
0
0
0
0
0
0
0
0
0
0
0
0
0
0
0
0
0
0
0
0
0
0
0
0
0
0
0
0
0
0
3
3
3
11
11
11
10
10
10
12
12
12
7
7
7
0
0
0
0
0
0
0
0
0
0
0
0
0
0
0
0
0
0
0
0
0
0
0
0
0
0
0
0
0
0
0
0
0
0
0
0
0
0
0
0
0
0
0
0
0
177
150
115
171
144
109
163
136
104
161
134
103
160
133
101
160
135
102
162
134
98
165
139
106
163
140
110
150
123
90
143
117
80
121
94
59
117
91
57
112
87
54
129
105
71
141
114
81
144
118
85
156
133
103
154
133
106
148
130
105
145
124
95
148
124
96
145
122
91
130
105
73
129
104
70
116
89
57
101
75
43
103
76
42
130
101
65
140
115
80
161
135
102
145
122
90
142
119
89
159
136
106
157
136
107
151
131
105
141
120
89
119
98
68
101
76
45
116
91
57
129
105
74
153
130
100
134
115
86
128
108
79
107
86
59
94
73
44
119
94
61
143
120
89
0
0
0
0
0
0
0
0
0
5
5
5
9
9
9
11
11
11
6
6
6
2
2
2
0
0
0
0
0
0
0
0
0
0
0
0
0
0
0
0
0
0
1
0
1
31
23
16
187
166
141
177
151
128
175
147
128
180
155
140
187
168
155
192
175
164
198
182
173
199
187
178
199
188
179
201
190
183
198
187
180
201
189
184
203
194
189
202
193
188
189
177
173
183
172
167
201
194
191
187
176
172
194
184
181
188
175
172
181
164
158
186
172
168
196
184
180
192
178
174
188
167
160
197
181
170
41
32
26
1
1
1
0
0
0
0
0
0
0
0
0
0
0
0
0
0
0
0
0
0
0
0
0
0
0
0
0
0
0
0
0
0
0
0
0
0
0
0
0
0
0
0
0
0
6
6
6
6
6
6
9
9
9
4
4
4
11
11
11
3
3
3
0
0
0
0
0
0
0
0
0
0
0
0
0
0
0
0
0
0
0
0
0
0
0
0
0
0
0
0
0
0
0
0
0
0
0
0
0
0
0
0
0
0
0
0
0
0
0
0
176
149
117
176
149
118
166
139
107
154
124
88
158
128
90
158
128
89
149
121
86
149
122
89
149
122
87
156
131
97
159
135
101
167
140
109
163
136
106
138
113
80
130
104
70
137
111
75
147
120
89
143
118
86
148
126
95
144
123
94
154
131
102
154
131
103
157
137
113
152
131
104
131
108
80
108
82
54
102
75
44
106
79
49
125
100
68
150
125
93
149
124
92
128
107
74
132
111
80
134
113
82
129
110
80
146
127
99
169
149
122
126
106
77
106
85
54
126
103
73
140
116
86
125
104
75
115
95
70
116
96
70
94
75
49
101
79
53
132
110
79
144
123
94
0
0
0
9
9
9
10
10
10
5
5
5
12
12
12
11
11
11
2
2
2
0
0
0
0
0
0
0
0
0
0
0
0
0
0
0
0
0
0
0
0
0
9
6
4
137
111
80
190
165
137
183
157
137
172
144
126
174
151
135
191
174
161
193
175
165
191
177
168
202
189
181
202
191
184
204
193
187
202
192
186
212
204
198
217
211
206
213
206
202
208
200
197
206
197
194
195
186
182
198
188
184
195
183
180
186
172
167
185
168
161
190
176
170
201
190
187
196
183
178
193
174
168
202
187
177
58
49
42
2
1
2
0
0
0
0
0
0
0
0
0
0
0
0
0
0
0
0
0
0
0
0
0
0
0
0
0
0
0
0
0
0
0
0
0
0
0
0
0
0
0
0
0
0
5
5
5
14
14
14
10
10
10
12
12
12
7
7
7
0
0
0
0
0
0
0
0
0
0
0
0
0
0
0
0
0
0
0
0
0
0
0
0
0
0
0
0
0
0
0
0
0
0
0
0
0
0
0
0
0
0
0
0
0
0
0
0
0
0
0
177
152
122
182
157
127
180
152
118
171
141
104
163
129
91
156
127
91
157
129
94
158
131
98
160
134
102
166
139
108
169
142
112
156
128
94
142
116
80
140
116
78
146
120
84
145
118
83
141
115
81
153
128
98
151
127
99
162
141
114
156
135
106
146
126
96
153
133
105
140
118
88
127
104
74
111
87
54
107
82
49
106
80
47
117
91
54
133
105
67
133
105
67
143
119
85
143
119
86
147
126
95
162
143
113
154
135
107
152
132
107
142
120
94
129
104
73
124
99
69
119
97
68
121
102
72
110
89
61
99
78
52
96
76
49
99
79
51
113
90
62
96
76
52
0
0
0
7
7
7
10
10
10
13
13
13
9
9
9
1
1
1
0
0
0
0
0
0
0
0
0
0
0
0
0
0
0
0
0
0
0
0
0
3
2
2
86
64
39
200
175
144
189
162
135
179
151
131
175
147
132
180
159
144
185
165
151
192
175
162
203
189
179
208
197
187
206
195
187
209
200
193
209
199
193
214
206
200
217
210
203
214
207
203
213
206
201
207
200
196
200
191
187
195
185
181
194
182
178
186
172
167
180
162
154
194
179
172
204
194
190
199
186
182
196
175
169
195
180
172
29
26
23
1
1
1
0
0
0
0
0
0
0
0
0
0
0
0
0
0
0
0
0
0
0
0
0
0
0
0
0
0
0
0
0
0
0
0
0
0
0
0
2
2
2
1
1
1
8
8
8
7
7
7
11
11
11
2
2
2
0
0
0
0
0
0
0
0
0
0
0
0
0
0
0
0
0
0
0
0
0
0
0
0
0
0
0
0
0
0
0
0
0
0
0
0
0
0
0
0
0
0
0
0
0
0
0
0
0
0
0
0
0
0
183
158
125
179
152
119
158
131
96
149
119
79
153
123
80
152
123
83
153
123
83
151
122
85
162
135
102
170
144
112
172
147
114
170
142
111
167
140
109
165
140
110
156
130
98
147
120
88
158
131
101
160
133
101
141
117
83
126
104
72
128
104
69
134
108
74
112
91
61
99
75
45
106
81
51
105
79
48
112
86
54
112
87
54
109
82
47
120
92
55
120
93
56
134
113
80
147
125
95
159
137
107
168
149
120
150
131
102
163
144
119
164
143
118
150
127
97
124
100
70
116
96
67
133
113
85
116
93
68
125
104
75
114
93
65
113
92
63
108
86
58
111
90
66
16
15
14
23
21
19
15
15
15
3
3
3
2
2
2
6
6
6
8
8
7
2
2
2
0
0
0
0
0
0
0
0
0
0
0
0
1
1
2
35
25
15
156
129
94
197
171
140
174
146
118
178
151
131
178
153
135
186
166
147
182
162
146
193
176
164
193
177
169
193
178
171
195
182
174
206
194
185
206
193
185
208
199
192
215
208
202
216
209
203
211
205
201
217
211
207
213
206
202
199
189
187
191
178
174
190
175
170
193
178
172
199
181
174
203
188
182
196
179
174
191
169
162
187
173
166
5
3
3
0
0
0
0
0
0
0
0
0
0
0
0
0
0
0
0
0
0
0
0
0
0
0
0
0
0
0
0
0
0
0
0
0
0
0
0
0
0
0
11
11
11
11
11
11
9
9
9
11
11
11
7
7
7
0
0
0
0
0
0
0
0
0
0
0
0
0
0
0
0
0
0
0
0
0
0
0
0
0
0
0
0
0
0
0
0
0
0
0
0
0
0
0
0
0
0
0
0
0
0
0
0
0
0
0
0
0
0
0
0
0
173
143
106
169
137
99
154
123
84
138
108
64
137
106
62
150
118
80
156
124
85
157
127
89
155
129
93
164
139
107
164
139
109
156
133
101
155
132
102
157
134
104
163
137
103
164
136
102
177
150
117
173
147
114
155
129
94
139
115
81
122
98
64
115
88
57
114
87
56
136
110
77
124
99
65
116
89
56
113
86
49
115
87
50
124
94
56
139
111
70
135
109
70
158
133
101
173
149
123
167
143
117
148
129
101
136
117
87
141
122
93
142
123
91
141
120
89
142
119
86
141
121
89
127
107
80
111
91
68
114
94
67
120
100
73
120
99
71
118
96
64
130
109
78
58
56
53
63
58
56
32
30
28
13
13
12
19
19
18
28
27
26
33
33
31
23
21
20
4
4
4
8
8
6
4
3
3
4
4
3
12
9
6
119
92
58
196
171
139
179
149
116
176
149
120
165
138
117
182
159
136
185
163
145
195
175
159
200
183
169
206
193
180
214
203
191
218
208
198
220
211
201
217
208
200
213
204
198
207
199
194
206
199
194
206
197
194
204
195
191
211
203
200
216
210
206
212
203
200
194
181
177
190
173
166
204
186
179
202
184
178
192
171
167
191
167
162
184
167
159
6
5
4
0
0
0
0
0
0
0
0
0
0
0
0
0
0
0
0
0
0
0
0
0
0
0
0
0
0
0
0
0
0
0
0
0
0
0
0
0
0
0
6
6
6
12
12
12
9
9
9
6
6
6
0
0
0
0
0
0
0
0
0
0
0
0
0
0
0
0
0
0
0
0
0
0
0
0
0
0
0
0
0
0
0
0
0
0
0
0
0
0
0
0
0
0
0
0
0
0
0
0
0
0
0
0
0
0
0
0
0
0
0
0
178
149
111
167
136
97
150
122
81
144
115
72
137
107
65
139
110
66
129
99
61
132
104
68
133
108
70
143
119
83
148
121
88
161
134
103
166
142
111
160
133
101
148
122
85
136
110
71
132
108
71
132
105
72
119
95
64
127
107
76
137
115
89
137
117
90
119
101
70
102
79
51
104
81
51
107
82
51
110
85
52
105
78
48
96
71
38
120
93
58
137
109
74
143
117
85
137
117
86
137
113
85
136
117
88
154
135
104
158
136
109
156
135
104
140
120
92
126
105
75
142
123
93
143
123
97
119
99
73
117
97
72
119
99
72
112
91
64
114
93
63
134
113
81
93
85
74
111
100
86
81
72
64
73
66
59
96
88
75
70
64
56
68
62
55
82
71
60
42
36
30
41
34
28
50
39
28
14
12
10
57
43
29
167
139
103
193
167
136
164
134
104
158
130
103
158
132
110
170
146
126
181
158
138
177
158
141
189
172
157
196
180
166
207
194
181
208
196
183
214
204
192
218
208
199
218
209
200
220
212
204
225
218
212
229
224
220
222
217
213
214
206
203
203
194
191
197
186
182
200
188
183
206
191
185
207
189
183
199
178
174
190
162
161
194
169
164
177
160
153
2
2
2
0
0
0
0
0
0
0
0
0
0
0
0
0
0
0
0
0
0
0
0
0
0
0
0
0
0
0
0
0
0
0
0
0
0
0
0
0
0
0
2
2
2
10
10
10
1
1
1
0
0
0
0
0
0
0
0
0
0
0
0
0
0
0
0
0
0
0
0
0
0
0
0
0
0
0
0
0
0
0
0
0
0
0
0
0
0
0
0
0
0
0
0
0
0
0
0
0
0
0
0
0
0
0
0
0
0
0
0
0
0
0
148
122
81
132
104
64
128
101
62
144
116
78
152
122
85
146
117
80
130
98
57
129
96
54
138
107
68
151
123
88
160
135
104
166
144
115
152
127
95
148
123
88
135
112
73
124
100
61
134
110
75
133
108
76
132
106
77
119
96
67
118
95
65
116
94
63
111
88
56
91
69
39
93
69
39
78
54
25
95
72
43
103
81
46
122
93
57
122
96
59
127
103
66
136
110
79
144
121
90
152
130
100
155
132
102
147
122
90
149
126
95
163
142
111
153
130
100
138
115
84
128
109
82
134
113
87
107
87
61
120
100
73
127
108
78
108
86
59
116
92
62
133
110
81
123
108
87
104
91
77
75
66
55
87
79
67
115
101
85
103
92
79
134
118
97
133
116
93
125
106
81
106
86
62
96
76
53
73
56
35
134
106
71
189
162
129
175
149
120
154
125
95
152
124
98
157
131
110
157
131
111
159
136
116
176
156
138
179
159
142
185
169
154
195
179
168
197
182
171
197
183
173
199
186
177
205
194
185
205
195
186
209
200
192
211
202
195
214
207
200
218
211
206
221
215
211
222
216
212
212
203
199
211
196
191
204
187
181
196
175
172
189
162
160
198
174
164
155
139
131
1
1
1
0
0
0
0
0
0
0
0
0
0
0
0
0
0
0
0
0
0
0
0
0
0
0
0
0
0
0
0
0
0
0
0
0
0
0
0
0
0
0
0
0
0
2
2
2
0
0
0
0
0
0
0
0
0
0
0
0
0
0
0
0
0
0
0
0
0
0
0
0
0
0
0
0
0
0
0
0
0
0
0
0
0
0
0
0
0
0
0
0
0
0
0
0
0
0
0
0
0
0
0
0
0
0
0
0
0
0
0
0
0
0
162
131
96
165
134
99
159
132
98
154
124
88
148
116
79
140
108
67
148
117
74
145
113
71
164
134
97
166
138
103
159
131
99
159
130
98
156
129
95
163
136
104
169
141
112
169
142
111
165
137
108
143
118
85
136
111
80
118
94
62
124
98
67
127
101
68
113
87
54
102
79
48
95
71
42
89
65
38
94
68
37
107
81
46
125
97
61
128
104
67
131
108
73
144
121
89
132
109
77
121
101
68
133
113
82
152
129
99
157
134
104
166
145
116
142
120
91
120
100
71
125
107
82
104
89
64
96
78
54
116
96
73
94
76
52
93
73
48
106
86
58
117
97
70
120
104
84
102
86
71
78
68
56
120
105
85
126
109
87
118
104
85
105
91
71
90
79
64
99
84
65
123
103
79
116
94
66
151
123
86
171
139
97
179
151
112
158
129
95
149
121
90
155
126
96
157
129
102
158
133
111
170
147
126
178
158
141
174
156
142
186
169
156
193
176
162
197
182
168
204
192
181
208
196
186
211
200
191
213
204
194
214
205
196
219
211
204
217
209
202
218
210
204
215
207
203
209
200
194
216
205
199
221
210
205
213
200
196
194
173
171
194
168
165
210
187
176
138
125
119
1
1
1
0
0
0
0
0
0
0
0
0
0
0
0
0
0
0
0
0
0
0
0
0
0
0
0
0
0
0
0
0
0
0
0
0
0
0
0
0
0
0
0
0
0
0
0
0
0
0
0
0
0
0
0
0
0
0
0
0
0
0
0
0
0
0
0
0
0
0
0
0
0
0
0
0
0
0
0
0
0
0
0
0
0
0
0
0
0
0
0
0
0
0
0
0
0
0
0
0
0
0
0
0
0
0
0
0
0
0
0
0
0
0
162
135
100
163
134
100
164
136
100
156
128
88
133
103
59
141
110
67
160
127
86
160
128
90
160
131
97
160
135
103
162
137
103
162
138
104
164
140
106
171
146
113
166
139
106
154
128
92
144
117
82
130
106
72
125
100
68
124
100
70
105
82
52
93
72
43
86
62
37
94
70
42
111
86
54
108
80
47
103
74
40
113
83
48
119
94
55
131
107
71
136
113
78
141
117
84
139
116
82
150
126
96
154
131
101
147
124
92
152
129
98
126
106
75
119
100
71
119
99
74
104
87
65
90
74
50
105
86
63
117
99
75
108
86
61
91
69
44
102
82
58
93
75
52
110
94
75
132
113
89
100
86
69
87
75
59
110
94
73
114
98
77
102
87
69
87
76
62
43
34
27
97
81
62
127
99
63
173
147
112
167
137
94
156
121
76
158
127
89
156
128
94
163
134
99
166
139
111
170
143
118
168
145
123
165
145
125
175
157
141
186
168
154
184
166
153
187
172
158
189
173
161
196
183
173
196
183
174
202
190
181
208
197
189
209
198
190
206
196
188
208
198
191
213
203
197
214
204
198
214
201
195
210
196
189
204
188
185
197
177
177
201
179
174
216
197
186
134
122
118
1
0
0
0
0
0
0
0
0
0
0
0
0
0
0
0
0
0
0
0
0
0
0
0
0
0
0
0
0
0
0
0
0
0
0
0
0
0
0
0
0
0
0
0
0
0
0
0
0
0
0
0
0
0
0
0
0
0
0
0
0
0
0
0
0
0
0
0
0
0
0
0
0
0
0
0
0
0
0
0
0
0
0
0
0
0
0
0
0
0
0
0
0
0
0
0
0
0
0
0
0
0
0
0
0
0
0
0
1
1
1
8
8
8
156
126
90
152
122
86
149
122
84
153
124
86
157
128
89
143
113
74
145
115
75
160
129
89
163
132
94
156
125
86
151
121
82
159
131
94
168
139
105
173
147
114
172
146
113
170
144
111
167
142
111
158
137
107
154
133
104
143
119
92
128
107
79
130
109
80
115
93
65
118
96
68
113
88
60
117
94
66
127
102
73
131
107
78
141
116
85
154
129
98
157
133
102
158
137
106
152
127
96
147
123
92
149
125
94
154
130
100
152
129
99
145
122
92
118
97
71
123
101
74
100
79
54
88
72
47
105
87
63
124
102
77
124
104
78
124
104
77
112
91
63
86
67
44
122
105
84
126
108
87
89
75
60
81
69
55
109
93
73
136
117
92
137
118
96
141
123
100
36
29
23
95
81
63
116
94
65
111
89
62
141
114
77
129
97
58
156
128
93
174
146
109
175
144
104
182
155
123
182
155
126
169
144
117
174
151
129
185
167
150
185
168
151
182
165
151
186
169
155
185
168
155
185
169
158
182
167
157
184
170
161
183
171
162
184
171
164
179
164
157
183
168
162
193
175
169
203
184
178
207
191
186
203
187
184
189
167
165
192
166
165
208
186
180
222
206
196
104
93
90
2
1
1
0
0
0
0
0
0
0
0
0
0
0
0
0
0
0
0
0
0
0
0
0
0
0
0
0
0
0
0
0
0
0
0
0
0
0
0
0
0
0
0
0
0
0
0
0
0
0
0
0
0
0
0
0
0
0
0
0
0
0
0
0
0
0
0
0
0
0
0
0
0
0
0
0
0
0
0
0
0
0
0
0
0
0
0
0
0
0
0
0
0
0
0
0
0
0
0
0
0
0
0
0
0
0
0
0
1
1
1
10
10
10
146
115
75
139
109
69
148
117
78
157
130
96
165
139
106
174
148
115
163
137
104
160
132
97
150
117
76
149
118
74
155
123
81
154
126
86
155
128
91
160
136
102
151
126
94
145
122
91
155
134
105
156
134
106
146
126
96
136
116
85
116
96
68
125
106
80
128
110
85
126
103
79
102
79
53
93
68
40
108
81
51
121
95
64
137
112
79
152
128
92
150
126
89
159
134
100
157
135
103
162
139
107
148
125
93
149
126
94
148
126
93
136
113
83
121
101
71
118
99
68
116
99
74
100
82
58
101
82
58
126
106
80
118
100
74
120
101
76
125
105
78
106
86
60
99
81
61
101
86
71
74
63
50
108
93
73
103
89
70
89
74
57
151
132
109
164
142
114
95
79
60
71
58
43
132
114
90
105
87
62
117
94
65
118
90
55
159
133
99
144
117
81
163
133
94
169
140
104
182
154
123
187
160
128
183
162
139
181
163
143
191
174
157
187
170
155
170
153
140
170
152
141
167
149
138
172
155
146
169
153
143
167
152
144
163
149
144
173
156
151
176
158
152
187
163
156
197
174
168
194
171
167
186
163
159
187
162
160
200
176
171
212
191
181
223
206
194
104
88
77
3
2
2
0
0
0
0
0
0
0
0
0
0
0
0
0
0
0
0
0
0
0
0
0
0
0
0
0
0
0
0
0
0
0
0
0
0
0
0
0
0
0
0
0
0
0
0
0
0
0
0
0
0
0
0
0
0
0
0
0
0
0
0
0
0
0
0
0
0
0
0
0
0
0
0
0
0
0
0
0
0
0
0
0
0
0
0
0
0
0
0
0
0
0
0
0
0
0
0
0
0
0
0
0
0
0
0
0
6
6
6
7
7
7
146
117
73
146
115
74
165
133
97
154
126
92
148
120
85
155
124
89
143
115
71
142
113
70
148
117
77
144
115
74
147
117
79
159
128
88
155
124
88
155
129
95
175
150
120
166
141
111
152
128
95
138
113
82
135
110
79
137
115
85
164
140
114
154
128
100
122
96
64
99
76
47
88
66
39
90
65
35
106
80
46
118
92
56
126
101
66
139
117
85
153
130
100
159
137
106
165
143
114
163
140
110
162
141
110
151
128
98
155
133
103
148
125
93
119
96
66
117
97
66
123
105
78
115
96
74
102
85
61
148
128
101
129
108
79
118
97
70
128
110
84
119
100
73
111
93
71
108
92
73
98
83
66
112
96
75
97
81
63
79
64
47
170
151
126
168
147
119
137
116
88
96
81
62
153
132
105
120
102
78
107
84
57
117
94
65
115
93
65
119
96
67
122
97
65
153
127
94
186
158
120
181
152
117
187
164
139
191
172
150
190
172
155
172
153
138
170
150
137
178
158
139
177
158
142
169
151
139
167
150
141
166
150
143
163
148
142
170
153
146
179
157
150
196
173
167
195
171
165
189
166
163
185
159
159
189
158
157
204
176
169
217
195
183
214
195
182
97
80
70
2
1
2
0
0
1
0
0
0
0
0
0
0
0
0
0
0
0
0
0
0
0
0
0
0
0
0
0
0
0
0
0
0
0
0
0
0
0
0
0
0
0
0
0
0
0
0
0
0
0
0
0
0
0
0
0
0
0
0
0
0
0
0
0
0
0
0
0
0
0
0
0
0
0
0
0
0
0
0
0
0
0
0
0
0
0
0
0
0
0
0
0
0
0
0
0
0
0
0
0
0
0
0
0
0
5
5
5
9
9
9
9
9
9
165
134
96
169
137
100
157
128
90
141
112
70
148
116
76
153
122
85
168
140
106
167
139
103
163
132
95
168
139
101
175
145
110
174
145
110
175
146
109
174
147
116
176
150
116
170
143
110
168
142
107
169
144
114
170
146
118
166
145
115
160
137
109
167
143
115
159
136
106
125
102
70
108
84
50
101
75
43
117
91
57
137
111
76
146
122
86
148
125
92
149
126
94
157
134
102
135
112
80
133
112
81
137
116
87
136
114
86
135
114
84
138
116
84
130
105
76
123
100
70
113
93
67
120
102
80
115
99
74
139
119
92
129
108
79
106
86
59
125
109
83
123
104
79
98
83
64
140
119
94
111
94
74
129
112
90
137
119
97
94
77
58
142
125
103
142
122
94
125
104
75
94
76
55
119
98
74
150
127
99
142
120
90
107
88
62
114
94
67
150
126
95
131
110
83
146
122
90
164
137
102
172
145
114
187
164
135
198
178
155
196
177
157
193
171
147
200
178
152
200
181
159
190
171
154
196
179
163
188
172
159
184
169
159
191
176
166
187
168
159
199
179
170
205
185
178
198
179
173
195
175
170
193
169
165
202
178
174
211
186
177
218
196
183
189
156
133
106
82
64
6
4
3
0
0
0
0
0
0
0
0
0
0
0
0
0
0
0
0
0
0
0
0
0
0
0
0
0
0
0
0
0
0
0
0
0
0
0
0
0
0
0
0
0
0
0
0
0
0
0
0
0
0
0
0
0
0
0
0
0
0
0
0
0
0
0
0
0
0
0
0
0
0
0
0
0
0
0
0
0
0
0
0
0
0
0
0
0
0
0
0
0
0
0
0
0
1
1
1
2
2
2
6
6
6
9
9
9
12
12
12
5
5
5
149
122
81
143
113
74
157
129
92
169
143
109
172
147
115
163
137
106
160
135
102
161
135
102
159
130
95
154
128
93
153
126
91
149
120
81
145
116
76
146
120
80
151
126
88
158
132
97
156
132
99
153
131
99
150
128
95
152
130
98
156
134
101
151
129
98
144
122
94
135
114
87
134
111
83
134
110
79
122
97
66
132
109
78
146
123
89
148
123
91
147
122
91
155
131
102
156
133
105
135
112
82
111
92
62
117
97
70
128
108
81
133
112
83
146
123
92
139
117
86
147
126
101
122
104
80
122
104
80
127
107
82
120
101
73
112
92
67
114
97
73
111
93
69
131
114
91
115
96
74
123
104
82
140
121
99
194
175
149
140
119
93
102
84
60
93
74
54
69
52
34
93
78
60
138
119
93
160
141
112
133
113
86
106
86
64
117
97
70
136
112
82
147
125
95
149
125
95
131
108
78
178
153
122
190
167
139
186
163
137
204
183
156
208
184
153
206
184
156
207
188
166
208
190
169
204
187
170
204
189
175
203
189
175
202
187
177
210
195
183
207
189
180
206
188
180
201
183
176
207
189
182
212
193
186
219
202
193
211
185
169
191
154
133
166
116
85
116
89
72
1
1
1
0
0
0
0
0
0
3
3
3
2
2
2
3
3
3
0
0
0
0
0
0
0
0
0
0
0
0
0
0
0
0
0
0
0
0
0
0
0
0
0
0
0
0
0
0
0
0
0
0
0
0
0
0
0
0
0
0
0
0
0
0
0
0
0
0
0
0
0
0
0
0
0
0
0
0
0
0
0
0
0
0
0
0
0
0
0
0
0
0
0
1
1
1
4
4
4
14
14
14
9
9
9
11
11
11
10
10
10
1
1
1
147
120
82
158
132
95
181
155
125
174
150
118
169
145
112
169
141
109
165
138
103
157
130
97
153
125
89
153
128
90
145
119
80
144
117
77
141
112
70
126
99
61
135
110
75
148
125
92
151
129
99
134
112
79
135
112
76
136
112
79
139
116
82
131
109
76
127
103
71
103
78
48
86
60
31
87
62
32
116
92
58
141
117
83
147
123
90
155
129
98
152
127
94
136
111
76
148
123
93
154
131
101
152
131
100
126
105
74
108
88
58
124
106
78
142
122
91
129
106
75
124
105
80
143
124
103
112
92
67
111
92
64
122
103
77
129
109
85
93
75
51
114
96
72
114
94
72
74
61
47
117
99
78
144
124
100
176
155
128
141
121
96
76
59
38
73
57
37
69
52
35
143
125
102
176
157
130
155
133
103
125
106
84
139
119
93
155
133
106
133
112
84
181
159
128
157
135
105
149
127
98
173
154
129
171
147
118
181
156
123
195
169
134
196
169
137
202
179
149
210
189
162
206
185
159
210
192
172
206
190
175
205
191
177
198
180
168
199
179
165
204
185
175
203
185
177
211
193
184
225
204
186
231
212
194
227
210
197
210
187
173
178
138
120
167
116
88
125
96
78
1
1
1
0
0
0
0
0
0
11
11
11
9
9
9
8
8
8
4
4
4
0
0
0
0
0
0
0
0
0
0
0
0
0
0
0
0
0
0
0
0
0
0
0
0
0
0
0
0
0
0
0
0
0
0
0
0
0
0
0
0
0
0
0
0
0
0
0
0
0
0
0
0
0
0
0
0
0
0
0
0
0
0
0
0
0
0
0
0
0
0
0
0
9
9
9
7
7
7
9
9
9
12
12
12
7
7
7
2
2
2
0
0
0
164
138
103
148
120
82
145
117
76
151
125
88
164
138
104
158
134
102
150
124
87
144
117
82
139
115
75
128
97
60
119
87
48
122
94
59
125
99
63
137
113
81
124
101
70
122
97
65
130
105
72
138
116
82
140
115
82
134
109
77
122
99
67
124
101
68
113
90
58
99
74
43
89
64
34
88
63
31
127
100
66
130
102
67
142
118
82
152
129
97
161
137
105
152
130
95
138
116
80
144
121
89
147
126
95
139
117
88
120
98
66
111
91
62
136
115
86
118
96
65
120
99
73
133
115
91
118
99
71
105
86
57
114
94
68
130
110
84
97
80
56
113
99
74
136
117
93
104
84
61
138
119
98
150
130
104
179
159
133
149
129
102
78
57
36
110
91
68
121
101
77
145
128
105
201
181
153
124
105
81
138
121
99
121
99
71
180
160
132
156
134
104
158
135
105
176
155
122
184
166
141
165
144
116
124
103
77
164
139
107
169
140
107
168
141
108
184
156
124
191
165
133
199
176
149
205
185
164
203
185
167
198
180
163
205
187
172
199
176
162
193
170
159
194
174
165
215
192
177
223
192
169
225
191
164
228
202
179
225
206
188
204
178
165
192
159
140
139
112
94
2
1
1
0
0
0
3
3
3
9
9
9
10
10
10
11
11
11
6
6
6
0
0
0
0
0
0
0
0
0
0
0
0
0
0
0
0
0
0
0
0
0
0
0
0
0
0
0
0
0
0
0
0
0
0
0
0
0
0
0
0
0
0
0
0
0
0
0
0
0
0
0
0
0
0
0
0
0
0
0
0
0
0
0
0
0
0
0
0
0
0
0
0
10
10
10
12
12
12
12
12
12
5
5
5
2
2
2
0
0
0
0
0
0
141
113
73
141
114
74
135
107
68
136
111
70
138
112
73
150
122
85
155
129
92
163
136
103
168
141
107
175
149
116
178
152
119
170
142
110
149
123
88
144
115
78
142
116
80
139
114
80
151
126
95
164
139
108
161
138
107
148
125
95
127
108
78
123
102
72
130
107
75
131
107
75
129
104
73
137
110
79
137
110
73
139
111
74
126
101
67
138
113
81
154
130
98
159
136
106
161
140
111
158
135
107
137
115
86
141
120
91
134
113
83
102
82
56
105
87
62
103
83
56
100
80
54
113
95
71
114
94
69
113
93
68
104
86
61
113
97
73
106
89
67
109
92
70
144
123
98
112
92
68
127
108
84
142
122
97
160
141
116
134
115
88
75
56
37
134
112
87
177
155
126
180
159
133
186
169
146
155
136
109
116
94
66
139
114
81
148
127
101
169
148
120
146
124
94
189
170
143
188
168
140
183
161
131
157
133
102
159
136
107
173
146
113
155
128
94
165
140
108
164
137
106
176
151
121
184
161
137
187
165
141
213
195
176
190
166
150
190
169
156
185
161
150
195
172
159
209
175
153
211
166
141
214
168
139
216
180
150
223
199
178
227
210
195
221
205
194
147
125
112
2
1
2
1
1
1
7
7
7
7
7
7
7
7
7
5
5
5
0
0
0
0
0
0
0
0
0
0
0
0
0
0
0
0
0
0
0
0
0
0
0
0
0
0
0
0
0
0
0
0
0
0
0
0
0
0
0
0
0
0
0
0
0
0
0
0
0
0
0
0
0
0
0
0
0
0
0
0
0
0
0
0
0
0
0
0
0
1
1
1
1
1
1
2
2
2
4
4
4
11
11
11
1
1
1
0
0
0
0
0
0
0
0
0
161
134
99
159
132
95
158
133
99
160
133
98
155
130
94
151
125
94
153
127
97
148
122
91
156
130
97
160
136
101
161
135
100
162
136
102
165
138
105
170
144
112
166
140
110
167
142
113
163
140
110
153
132
102
143
122
91
137
115
85
113
91
65
104
83
56
103
81
52
100
78
49
106
81
51
100
76
43
125
99
62
145
119
83
144
117
84
137
112
80
140
115
83
146
122
88
152
127
91
159
136
102
157
135
107
139
119
87
136
115
85
104
85
59
92
74
48
97
76
50
104
84
60
101
81
57
115
95
70
116
98
73
102
86
61
106
90
65
111
93
69
110
92
69
148
130
107
121
101
79
116
95
71
160
140
115
177
158
134
102
83
61
88
67
44
163
142
116
180
160
134
204
184
158
178
157
131
170
148
118
133
110
79
137
115
85
110
90
64
150
128
98
119
102
80
182
165
142
185
164
135
164
142
113
194
174
147
162
137
106
182
159
127
162
137
105
169
141
107
160
134
102
164
139
111
168
143
117
194
171
144
173
146
127
180
153
134
202
182
165
186
163
149
192
166
149
199
156
135
199
143
119
206
153
126
217
185
163
226
207
191
229
213
196
225
211
199
147
124
109
5
5
5
11
11
11
12
12
12
9
9
9
6
6
6
0
0
0
0
0
0
0
0
0
0
0
0
0
0
0
0
0
0
0
0
0
0
0
0
0
0
0
0
0
0
0
0
0
0
0
0
0
0
0
0
0
0
0
0
0
0
0
0
0
0
0
0
0
0
0
0
0
0
0
0
0
0
0
0
0
0
0
0
0
0
0
0
8
8
8
12
12
12
4
4
4
1
1
1
2
2
2
0
0
0
0
0
0
0
0
0
0
0
0
119
92
53
131
103
62
146
117
77
145
117
83
146
121
88
152
127
97
151
124
92
157
130
98
159
132
97
158
132
97
168
141
108
161
134
99
152
125
88
135
107
68
131
107
71
133
108
74
150
125
94
153
130
98
136
113
83
116
93
62
119
97
70
124
102
73
125
104
74
107
84
54
104
81
51
113
86
55
118
92
55
129
103
66
136
110
73
142
117
85
137
112
82
133
108
76
144
120
84
150
128
91
154
134
108
127
108
77
137
116
87
98
80
54
80
62
38
93
73
48
112
92
67
95
75
50
115
95
70
118
100
74
97
80
56
111
92
69
96
78
54
106
89
67
146
127
105
100
83
65
107
88
67
175
155
130
158
137
113
84
64
43
108
86
62
175
154
126
207
187
159
189
169
144
198
175
147
196
171
139
169
143
106
84
64
42
112
93
66
127
106
78
142
127
105
151
135
113
166
148
123
157
138
113
173
153
125
165
142
112
194
171
142
172
146
113
198
173
141
178
152
122
162
136
107
169
143
113
167
140
115
174
148
127
204
182
158
189
165
146
185
161
139
193
165
145
200
162
142
202
161
140
209
171
152
220
196
178
227
205
187
232
217
202
230
217
207
157
135
120
12
10
10
9
9
9
9
9
9
3
3
3
0
0
0
0
0
0
0
0
0
0
0
0
0
0
0
0
0
0
0
0
0
0
0
0
0
0
0
0
0
0
0
0
0
0
0
0
0
0
0
0
0
0
0
0
0
0
0
0
0
0
0
0
0
0
0
0
0
0
0
0
0
0
0
0
0
0
2
2
2
1
1
1
4
4
4
10
10
10
11
11
11
8
8
8
0
0
0
0
0
0
0
0
0
0
0
0
0
0
0
0
0
0
178
154
127
174
151
122
174
152
122
177
153
123
168
144
116
168
143
112
172
146
117
171
146
116
164
136
103
165
134
101
153
125
89
135
109
69
129
101
63
134
106
67
157
127
92
164
136
104
167
143
112
162
139
111
157
134
104
140
120
91
116
96
70
114
92
66
118
95
65
136
111
83
141
115
88
134
109
78
130
104
70
137
111
76
152
126
93
155
131
98
145
121
88
134
110
78
122
97
68
128
105
75
145
126
95
120
100
70
119
97
69
96
78
51
81
63
40
89
71
47
102
82
56
96
78
54
114
96
74
115
99
74
98
80
56
108
89
65
115
95
72
114
96
72
161
142
120
139
119
97
130
109
86
162
143
120
144
124
98
103
82
58
167
141
110
169
145
115
213
194
167
207
183
153
205
183
153
212
190
159
178
151
116
84
65
45
90
75
55
112
94
72
160
142
120
170
153
129
167
152
131
169
151
126
162
140
111
153
135
107
180
158
128
195
173
144
192
168
139
196
173
143
164
139
111
178
152
123
172
147
123
196
173
149
189
164
140
192
170
149
185
159
135
185
154
135
193
157
138
199
162
140
209
177
156
217
192
172
225
205
188
231
217
203
210
189
174
150
125
105
17
14
13
8
8
8
6
6
6
0
0
0
0
0
0
0
0
0
0
0
0
0
0
0
0
0
0
0
0
0
0
0
0
0
0
0
0
0
0
0
0
0
0
0
0
0
0
0
0
0
0
0
0
0
0
0
0
0
0
0
0
0
0
0
0
0
0
0
0
0
0
0
0
0
0
0
0
0
6
6
6
12
12
12
10
10
10
11
11
11
7
7
7
3
3
3
0
0
0
0
0
0
0
0
0
0
0
0
0
0
0
0
0
0
168
149
119
169
147
116
166
142
110
171
147
116
171
146
114
168
142
111
161
135
103
154
127
93
160
132
98
158
130
95
148
120
83
134
106
70
137
111
76
141
114
78
144
117
83
152
126
92
151
126
95
145
122
91
143
121
92
136
116
88
122
102
73
123
102
73
129
106
75
132
108
79
136
112
82
134
109
75
127
102
68
126
102
70
139
115
83
146
123
91
151
127
96
146
123
91
130
107
76
125
103
73
130
110
82
118
95
65
115
94
66
85
67
42
83
65
40
96
77
54
97
78
54
93
75
51
97
80
58
113
97
74
102
84
62
118
101
79
118
101
79
109
90
68
167
146
123
109
90
69
152
131
108
161
143
121
149
128
102
150
126
97
174
147
114
197
175
147
208
188
161
203
179
146
217
196
164
216
190
157
183
154
115
76
59
42
57
49
38
84
71
52
152
135
112
163
147
127
184
168
147
193
178
157
173
154
130
159
140
114
152
131
105
160
139
113
187
165
136
183
158
128
185
160
130
196
171
141
203
180
152
171
145
117
183
161
137
186
163
139
181
153
128
197
168
147
188
154
133
190
156
133
208
179
158
207
176
153
216
193
171
225
209
188
191
162
138
153
131
110
17
14
12
6
6
6
0
0
0
0
0
0
0
0
0
0
0
0
0
0
0
0
0
0
0
0
0
0
0
0
0
0
0
0
0
0
0
0
0
0
0
0
0
0
0
0
0
0
0
0
0
0
0
0
0
0
0
0
0
0
0
0
0
0
0
0
0
0
0
0
0
0
0
0
0
1
1
1
6
6
6
10
10
10
10
10
10
9
9
9
1
1
1
0
0
0
0
0
0
0
0
0
0
0
0
0
0
0
0
0
0
0
0
0
174
158
141
172
149
121
163
136
100
157
129
93
159
131
95
157
129
93
156
130
96
153
124
91
154
127
94
154
127
96
155
127
94
152
126
89
146
121
82
129
103
66
120
94
57
127
101
64
142
116
81
137
113
79
137
115
83
139
117
87
138
117
88
132
111
81
124
101
71
118
95
64
128
103
71
136
110
74
124
100
67
127
105
76
127
106
79
125
104
74
140
117
87
155
133
100
131
110
79
124
104
77
115
95
69
114
94
66
118
98
73
83
65
39
93
74
48
98
80
56
110
92
68
92
74
51
90
74
52
121
106
84
119
103
82
115
99
76
113
97
73
116
99
75
171
150
125
143
120
95
159
139
116
167
149
128
162
140
114
172
149
120
182
158
127
199
176
148
216
195
167
211
188
155
220
199
168
211
186
150
178
149
108
71
53
36
33
25
21
65
52
39
151
132
108
183
167
145
185
169
150
182
167
146
164
147
122
165
144
116
138
117
91
150
128
100
158
138
110
175
151
122
202
179
149
206
183
152
204
181
152
193
170
143
166
142
117
182
158
133
205
182
158
192
163
141
191
158
133
202
172
150
205
172
150
208
180
156
209
187
164
218
199
176
197
172
146
135
114
91
5
5
5
0
0
0
0
0
0
0
0
0
0
0
0
0
0
0
0
0
0
0
0
0
0
0
0
0
0
0
0
0
0
0
0
0
0
0
0
0
0
0
0
0
0
0
0
0
0
0
0
0
0
0
0
0
0
0
0
0
0
0
0
0
0
0
0
0
0
2
2
2
5
5
5
6
6
6
8
8
8
12
12
12
7
7
7
3
3
3
0
0
0
0
0
0
0
0
0
0
0
0
0
0
0
0
0
0
0
0
0
0
0
0
157
136
104
160
136
101
163
140
111
176
159
139
164
136
106
153
124
88
152
128
92
158
131
102
159
130
96
141
115
78
136
111
72
129
105
65
130
107
67
145
119
83
152
126
87
152
124
88
138
114
76
144
120
86
150
126
96
150
126
95
131
108
76
133
110
80
137
115
87
115
91
61
118
99
69
142
119
91
132
113
87
106
89
63
105
83
56
128
107
75
130
105
74
152
131
100
145
126
100
129
113
86
115
95
71
111
95
70
112
95
69
100
81
55
92
72
47
105
89
63
98
81
57
98
80
56
93
77
54
123
106
87
113
98
77
121
105
84
112
95
69
128
112
88
156
134
108
144
123
99
171
151
126
170
149
126
148
125
99
180
159
133
204
184
156
218
201
176
219
198
168
222
202
173
220
198
169
214
190
155
159
130
93
62
46
31
17
11
8
62
50
38
150
133
109
183
168
147
200
186
167
188
172
150
163
142
113
139
115
85
104
82
56
117
96
70
121
99
73
169
146
116
181
158
128
197
175
146
198
175
145
186
163
136
166
140
115
202
180
155
207
187
165
205
181
160
208
180
158
208
179
157
196
160
138
202
178
156
209
189
167
198
173
143
175
146
112
87
68
48
6
4
3
0
0
0
0
0
0
0
0
0
0
0
0
0
0
0
0
0
0
0
0
0
0
0
0
0
0
0
0
0
0
0
0
0
0
0
0
0
0
0
0
0
0
0
0
0
0
0
0
0
0
0
0
0
0
0
0
0
0
0
0
0
0
0
0
0
0
2
2
2
13
13
13
9
9
9
11
11
11
11
11
11
1
1
1
0
0
0
0
0
0
0
0
0
0
0
0
0
0
0
0
0
0
0
0
0
0
0
0
0
0
0
164
141
111
162
137
108
156
132
100
154
130
98
169
150
121
177
158
131
170
143
109
167
141
108
160
133
102
157
130
97
162
135
104
159
135
102
151
127
92
151
125
91
154
127
94
159
132
99
164
138
107
154
129
96
149
126
94
146
124
95
148
127
99
141
122
93
145
123
93
153
127
99
147
123
96
134
114
86
134
113
85
126
103
76
99
77
49
108
88
57
122
99
68
126
105
74
143
123
98
126
110
86
115
97
73
107
90
66
117
99
75
103
85
61
99
82
56
110
94
69
105
88
63
105
86
63
92
76
53
118
101
81
111
95
73
121
104
84
112
95
73
132
116
93
157
135
109
164
142
116
174
152
126
143
122
98
179
157
129
192
169
140
205
185
159
220
202
177
218
197
166
224
204
175
225
204
174
216
191
154
147
115
79
29
19
13
23
15
12
95
79
59
191
175
153
211
197
177
198
181
159
198
179
154
140
116
87
96
75
51
93
74
53
122
99
73
113
93
70
125
106
83
150
128
101
176
153
124
195
173
143
178
153
126
182
155
129
196
175
149
196
173
152
211
188
165
204
175
152
191
157
135
196
168
148
204
182
159
206
185
157
151
123
92
93
71
47
30
22
15
1
1
1
0
0
0
0
0
0
0
0
0
0
0
0
0
0
0
0
0
0
0
0
0
0
0
0
0
0
0
0
0
0
0
0
0
0
0
0
0
0
0
0
0
0
0
0
0
0
0
0
0
0
0
0
0
0
0
0
0
0
0
0
0
0
0
0
0
0
4
4
4
9
9
9
11
11
11
7
7
7
2
2
2
0
0
0
0
0
0
0
0
0
0
0
0
0
0
0
0
0
0
0
0
0
0
0
0
0
0
0
0
0
0
172
150
119
173
151
121
159
134
104
162
137
104
167
145
111
172
147
113
170
146
116
175
154
129
154
135
107
143
120
88
145
121
86
155
130
99
152
128
93
144
118
82
146
120
85
148
124
90
166
140
108
168
144
113
167
145
114
157
135
104
143
123
93
139
118
90
150
128
103
152
130
102
150
126
93
143
117
84
128
107
78
135
117
92
157
142
117
117
96
70
108
89
62
121
101
75
128
108
84
118
101
77
113
97
75
109
92
70
99
82
57
101
83
59
101
85
62
117
101
78
118
102
79
106
88
64
100
84
61
112
98
77
113
99
77
111
94
72
123
110
88
129
114
92
166
145
120
146
124
100
152
132
108
140
120
98
179
158
131
201
181
154
191
172
147
207
187
159
214
193
165
228
208
180
223
201
168
210
181
141
112
84
53
40
27
18
58
43
28
161
140
114
202
187
166
213
199
178
200
177
146
185
159
123
160
134
100
134
109
79
127
103
74
145
120
88
139
117
90
133
111
84
138
115
87
170
147
120
188
165
135
190
164
133
189
164
133
199
175
150
195
170
148
207
183
161
195
164
143
189
160
140
190
163
140
203
179
151
193
165
131
134
105
72
36
24
16
2
2
2
0
1
0
0
0
0
0
0
0
0
0
0
0
0
0
0
0
0
0
0
0
0
0
0
0
0
0
0
0
0
0
0
0
0
0
0
0
0
0
0
0
0
0
0
0
0
0
0
0
0
0
0
0
0
0
0
0
0
0
0
0
0
0
7
7
7
10
10
10
6
6
6
11
11
11
11
11
11
3
3
3
0
0
0
0
0
0
0
0
0
0
0
0
0
0
0
0
0
0
0
0
0
0
0
0
0
0
0
0
0
0
0
0
0
154
130
96
153
130
94
151
127
94
155
133
100
151
129
95
159
134
101
162
138
104
166
140
105
163
138
103
156
132
104
174
152
127
144
120
87
144
121
89
152
128
96
148
124
92
144
120
86
134
111
80
145
121
89
150
125
93
136
112
81
132
109
78
135
113
80
136
112
80
148
125
94
155
132
102
137
116
83
123
102
72
116
93
64
139
121
96
152
135
113
126
109
83
118
100
74
120
102
78
109
93
69
113
96
75
110
93
70
91
73
49
93
77
52
117
103
81
116
102
77
123
106
83
106
89
64
106
89
69
106
91
70
112
97
77
111
95
72
127
113
90
128
112
91
170
149
124
151
129
103
150
131
107
169
148
125
187
163
133
186
161
130
195
175
148
209
191
165
222
204
178
227
207
178
227
203
169
209
178
140
146
117
81
111
87
61
157
129
96
195
174
147
205
188
162
203
185
160
202
180
151
205
181
150
193
168
137
192
170
142
174
151
119
161
138
110
135
112
84
143
121
94
184
160
130
173
148
116
198
175
145
173
146
114
191
167
137
191
166
139
193
165
137
192
165
143
176
146
127
182
155
136
182
156
132
197
172
143
179
150
116
123
96
62
75
57
36
22
17
12
0
0
1
0
0
0
0
0
0
0
0
0
0
0
0
0
0
0
0
0
0
0
0
0
0
0
0
0
0
0
0
0
0
0
0
0
0
0
0
0
0
0
0
0
0
0
0
0
0
0
0
0
0
0
0
0
0
0
0
0
0
0
0
4
4
4
10
10
10
13
13
13
9
9
9
1
1
1
0
0
0
0
0
0
0
0
0
0
0
0
0
0
0
0
0
0
0
0
0
0
0
0
0
0
0
0
0
0
0
0
0
0
0
0
144
117
86
141
114
80
129
103
69
120
95
61
125
99
64
127
101
66
121
95
58
134
106
67
151
122
83
151
125
87
161
138
107
157
137
113
152
131
102
132
108
74
127
102
67
128
102
71
137
111
70
139
112
77
141
117
83
144
121
90
126
103
73
116
93
61
117
92
61
142
119
87
146
122
92
138
117
88
139
119
92
140
120
93
133
112
85
146
128
107
142
127
106
114
98
76
120
102
78
107
91
67
110
94
73
100
84
59
95
79
54
94
76
52
130
114
91
117
101
76
125
108
87
103
87
62
111
94
74
108
91
70
109
92
72
115
99
76
125
109
86
125
108
87
168
145
117
145
123
99
171
152
129
184
163
140
183
161
133
184
161
132
193
171
142
204
184
157
225
208
182
227
206
177
230
209
180
225
203
176
204
175
141
171
141
106
205
182
153
209
191
168
204
186
162
208
189
163
210
192
169
206
188
164
195
176
153
173
153
128
183
164
142
188
170
145
192
172
147
183
161
134
161
138
110
174
153
126
163
138
108
170
145
115
193
166
133
198
175
146
201
176
150
196
169
145
181
153
135
174
143
118
167
138
110
188
162
130
175
146
113
136
109
74
80
61
40
13
9
7
1
1
1
0
0
0
0
0
0
0
0
0
0
0
0
0
0
0
0
0
0
0
0
0
0
0
0
0
0
0
0
0
0
0
0
0
0
0
0
0
0
0
0
0
0
0
0
0
0
0
0
0
0
0
0
0
0
0
0
0
0
0
0
1
1
1
11
11
11
3
3
3
0
0
0
0
0
0
0
0
0
0
0
0
0
0
0
0
0
0
0
0
0
0
0
0
0
0
0
0
0
0
0
0
0
0
0
0
0
0
0
0
0
0
127
105
68
128
105
70
140
117
81
139
115
81
138
114
79
126
101
67
126
101
62
123
95
57
120
93
54
118
92
53
122
95
58
120
92
55
125
100
60
139
115
84
155
134
107
154
131
100
146
122
86
144
120
85
142
117
84
144
119
87
146
123
93
157
134
103
142
118
84
117
94
62
125
104
72
141
122
94
140
122
94
140
125
96
155
138
113
142
125
102
139
121
99
122
105
85
113
97
72
106
91
66
110
94
71
93
76
52
105
87
62
99
83
59
126
112
89
122
108
83
124
107
88
106
90
66
121
107
86
113
96
75
107
90
68
120
106
85
122
106
83
128
112
90
171
148
121
170
149
126
156
133
108
169
145
118
192
172
146
200
180
153
203
181
151
207
185
155
230
212
185
230
210
183
237
221
198
231
213
190
226
206
180
206
180
149
216
198
173
218
200
174
208
185
158
200
180
155
184
164
138
159
138
114
145
125
102
161
142
121
166
147
125
172
150
126
187
167
143
206
187
162
193
172
145
179
156
127
179
154
122
169
144
112
163
138
108
177
152
122
203
180
151
198
172
145
194
168
139
176
147
118
162
133
104
167
137
103
159
130
94
155
128
92
99
79
55
24
18
14
1
1
1
0
0
0
0
0
0
0
0
0
0
0
0
0
0
0
0
0
0
0
0
0
0
0
0
0
0
0
0
0
0
0
0
0
0
0
0
0
0
0
0
0
0
0
0
0
0
0
0
0
0
0
0
0
0
0
0
0
0
0
0
0
0
0
3
3
3
2
2
2
0
0
0
0
0
0
0
0
0
0
0
0
0
0
0
0
0
0
0
0
0
0
0
0
0
0
0
0
0
0
0
0
0
0
0
0
0
0
0
0
0
0
142
120
85
151
128
96
146
123
89
131
108
75
135
111
79
135
111
77
134
111
79
140
117
82
145
119
85
145
120
84
145
118
83
147
120
84
147
120
83
138
110
75
123
95
59
120
94
61
125
102
70
147
125
95
144
123
91
139
115
82
146
121
89
151
126
93
154
129
96
148
127
96
139
119
91
110
92
65
134
116
90
135
115
90
140
124
99
134
119
97
142
126
106
111
95
72
127
113
92
107
91
67
107
90
70
100
84
61
107
91
68
109
93
69
121
104
82
127
111
88
121
104
82
113
97
73
126
112
91
121
105
86
109
94
73
108
93
74
126
109
90
129
113
92
158
139
116
180
158
135
178
153
126
178
156
132
195
175
149
182
161
135
198
178
151
218
196
166
230
211
184
239
224
202
240
227
208
236
220
199
233
218
198
222
204
180
220
202
179
195
172
144
116
92
69
62
44
30
37
24
15
23
11
9
32
17
11
68
50
35
107
88
70
133
113
91
161
141
119
192
173
150
206
188
165
198
178
153
176
152
123
179
157
128
175
152
123
165
138
108
198
173
144
196
172
143
185
155
122
185
153
122
178
150
119
161
133
98
161
132
96
144
119
84
125
101
68
40
31
23
1
1
1
0
0
0
0
0
0
0
0
0
0
0
0
0
0
0
0
0
0
0
0
0
0
0
0
0
0
0
0
0
0
0
0
0
0
0
0
0
0
0
0
0
0
0
0
0
0
0
0
0
0
0
0
0
0
0
0
0
0
0
0
0
0
0
0
0
0
0
0
0
0
0
0
0
0
0
0
0
0
0
0
0
0
0
0
0
0
0
0
0
0
0
0
0
0
0
0
0
0
0
0
0
0
0
0
0
0
0
0
0
0
0
155
132
100
154
131
99
119
97
63
120
96
60
125
101
65
145
119
82
124
98
65
122
96
61
137
113
78
147
122
88
155
130
96
160
138
102
162
138
104
163
135
100
158
133
97
151
125
90
141
115
80
140
117
79
137
114
83
148
125
98
150
129
100
135
114
81
140
115
81
150
127
96
152
131
102
148
128
101
129
110
84
129
110
83
127
111
87
120
106
86
139
124
106
120
104
81
111
95
73
110
95
71
104
87
66
104
88
65
105
89
66
109
93
69
120
104
81
126
110
87
121
105
82
121
104
82
130
115
96
125
110
91
113
99
76
101
84
65
127
112
92
126
111
89
162
142
120
175
155
132
178
158
134
177
157
133
182
162
137
167
143
114
185
160
129
215
196
169
230
214
190
240
226
207
241
227
209
241
228
210
232
216
195
220
203
182
152
129
106
47
29
21
23
11
9
17
7
5
16
5
4
17
5
3
17
4
3
22
7
5
40
20
14
61
42
31
110
88
67
163
140
113
189
166
139
203
180
152
202
179
149
204
183
155
181
157
128
166
142
111
178
152
121
168
142
112
193
165
133
208
179
142
179
148
113
140
112
78
134
108
76
148
123
91
142
117
86
92
77
58
11
9
8
0
0
0
0
0
0
0
0
0
0
0
0
0
0
0
0
0
0
0
0
0
0
0
0
0
0
0
0
0
0
0
0
0
0
0
0
0
0
0
0
0
0
0
0
0
0
0
0
0
0
0
0
0
0
0
0
0
0
0
0
0
0
0
0
0
0
0
0
0
0
0
0
0
0
0
0
0
0
0
0
0
0
0
0
0
0
0
0
0
0
0
0
0
0
0
0
0
0
0
0
0
0
0
0
0
0
0
0
0
0
0
159
137
109
162
139
111
150
128
96
155
131
101
160
137
107
148
126
93
146
121
89
149
124
87
141
114
75
141
113
74
141
117
81
163
137
104
171
146
115
163
139
105
163
136
103
159
132
97
162
135
102
161
134
103
162
137
108
165
142
114
161
139
116
164
142
118
148
129
102
141
120
92
140
118
89
134
115
86
150
132
107
147
129
105
139
122
101
128
111
91
134
118
99
120
104
82
112
95
73
105
88
66
117
102
83
109
95
72
104
87
63
109
93
70
128
111
90
127
111
88
121
105
82
115
100
78
133
120
102
115
101
82
111
95
74
109
91
71
117
103
81
117
101
81
162
142
120
151
132
111
168
149
127
170
152
131
189
168
142
189
165
136
208
186
156
210
186
154
237
223
203
244
234
220
244
231
214
239
226
208
221
201
179
148
123
101
34
20
16
18
10
8
12
11
8
11
10
10
14
13
12
21
18
15
40
27
16
41
23
12
31
13
6
28
11
6
75
48
33
148
118
93
195
171
145
202
176
144
197
171
139
186
159
126
192
165
131
166
140
109
189
164
133
177
149
116
163
137
102
167
135
98
175
142
102
161
132
97
135
110
79
146
123
91
152
128
98
123
105
83
24
20
16
1
1
1
0
0
0
0
0
0
0
0
0
0
0
0
0
0
0
0
0
0
0
0
0
0
0
0
0
0
0
0
0
0
0
0
0
0
0
0
0
0
0
0
0
0
0
0
0
0
0
0
0
0
0
0
0
0
0
0
0
0
0
0
0
0
0
0
0
0
0
0
0
0
0
0
0
0
0
0
0
0
0
0
0
0
0
0
0
0
0
0
0
0
0
0
0
0
0
0
0
0
0
0
0
0
0
0
0
0
0
0
149
128
96
144
123
91
137
114
81
142
119
88
147
124
92
139
117
83
148
125
95
156
133
103
153
129
96
151
127
92
150
123
90
158
129
95
159
133
100
164
138
104
156
129
93
154
127
90
141
114
76
133
108
70
143
117
81
143
120
84
139
117
83
145
123
91
149
130
102
141
120
95
143
123
98
149
131
107
140
122
98
141
125
101
142
126
107
139
124
106
142
126
109
124
109
90
112
96
73
107
91
66
122
108
87
115
98
77
106
90
67
114
98
77
126
109
89
131
115
92
129
112
90
124
108
88
135
120
100
114
98
77
111
95
74
110
93
73
116
98
78
106
90
69
160
143
122
158
140
121
173
154
134
195
176
155
173
150
123
190
164
132
207
186
158
220
201
175
240
227
209
247
237
223
246
236
222
237
225
208
185
157
132
54
35
24
33
22
12
25
27
19
41
44
50
85
96
109
114
125
138
104
112
125
65
71
75
65
56
31
88
60
27
71
45
20
40
19
10
119
87
67
181
150
124
208
181
151
201
172
139
182
150
113
178
150
115
168
142
109
178
152
121
189
164
132
204
178
145
158
128
92
175
141
102
176
142
102
141
115
83
142
119
87
160
138
107
153
133
107
64
54
44
0
0
0
0
0
0
0
0
0
0
0
0
0
0
0
0
0
0
0
0
0
0
0
0
0
0
0
0
0
0
0
0
0
0
0
0
0
0
0
0
0
0
0
0
0
0
0
0
0
0
0
0
0
0
0
0
0
0
0
0
0
0
0
0
0
0
0
0
0
0
0
0
0
0
0
0
0
0
0
0
0
0
0
0
0
0
0
0
0
0
0
0
0
0
0
0
0
0
0
0
0
0
0
0
0
0
0
0
0
0
0
163
141
114
157
134
106
133
110
80
132
109
79
137
115
82
153
131
96
150
126
91
139
115
79
151
126
89
150
126
92
154
127
95
157
128
94
162
137
104
171
146
112
164
134
98
151
122
83
155
123
86
149
119
83
142
114
78
138
111
77
143
120
87
141
118
88
136
115
85
135
113
86
135
115
90
150
132
106
145
126
103
136
120
93
126
109
88
138
123
104
140
126
108
128
113
94
116
100
77
110
93
68
120
105
84
124
109
89
110
94
72
114
99
78
126
113
95
133
119
98
137
123
102
138
123
103
128
114
91
115
99
76
116
99
79
112
95
75
117
100
79
106
90
70
172
153
132
177
156
135
158
139
120
163
144
124
197
175
147
191
164
130
195
169
137
219
201
175
244
234
219
249
240
227
247
238
226
228
211
191
111
83
64
45
31
13
63
64
32
18
21
24
109
121
138
115
128
144
135
145
159
135
145
159
120
131
146
76
84
85
95
78
35
125
92
43
98
69
36
73
46
33
156
115
92
185
144
108
196
163
123
203
174
139
178
151
118
162
139
110
168
142
112
178
150
116
203
178
145
187
156
117
169
134
93
173
139
98
174
141
104
150
121
89
149
126
96
154
134
108
88
75
60
3
2
2
0
0
0
0
0
0
0
0
0
0
0
0
0
0
0
0
0
0
0
0
0
0
0
0
0
0
0
0
0
0
0
0
0
0
0
0
0
0
0
0
0
0
0
0
0
0
0
0
0
0
0
0
0
0
0
0
0
0
0
0
0
0
0
0
0
0
0
0
0
0
0
0
0
0
0
0
0
0
0
0
0
0
0
0
0
0
0
0
0
0
0
0
0
0
0
0
0
0
0
0
0
0
0
0
0
0
0
0
151
128
96
147
125
95
150
131
101
124
100
70
126
101
70
128
103
69
122
96
57
131
105
69
160
133
100
170
143
110
149
122
89
151
129
93
164
140
107
175
152
120
175
152
123
174
150
120
169
145
116
165
139
106
163
137
104
161
136
104
153
128
97
148
123
92
141
120
86
134
115
86
137
117
92
145
127
101
156
139
116
146
130
107
141
123
101
118
102
77
131
116
96
140
125
106
119
102
77
114
98
73
119
103
80
128
111
91
119
104
81
115
100
78
127
114
96
130
116
95
140
126
107
138
122
101
129
113
90
122
105
83
117
99
79
113
98
77
117
101
80
114
98
77
139
123
105
173
154
133
170
151
131
173
155
136
189
166
138
201
177
147
208
184
151
231
213
189
245
234
218
249
241
228
247
237
225
207
186
166
71
50
26
81
70
27
54
63
44
8
9
15
113
126
143
113
125
142
128
140
154
131
142
157
120
133
148
80
89
100
65
67
36
131
105
47
155
115
55
103
73
52
181
155
144
195
161
139
202
162
116
191
154
111
172
140
102
174
146
113
185
159
124
178
155
126
189
164
134
193
166
134
147
120
89
154
126
93
157
127
94
142
113
80
144
118
88
152
130
101
120
104
84
14
12
10
0
0
0
0
0
0
0
0
0
0
0
0
0
0
0
0
0
0
0
0
0
0
0
0
0
0
0
0
0
0
0
0
0
0
0
0
0
0
0
0
0
0
0
0
0
0
0
0
0
0
0
0
0
0
0
0
0
0
0
0
0
0
0
0
0
0
0
0
0
0
0
0
0
0
0
0
0
0
0
0
0
0
0
0
0
0
0
0
0
0
0
0
0
0
0
0
0
0
0
0
0
0
0
0
0
0
0
0
148
127
96
144
122
93
153
132
103
165
146
117
161
140
110
153
130
97
147
124
89
147
123
87
166
141
107
164
140
108
178
155
123
167
143
112
161
136
106
169
146
116
170
146
116
161
136
105
155
132
98
161
138
107
164
141
112
167
147
119
163
143
116
160
138
113
156
134
109
139
121
94
135
117
90
147
130
105
139
123
100
130
113
92
146
131
112
121
104
81
125
108
85
132
118
97
123
107
84
117
101
77
118
101
78
124
108
86
130
113
92
120
105
84
118
103
83
122
107
86
135
118
97
140
124
104
136
120
99
128
112
90
121
105
83
116
102
79
113
96
74
115
98
78
163
144
123
157
138
119
150
130
106
157
139
118
188
165
138
203
175
141
219
195
165
241
224
200
249
239
225
251
243
232
242
230
216
153
125
101
99
73
28
104
98
47
40
52
38
6
7
12
93
109
128
111
123
140
153
164
179
136
149
164
107
121
137
65
74
85
37
44
31
127
110
57
171
134
67
138
101
64
155
127
114
209
186
170
221
190
155
188
148
99
176
138
94
148
119
83
152
126
94
175
150
119
181
154
123
208
184
154
186
159
128
151
124
92
160
133
101
149
120
90
136
109
80
145
122
93
124
106
86
19
16
13
0
0
0
0
0
0
0
0
0
0
0
0
0
0
0
0
0
0
0
0
0
0
0
0
1
1
1
0
0
0
3
3
3
0
0
0
0
0
0
0
0
0
0
0
0
0
0
0
0
0
0
0
0
0
0
0
0
0
0
0
0
0
0
0
0
0
0
0
0
0
0
0
0
0
0
0
0
0
0
0
0
0
0
0
0
0
0
0
0
0
0
0
0
0
0
0
0
0
0
0
0
0
0
0
0
0
0
0
144
122
91
143
121
92
153
132
105
156
136
108
147
126
97
142
121
89
146
126
94
134
111
75
139
113
78
143
119
84
165
142
109
163
138
108
160
135
103
154
131
100
166
143
113
173
149
121
168
147
116
164
138
106
160
133
102
150
126
94
157
134
102
158
136
105
152
131
99
138
119
91
135
116
89
139
121
96
133
116
91
125
107
82
132
118
97
131
115
94
121
105
80
130
114
93
121
105
82
122
106
83
117
101
79
118
102
79
128
111
91
123
109
88
113
97
75
123
107
86
129
114
93
136
121
101
134
120
99
132
117
96
125
109
86
119
104
82
112
96
75
111
94
74
157
135
112
171
150
126
161
139
116
150
130
107
198
175
147
215
186
148
219
195
164
244
227
205
250
241
228
251
243
232
233
217
200
125
92
63
134
100
41
122
118
64
57
78
57
7
7
12
26
30
37
22
25
32
23
25
31
24
27
33
35
39
47
25
27
34
25
30
26
137
122
67
178
141
80
148
107
63
125
94
78
208
183
166
235
214
189
221
189
149
184
146
100
127
98
65
134
106
73
173
145
110
181
152
120
184
158
127
172
145
113
138
113
84
142
115
83
164
134
101
143
116
87
136
113
86
139
120
97
42
35
29
1
1
1
0
0
0
0
0
0
0
0
0
0
0
0
0
0
0
0
0
0
0
0
0
9
9
9
7
7
7
8
8
8
0
0
0
0
0
0
0
0
0
0
0
0
0
0
0
0
0
0
0
0
0
0
0
0
0
0
0
0
0
0
0
0
0
0
0
0
0
0
0
0
0
0
0
0
0
0
0
0
0
0
0
0
0
0
0
0
0
0
0
0
0
0
0
0
0
0
0
0
0
0
0
0
0
0
0
148
125
94
152
131
102
156
134
102
148
125
95
147
124
94
161
138
110
159
138
107
138
113
77
130
106
70
138
114
78
139
114
81
143
120
86
141
118
82
151
125
91
158
134
100
160
136
100
148
122
87
135
113
79
144
119
88
149
123
91
144
121
88
147
127
96
162
140
115
148
129
100
136
117
89
138
118
91
128
108
83
132
112
87
121
104
78
143
127
110
127
110
87
123
106
86
122
106
83
120
104
80
119
102
79
118
102
79
124
107
85
130
114
94
110
94
70
119
103
81
126
109
89
125
109
86
137
120
102
132
117
96
129
113
93
121
104
84
111
96
75
105
88
68
158
135
109
146
124
101
169
144
117
168
145
121
183
156
127
222
196
161
225
200
166
242
222
195
250
241
227
251
243
231
223
200
179
119
80
46
165
123
52
131
119
62
99
120
82
7
9
13
7
8
13
7
8
14
7
8
13
6
7
11
6
7
12
6
6
10
47
60
44
134
119
66
189
154
91
150
107
62
126
97
84
211
188
169
242
224
201
240
219
190
206
176
139
150
126
98
99
78
53
126
100
69
166
139
107
172
141
108
147
118
84
137
110
78
148
121
89
146
115
81
140
113
84
127
106
82
99
84
68
18
15
13
0
0
0
0
0
0
0
0
0
0
0
0
0
0
0
0
0
0
0
0
0
0
0
0
8
8
8
11
11
11
13
13
13
10
10
10
2
2
2
0
0
0
0
0
0
0
0
0
0
0
0
0
0
0
0
0
0
0
0
0
0
0
0
0
0
0
0
0
0
0
0
0
0
0
0
0
0
0
0
0
0
0
0
0
0
0
0
0
0
0
0
0
0
0
0
0
0
0
0
0
0
0
0
0
0
0
0
0
128
105
75
134
111
80
132
111
80
140
117
85
153
130
98
150
127
96
140
120
88
149
127
101
144
121
89
132
110
76
121
99
64
136
114
80
142
119
87
159
136
106
163
140
108
160
135
101
162
138
105
161
135
103
154
129
96
152
126
94
150
125
94
148
126
94
145
123
95
158
139
110
149
130
101
146
126
101
129
110
85
127
108
83
131
113
89
131
116
96
137
120
101
121
104
84
124
108
85
123
105
81
121
104
80
125
108
84
123
106
86
131
115
95
118
101
81
122
105
83
124
108
85
121
104
82
136
119
101
131
116
97
130
114
94
122
105
85
117
101
83
109
92
73
169
142
112
180
148
114
188
160
129
172
149
122
192
165
134
216
188
153
226
200
165
242
221
192
251
239
222
250
239
225
217
191
169
107
68
38
186
135
54
157
134
70
126
133
79
47
62
46
7
8
13
7
8
13
7
8
13
6
7
12
7
6
11
7
8
10
82
98
66
143
126
74
210
173
112
139
99
58
144
114
101
223
203
185
241
222
195
240
221
193
234
212
183
226
202
169
196
172
141
161
139
113
155
131
103
153
128
98
154
130
99
140
115
84
150
120
85
160
128
90
167
136
100
133
110
83
72
60
47
18
16
16
2
2
2
0
0
0
0
0
0
0
0
0
0
0
0
0
0
0
0
0
0
3
3
3
9
9
9
3
3
3
10
10
10
1
1
1
0
0
0
0
0
0
0
0
0
0
0
0
0
0
0
0
0
0
0
0
0
0
0
0
0
0
0
0
0
0
0
0
0
0
0
0
0
0
0
0
0
0
0
0
0
0
0
0
0
0
0
0
0
0
0
0
0
0
0
0
0
0
0
0
0
0
0
0
0
0
0
0
126
102
69
114
90
57
125
104
72
135
112
81
148
125
93
148
125
93
146
121
89
135
114
82
151
130
99
144
123
91
120
97
63
131
108
76
130
107
77
132
111
79
148
125
93
152
127
95
156
133
100
159
136
105
160
136
104
162
138
108
168
146
118
168
146
118
159
136
108
156
137
114
157
141
117
154
138
116
144
128
106
137
121
98
138
119
99
123
107
84
141
123
107
131
115
93
133
117
96
126
110
87
123
106
84
125
109
86
121
104
83
123
107
86
123
106
85
124
108
85
124
108
87
124
107
85
132
115
97
133
118
99
126
111
92
121
106
87
118
104
86
107
90
72
170
140
106
182
144
100
170
139
105
180
153
122
184
155
121
202
172
137
232
205
170
237
212
178
247
229
206
244
227
206
207
177
148
98
65
46
154
102
38
186
148
80
132
118
59
116
125
73
26
35
30
7
8
13
7
7
12
6
7
12
6
5
10
49
66
48
139
136
99
181
157
113
203
158
98
107
73
48
174
146
130
236
219
200
245
232
213
237
218
192
232
209
179
218
193
162
210
187
156
170
143
110
127
103
74
124
101
71
141
116
85
135
112
83
126
99
68
157
127
89
155
124
89
131
106
79
83
69
57
12
10
9
0
0
0
0
0
0
0
0
0
0
0
0
0
0
0
0
0
0
8
8
8
11
11
11
12
12
12
12
12
12
2
2
2
0
0
0
0
0
0
0
0
0
0
0
0
0
0
0
0
0
0
0
0
0
0
0
0
0
0
0
0
0
0
0
0
0
0
0
0
0
0
0
0
0
0
0
0
0
0
0
0
0
0
0
0
0
0
0
0
0
0
0
0
0
0
0
0
0
0
0
0
0
0
0
0
0
0
0
128
103
73
117
92
60
116
92
57
115
91
59
125
103
70
144
122
87
138
113
79
125
101
70
140
120
89
143
122
93
148
127
96
138
116
85
145
121
91
144
119
88
127
102
70
126
102
70
140
117
85
136
112
78
138
113
78
150
126
91
156
133
100
162
139
108
156
134
106
151
131
103
150
130
106
153
136
115
141
124
101
129
111
87
123
104
82
105
85
62
125
109
88
123
107
84
131
116
93
128
112
90
127
110
88
124
108
83
123
106
84
117
101
77
118
102
78
126
109
91
124
109
85
127
112
90
123
107
87
135
119
101
121
106
87
118
105
85
120
106
89
109
92
73
172
135
90
167
125
77
169
134
94
179
145
107
171
139
102
191
158
118
219
190
153
229
202
166
236
211
177
230
201
166
161
125
94
108
75
53
71
42
21
198
141
64
183
153
92
143
130
73
117
119
67
45
52
35
15
19
19
21
24
21
62
71
52
129
125
86
176
153
107
214
178
120
147
104
63
134
102
85
214
193
174
243
230
212
243
230
212
234
217
194
220
196
165
199
171
135
176
144
108
160
127
89
119
94
65
87
68
49
101
79
54
131
105
76
142
115
84
149
120
86
137
108
74
128
103
73
109
90
71
26
22
19
1
1
1
0
0
0
0
0
0
0
0
0
6
6
6
5
5
5
12
12
12
7
7
7
7
7
7
1
1
1
0
0
0
0
0
0
0
0
0
0
0
0
0
0
0
0
0
0
0
0
0
0
0
0
0
0
0
0
0
0
0
0
0
0
0
0
0
0
0
0
0
0
0
0
0
0
0
0
0
0
0
0
0
0
0
0
0
0
0
0
0
0
0
0
0
0
0
0
0
0
0
0
0
0
0
0
0
0
148
128
94
135
115
83
125
103
75
126
104
72
123
100
68
138
116
83
138
115
83
156
133
101
138
118
86
135
114
83
145
124
93
155
132
102
149
124
95
150
126
94
158
135
103
158
133
102
143
119
85
147
122
89
143
119
83
137
112
77
145
121
89
146
121
91
149
127
99
150
128
101
143
122
93
140
122
99
149
132
112
142
125
105
123
106
82
111
91
65
116
100
75
123
106
86
124
107
85
133
116
94
131
114
92
123
107
83
125
108
86
122
106
82
125
109
84
126
109
90
122
106
85
127
112
91
122
107
86
128
113
96
122
107
88
117
102
83
120
104
87
107
92
72
183
138
82
172
123
67
176
134
84
193
155
107
180
144
100
183
146
101
198
160
114
218
184
141
219
184
142
210
169
122
118
82
53
111
75
55
80
52
37
103
58
23
210
156
86
207
167
99
174
145
78
154
135
67
125
123
71
129
123
70
155
134
78
176
146
92
217
173
112
178
134
85
127
95
75
203
181
163
246
233
216
242
228
210
229
211
189
218
194
165
194
165
132
183
154
118
163
132
97
160
130
93
168
143
111
109
89
67
50
40
32
89
74
56
137
115
87
151
126
96
130
105
74
125
100
71
116
96
73
34
28
24
2
2
2
0
0
0
1
1
1
7
7
7
10
10
10
12
12
12
9
9
9
10
10
10
2
2
2
0
0
0
0
0
0
0
0
0
0
0
0
0
0
0
0
0
0
0
0
0
0
0
0
0
0
0
0
0
0
0
0
0
0
0
0
0
0
0
0
0
0
0
0
0
0
0
0
0
0
0
0
0
0
0
0
0
0
0
0
0
0
0
0
0
0
0
0
0
0
0
0
0
0
0
0
0
0
0
0
0
155
133
107
152
131
102
139
118
87
140
120
90
137
116
85
137
113
81
140
118
86
140
119
87
146
124
92
141
118
87
143
122
90
153
130
99
156
132
102
143
120
88
146
124
92
152
129
99
154
130
99
146
123
90
147
122
89
150
125
93
146
121
87
147
122
91
145
125
95
144
124
97
146
126
98
134
115
89
140
123
102
144
128
108
125
105
80
112
91
66
108
89
64
125
107
85
117
98
75
124
107
85
132
116
93
135
118
95
126
110
88
128
112
90
124
108
87
123
106
87
120
104
83
127
112
92
122
107
86
124
108
91
118
103
84
116
101
81
117
103
85
109
94
75
190
138
75
189
136
75
196
144
81
200
153
93
190
147
96
188
150
103
192
154
108
206
170
125
202
159
107
163
115
67
98
70
49
121
90
72
124
83
61
115
79
57
114
69
34
181
127
62
220
170
101
213
167
95
206
166
99
211
172
104
217
171
105
206
158
95
164
120
79
161
133
113
218
200
183
246
233
217
240
226
207
223
204
178
196
169
136
195
165
127
169
137
102
178
147
112
159
129
93
169
140
105
173
145
111
105
84
60
52
41
32
73
59
42
128
107
80
168
143
114
148
122
92
126
101
72
117
96
72
33
27
21
1
1
1
0
0
0
5
5
5
9
9
9
8
8
8
10
10
10
11
11
11
1
1
1
0
0
0
0
0
0
0
0
0
0
0
0
0
0
0
0
0
0
0
0
0
0
0
0
0
0
0
0
0
0
0
0
0
0
0
0
0
0
0
0
0
0
0
0
0
0
0
0
0
0
0
0
0
0
0
0
0
0
0
0
0
0
0
2
2
2
1
1
1
4
4
4
0
0
0
0
0
0
0
0
0
0
0
0
122
98
66
127
103
71
137
115
86
140
120
92
150
129
102
148
126
96
134
114
81
141
119
88
147
124
97
137
115
86
132
110
82
140
120
90
150
130
101
150
130
100
140
119
86
141
117
85
143
120
88
148
127
93
147
123
88
139
115
79
141
117
83
144
119
87
149
125
97
142
121
94
141
121
96
136
118
92
138
119
93
129
111
88
129
111
87
122
101
76
115
94
68
124
106
82
113
95
71
114
96
71
130
114
89
137
122
99
131
115
92
130
114
91
128
112
92
126
110
87
117
101
79
123
106
88
122
107
87
114
101
82
114
99
79
109
92
72
109
94
75
108
93
73
193
138
73
202
147
81
201
145
81
209
158
95
194
146
86
180
136
84
178
139
91
187
148
101
190
144
89
155
110
65
62
46
37
112
88
74
148
111
88
194
151
118
201
169
141
164
134
108
168
129
92
179
135
88
198
155
107
195
153
105
196
161
122
198
172
146
227
209
190
245
229
209
242
228
208
223
205
182
200
176
148
168
140
109
173
143
109
178
146
106
162
132
97
153
123
88
155
126
91
159
131
98
152
122
87
114
94
69
74
61
45
58
47
36
76
61
44
139
115
87
153
128
97
118
96
70
96
78
58
19
16
14
2
2
2
0
0
0
3
3
3
10
10
10
9
9
9
9
9
9
1
1
1
0
0
0
0
0
0
0
0
0
0
0
0
0
0
0
0
0
0
0
0
0
0
0
0
0
0
0
0
0
0
0
0
0
0
0
0
0
0
0
0
0
0
0
0
0
0
0
0
0
0
0
0
0
0
0
0
0
0
0
0
0
0
0
0
0
0
9
9
9
8
8
8
10
10
10
2
2
2
0
0
0
0
0
0
0
0
0
117
92
62
120
97
65
121
100
69
132
111
82
141
122
94
146
127
98
146
127
97
143
122
91
148
125
95
155
134
103
141
120
89
130
109
78
132
112
80
143
122
93
139
118
87
141
120
88
133
110
78
138
115
83
146
124
93
158
135
105
150
125
95
140
117
87
137
114
84
135
114
85
137
117
90
139
121
97
139
120
98
136
119
97
136
118
94
124
104
78
125
103
76
121
103
78
122
104
78
118
98
72
116
96
70
131
115
93
138
123
101
129
112
90
126
110
89
133
119
97
121
104
82
115
98
77
126
109
91
113
96
78
112
97
77
107
90
68
106
89
68
104
88
66
197
142
77
207
151
87
211
158
96
209
157
95
197
146
85
190
140
78
171
125
70
180
139
89
185
140
85
148
103
58
79
59
41
63
48
38
130
90
61
203
161
125
241
218
194
247
231
210
246
233
213
243
228
209
245
232
214
245
232
213
247
234
215
244
229
206
243
227
202
224
200
168
203
177
145
172
146
116
165
135
102
147
121
92
149
120
88
138
109
79
146
115
80
137
106
71
147
120
89
165
137
103
146
118
86
149
128
102
121
102
78
86
70
53
73
59
45
112
94
74
145
120
91
130
106
79
101
81
58
21
16
12
1
1
1
6
6
6
3
3
3
1
1
1
9
9
9
3
3
3
0
0
0
0
0
0
0
0
0
0
0
0
0
0
0
0
0
0
0
0
0
0
0
0
0
0
0
0
0
0
0
0
0
0
0
0
0
0
0
0
0
0
0
0
0
0
0
0
0
0
0
0
0
0
0
0
0
0
0
0
0
0
0
0
0
0
1
1
1
7
7
7
11
11
11
14
14
14
9
9
9
1
1
1
0
0
0
0
0
0
149
129
104
138
120
94
131
113
86
128
107
78
128
106
77
127
106
75
130
110
81
148
127
98
139
119
89
139
119
91
152
132
106
143
120
91
129
106
77
130
108
75
143
120
89
143
120
91
151
126
96
144
121
89
140
117
84
136
113
78
146
125
94
147
126
97
139
120
88
131
110
81
126
102
74
128
106
82
132
111
89
143
125
104
146
130
113
132
115
93
127
108
83
122
104
78
126
106
80
123
103
77
115
96
68
123
106
80
131
116
93
133
117
95
120
104
78
133
117
99
127
111
90
114
97
71
124
108
87
117
102
83
114
97
78
105
89
66
105
87
63
105
87
65
186
133
77
204
151
92
206
153
94
204
155
101
194
143
85
184
133
73
170
122
66
170
126
72
160
119
69
156
108
57
100
69
42
48
34
25
94
69
45
179
132
88
231
200
166
242
225
204
248
236
219
245
232
213
247
234
215
241
224
202
229
208
179
216
191
159
189
158
124
167
139
107
177
149
118
164
136
106
130
105
78
139
112
81
131
103
71
142
110
73
124
94
60
133
102
66
151
120
85
150
121
86
147
122
92
165
141
113
146
120
88
121
95
64
77
59
40
92
74
54
135
111
82
142
118
88
119
97
70
34
28
22
6
6
6
11
11
11
9
9
9
1
1
1
0
0
0
0
0
0
0
0
0
0
0
0
0
0
0
0
0
0
0
0
0
0
0
0
0
0
0
0
0
0
0
0
0
0
0
0
0
0
0
0
0
0
0
0
0
0
0
0
0
0
0
0
0
0
0
0
0
0
0
0
0
0
0
0
0
0
0
0
0
0
0
0
5
5
5
9
9
9
4
4
4
9
9
9
0
0
0
0
0
0
0
0
0
0
0
0
136
120
93
139
119
91
134
114
88
121
102
74
128
106
79
128
108
79
127
106
76
119
98
68
130
109
79
133
112
82
132
112
83
134
114
85
138
119
90
150
131
102
152
131
103
154
132
104
149
129
97
151
128
96
159
135
105
156
132
102
144
121
90
136
115
85
140
120
91
137
117
86
128
107
77
120
97
69
118
97
67
116
94
63
120
98
72
138
120
97
135
117
95
138
120
96
131
112
86
126
107
79
128
108
81
126
108
82
130
113
89
137
121
98
129
111
87
122
105
83
135
120
100
123
108
84
113
97
72
127
108
88
119
103
81
108
92
69
107
89
67
105
89
65
194
144
89
207
155
97
206
155
97
199
147
92
197
146
89
177
129
77
167
119
68
161
116
63
119
83
43
147
105
60
128
87
48
61
40
26
105
78
52
166
126
86
222
184
141
233
208
177
240
219
191
232
209
180
216
186
149
170
137
102
173
142
110
169
142
113
159
133
104
152
128
101
149
125
97
143
115
83
135
108
77
148
115
78
133
105
72
130
101
67
126
97
65
153
121
85
135
106
71
137
110
77
171
147
118
199
180
155
169
144
114
128
104
74
94
72
47
74
57
39
118
97
70
128
106
79
87
71
54
51
44
36
14
14
14
13
13
13
11
11
11
2
2
2
0
0
0
0
0
0
0
0
0
0
0
0
0
0
0
0
0
0
0
0
0
0
0
0
0
0
0
0
0
0
0
0
0
0
0
0
0
0
0
0
0
0
0
0
0
0
0
0
0
0
0
0
0
0
0
0
0
0
0
0
0
0
0
0
0
0
1
1
1
9
9
9
11
11
11
12
12
12
11
11
11
1
1
1
0
0
0
0
0
0
0
0
0
0
0
0
137
120
94
140
121
93
134
114
86
132
112
87
118
96
69
116
95
64
125
103
72
123
102
71
112
90
60
130
108
76
124
102
72
129
110
83
140
120
93
140
119
90
146
125
97
154
133
105
155
133
104
153
130
102
145
123
91
149
128
98
153
134
104
147
125
95
135
111
80
129
106
76
134
113
84
131
112
83
123
102
74
118
94
63
114
89
58
117
97
67
126
108
80
132
114
88
141
122
99
137
119
95
131
113
87
130
113
87
135
119
97
132
118
96
138
121
101
130
113
91
128
113
91
137
119
98
118
102
77
122
107
87
123
106
87
117
100
78
110
92
68
107
90
68
187
136
82
196
141
83
199
149
96
198
144
88
199
148
94
180
132
83
156
107
59
147
99
47
130
89
44
118
85
50
129
91
54
100
67
36
120
91
62
177
143
107
186
150
110
209
174
135
212
184
152
192
161
124
189
159
125
173
149
121
177
153
124
149
126
101
151
127
100
162
138
109
157
129
96
142
119
92
138
114
85
137
111
79
132
102
66
116
89
57
136
104
64
148
118
80
161
130
93
165
136
101
189
169
142
205
185
160
180
155
126
139
114
82
110
87
60
97
74
49
85
67
46
102
82
59
94
80
62
32
27
24
11
11
11
5
5
5
1
1
1
0
0
0
0
0
0
0
0
0
0
0
0
0
0
0
0
0
0
0
0
0
0
0
0
0
0
0
0
0
0
0
0
0
0
0
0
0
0
0
0
0
0
0
0
0
0
0
0
0
0
0
0
0
0
0
0
0
0
0
0
0
0
0
0
0
0
6
6
6
6
6
6
9
9
9
7
7
7
7
7
7
1
1
1
0
0
0
0
0
0
0
0
0
0
0
0
0
0
0
130
113
87
121
105
78
129
111
85
121
101
76
129
112
84
136
113
83
130
109
76
130
109
76
131
107
76
120
99
69
114
94
61
120
94
65
108
84
54
132
110
82
150
129
100
147
124
94
148
125
95
157
136
105
160
139
109
144
124
92
148
127
98
154
133
104
145
121
91
130
107
75
119
96
66
125
104
74
127
105
78
127
104
78
115
92
62
118
97
67
123
102
73
130
110
83
136
120
95
137
121
96
136
116
91
132
115
89
134
115
91
135
119
95
135
119
94
133
116
94
133
116
95
134
118
97
127
110
90
122
104
84
126
110
89
117
101
80
112
95
73
110
93
71
191
142
93
202
152
99
195
145
97
193
141
87
190
140
91
180
131
82
149
102
57
148
98
47
133
91
47
131
98
63
152
114
75
141
98
55
134
104
72
171
135
99
180
144
106
182
152
118
178
150
116
173
142
107
160
132
101
173
145
113
171
143
112
165
138
106
159
132
102
170
139
104
134
107
75
147
117
81
143
113
78
111
84
53
126
97
64
120
95
66
126
100
71
152
124
91
166
134
98
177
153
123
205
186
161
209
189
161
193
171
142
176
152
123
162
137
105
137
113
81
92
76
54
97
79
60
94
79
61
31
28
25
13
13
13
2
2
2
0
0
0
0
0
0
0
0
0
0
0
0
0
0
0
0
0
0
0
0
0
0
0
0
0
0
0
0
0
0
0
0
0
0
0
0
0
0
0
0
0
0
0
0
0
0
0
0
0
0
0
0
0
0
0
0
0
0
0
0
0
0
0
1
1
1
7
7
7
10
10
10
10
10
10
9
9
9
10
10
10
2
2
2
0
0
0
0
0
0
0
0
0
0
0
0
0
0
0
0
0
0
113
93
67
123
103
74
123
104
77
119
99
73
114
95
69
114
95
66
121
102
73
132
111
83
120
98
67
127
104
76
132
109
77
116
92
62
123
98
66
128
102
67
123
102
71
140
119
89
143
119
88
140
117
83
150
128
96
153
132
104
140
120
87
137
116
86
138
118
89
143
120
91
139
115
89
131
107
77
123
100
72
116
93
65
115
96
69
120
98
69
125
103
73
126
103
74
128
108
80
128
110
84
135
117
92
130
110
84
132
112
88
135
118
96
134
118
95
131
115
90
130
113
91
135
120
100
139
123
106
127
110
91
125
112
92
121
108
88
117
104
84
117
102
83
189
142
99
184
136
95
182
136
95
190
141
95
191
143
100
177
131
90
161
116
75
139
91
43
134
91
46
123
90
58
171
131
88
148
102
56
152
117
82
159
124
90
169
134
96
178
149
114
180
152
122
184
156
125
164
136
104
147
120
89
162
132
97
161
131
99
164
136
103
154
125
92
142
110
73
127
99
67
110
82
49
131
100
62
120
91
58
142
115
82
137
110
77
164
134
99
173
148
119
202
184
160
218
200
178
217
198
175
196
172
141
189
167
138
162
141
113
154
131
102
113
91
66
98
80
59
103
86
65
33
28
23
3
3
3
0
0
0
0
0
0
0
0
0
0
0
0
0
0
0
0
0
0
0
0
0
0
0
0
0
0
0
0
0
0
0
0
0
0
0
0
0
0
0
0
0
0
0
0
0
0
0
0
0
0
0
0
0
0
0
0
0
0
0
0
0
0
0
0
0
0
7
7
7
8
8
8
8
8
8
10
10
10
10
10
10
1
1
1
0
0
0
0
0
0
0
0
0
0
0
0
0
0
0
0
0
0
0
0
0
115
98
72
104
84
56
112
93
63
120
100
73
126
106
79
123
104
74
113
94
66
130
112
84
120
100
69
112
88
62
130
107
75
132
109
79
132
109
77
137
113
79
133
108
72
132
111
78
148
125
93
148
125
93
146
124
91
154
131
99
149
127
98
142
119
90
130
107
74
132
108
76
129
106
76
132
111
81
124
103
74
120
99
71
119
97
72
122
102
76
122
102
74
120
97
70
123
104
75
124
104
77
129
110
83
134
116
88
131
111
83
128
109
82
133
116
90
134
118
93
129
113
88
127
111
86
130
115
93
131
116
97
128
112
94
121
105
85
107
90
67
110
92
71
169
130
99
178
134
101
171
129
94
163
121
87
145
112
88
125
96
79
118
89
66
132
91
54
144
94
45
135
96
59
162
126
84
184
143
95
166
129
89
173
140
106
164
132
97
168
137
102
176
145
109
174
147
115
174
147
117
166
136
101
155
126
93
162
133
100
162
131
93
145
115
79
132
102
66
110
82
51
121
92
57
138
108
72
124
98
67
123
98
69
124
97
66
134
110
80
174
154
128
205
187
163
211
194
171
205
183
156
184
157
125
179
153
122
176
153
124
156
133
103
142
119
91
108
87
65
81
68
53
20
16
13
0
0
0
0
0
0
0
0
0
0
0
0
0
0
0
0
0
0
0
0
0
0
0
0
0
0
0
0
0
0
0
0
0
0
0
0
0
0
0
0
0
0
0
0
0
0
0
0
0
0
0
0
0
0
0
0
0
0
0
0
0
0
0
0
0
0
0
0
0
3
3
3
8
8
8
7
7
7
8
8
8
1
1
1
0
0
0
0
0
0
0
0
0
0
0
0
0
0
0
0
0
0
0
0
0
0
0
0
104
86
60
116
97
71
125
105
78
117
96
63
111
89
60
125
102
77
121
100
69
123
102
70
144
124
99
138
119
91
131
110
81
121
98
66
126
103
71
138
113
82
149
126
96
155
132
101
146
123
93
147
124
94
153
130
102
155
134
105
145
124
95
138
116
85
132
110
78
132
108
76
132
108
74
130
105
73
125
101
71
122
100
72
111
89
63
114
91
62
117
96
67
120
96
68
120
99
70
125
100
69
123
100
68
126
105
73
129
107
78
126
106
79
130
112
86
133
117
93
127
111
87
127
111
87
125
109
86
126
110
90
125
110
91
123
108
89
110
92
69
108
90
65
151
113
95
147
110
92
141
103
87
156
111
92
163
114
91
157
105
80
107
65
44
88
59
37
152
105
59
174
128
84
189
149
103
223
189
147
185
143
101
186
152
115
179
148
116
195
162
124
185
153
116
166
138
105
158
131
99
137
113
85
140
116
87
129
100
69
139
108
73
122
95
63
138
110
78
132
106
76
141
111
74
144
115
82
161
132
97
164
137
102
149
123
93
179
159
135
211
195
176
217
200
181
213
195
172
209
189
165
188
163
133
187
163
133
185
161
132
179
155
126
165
138
105
129
105
78
87
72
56
21
16
13
0
0
0
0
0
0
0
0
0
0
0
0
0
0
0
0
0
0
0
0
0
0
0
0
0
0
0
0
0
0
0
0
0
0
0
0
0
0
0
0
0
0
0
0
0
0
0
0
0
0
0
0
0
0
0
0
0
0
0
0
0
0
0
1
1
1
7
7
7
4
4
4
2
2
2
9
9
9
2
2
2
0
0
0
0
0
0
0
0
0
0
0
0
0
0
0
0
0
0
0
0
0
0
0
0
0
0
0
133
117
90
118
100
73
109
87
60
116
94
69
123
102
75
115
94
63
117
98
70
136
116
89
125
105
76
125
105
76
126
108
80
142
125
95
148
128
98
142
117
86
128
106
75
132
111
81
140
121
91
144
121
91
149
126
96
156
135
105
155
134
105
148
125
97
145
122
92
131
106
74
125
101
67
125
100
67
126
102
70
125
102
70
125
104
73
123
100
70
123
98
67
125
102
72
125
102
72
126
105
74
131
110
79
132
112
83
133
114
84
128
108
79
129
109
82
132
115
89
129
113
88
127
109
83
127
111
86
126
110
87
126
110
88
123
108
88
120
103
81
118
101
81
184
114
81
190
126
100
191
129
102
192
123
91
189
122
89
181
114
81
161
95
61
105
63
39
121
81
45
171
126
84
202
159
111
224
192
154
217
182
143
202
167
127
189
154
117
180
147
109
171
137
97
176
144
107
149
119
83
130
104
72
140
111
77
114
87
55
109
81
50
98
70
40
108
81
49
117
90
60
139
109
74
139
110
74
155
128
97
183
158
128
193
173
149
190
170
146
198
179
156
208
190
167
210
190
165
197
174
146
182
154
120
185
161
133
193
171
145
199
178
152
175
151
121
147
123
95
76
63
51
20
17
13
1
1
1
0
0
0
0
0
0
0
0
0
0
0
0
0
0
0
0
0
0
0
0
0
0
0
0
0
0
0
0
0
0
0
0
0
0
0
0
0
0
0
0
0
0
0
0
0
0
0
0
0
0
0
0
0
0
0
0
0
0
0
0
7
7
7
11
11
11
7
7
7
1
1
1
0
0
0
0
0
0
0
0
0
0
0
0
0
0
0
0
0
0
0
0
0
0
0
0
0
0
0
0
0
0
0
0
0
129
112
87
138
120
94
129
109
81
119
98
71
115
94
66
113
92
66
117
99
73
144
125
102
136
118
88
130
109
80
127
109
81
128
111
84
135
116
88
147
127
96
142
120
88
133
111
80
131
109
79
138
115
84
141
118
87
148
127
95
157
136
107
151
132
104
143
122
94
142
119
88
132
107
75
122
98
65
126
102
70
125
101
69
122
101
70
128
107
77
129
105
76
130
107
76
132
109
78
131
109
78
136
114
83
137
116
86
137
116
87
137
118
91
133
114
88
128
110
82
127
110
85
125
108
82
122
103
77
119
103
76
118
101
75
119
102
78
117
101
79
113
97
74
177
91
50
187
99
60
190
106
65
191
115
76
155
95
59
86
49
32
118
70
46
109
70
47
116
77
44
202
163
123
220
182
140
219
179
133
230
201
164
227
196
159
215
185
148
198
165
125
185
151
113
157
125
89
152
125
90
152
123
88
135
107
73
127
100
67
121
94
61
139
108
72
129
101
67
134
108
76
153
126
95
173
151
124
194
172
147
192
170
145
193
172
148
196
174
148
200
177
149
204
183
156
204
185
160
191
166
137
177
146
113
176
150
120
185
164
137
186
165
138
165
142
114
150
129
104
88
73
56
29
24
18
7
7
5
1
1
1
0
0
0
0
0
0
0
0
0
0
0
0
0
0
0
0
0
0
0
0
0
0
0
0
0
0
0
0
0
0
0
0
0
0
0
0
0
0
0
0
0
0
0
0
0
0
0
0
2
2
2
7
7
7
9
9
9
10
10
10
13
13
13
11
11
11
1
1
1
0
0
0
0
0
0
0
0
0
0
0
0
0
0
0
0
0
0
0
0
0
0
0
0
0
0
0
0
0
0
0
0
0
111
92
67
122
103
78
125
105
80
118
100
71
119
95
64
119
100
76
112
94
72
97
76
48
105
86
61
121
103
77
138
121
97
146
128
104
149
131
107
152
134
108
149
129
102
149
129
100
143
121
93
140
117
86
139
116
84
139
116
83
149
127
96
148
128
97
150
128
99
145
124
95
143
121
92
135
115
87
135
114
86
134
114
86
132
112
83
128
107
78
131
109
82
128
107
76
132
112
79
136
115
83
135
114
82
135
114
81
135
114
83
132
113
83
129
110
81
125
105
78
122
103
76
124
104
77
121
100
73
116
97
70
114
95
68
114
95
68
115
97
73
114
96
72
159
76
36
170
82
43
176
84
43
173
100
61
50
29
20
28
18
16
66
47
39
145
113
88
207
175
139
233
209
183
239
216
188
232
199
160
230
196
155
225
194
156
216
186
148
208
177
138
192
158
118
174
141
102
178
147
109
165
137
102
137
109
76
122
96
65
126
98
64
99
75
47
102
77
50
99
73
49
100
77
54
135
108
78
156
131
103
173
148
120
182
156
127
180
151
118
180
149
113
191
161
125
196
167
131
199
171
137
180
151
116
181
160
135
182
162
137
183
164
139
157
135
107
131
111
87
89
76
62
19
16
14
2
2
2
0
0
0
0
0
0
0
0
0
0
0
0
0
0
0
0
0
0
0
0
0
0
0
0
0
0
0
0
0
0
0
0
0
0
0
0
0
0
0
0
0
0
0
0
0
0
0
0
0
0
0
1
1
1
9
9
9
10
10
10
10
10
10
4
4
4
1
1
1
0
0
0
0
0
0
0
0
0
0
0
0
0
0
0
0
0
0
0
0
0
0
0
0
0
0
0
0
0
0
0
0
0
0
0
0
122
101
73
112
91
60
117
93
65
127
103
77
119
101
75
119
97
73
125
102
72
124
101
70
112
89
56
112
89
57
116
95
64
130
108
81
136
117
90
149
131
105
147
128
101
145
125
96
147
126
97
149
130
100
150
130
101
150
126
96
139
118
87
143
122
91
148
126
95
142
119
89
136
115
84
134
113
83
145
123
97
147
127
102
143
124
98
135
116
88
136
115
88
139
119
92
140
121
93
142
123
94
144
125
98
144
124
97
138
119
91
133
115
89
130
110
85
122
104
76
120
99
70
118
98
71
121
100
73
117
96
67
113
92
63
109
88
59
111
90
64
112
92
67
144
66
31
148
70
39
159
75
38
152
96
67
48
28
23
107
89
81
180
164
151
225
212
197
242
229
212
246
235
222
243
232
217
239
220
195
232
201
164
229
196
155
183
148
110
102
79
56
171
137
100
182
147
108
203
174
138
199
172
138
169
140
106
148
123
93
133
105
74
121
99
73
123
101
76
124
99
73
109
84
57
113
85
57
123
91
56
142
107
67
161
126
89
154
123
89
154
119
81
165
129
89
180
146
107
183
152
116
187
157
120
186
165
139
191
172
149
171
149
121
137
113
85
135
113
85
96
80
62
37
30
22
6
4
3
0
0
0
0
0
0
0
0
0
0
0
0
0
0
0
0
0
0
0
0
0
0
0
0
0
0
0
0
0
0
0
0
0
0
0
0
0
0
0
0
0
0
0
0
0
1
1
1
1
1
1
9
9
9
11
11
11
10
10
10
11
11
11
1
1
1
0
0
0
0
0
0
0
0
0
0
0
0
0
0
0
0
0
0
0
0
0
0
0
0
0
0
0
0
0
0
0
0
0
0
0
0
0
0
0
139
119
93
136
115
85
129
105
72
130
103
71
161
142
121
127
105
74
129
107
79
128
107
76
127
106
73
121
100
69
128
104
76
133
112
83
139
116
86
140
117
85
141
122
92
150
129
100
148
128
99
141
120
89
144
124
91
155
132
104
148
127
95
145
124
94
138
117
88
139
118
87
136
115
86
134
111
80
133
112
82
136
117
86
140
120
93
137
117
89
133
111
81
132
110
80
136
116
87
139
118
90
142
122
92
143
126
99
140
124
99
133
114
89
128
108
81
123
103
77
117
97
69
115
96
67
119
97
69
114
92
64
111
89
60
112
91
61
115
94
66
116
95
68
131
61
37
121
57
40
141
70
44
150
100
80
90
66
57
184
169
161
230
221
212
242
236
229
244
237
228
246
240
232
242
232
221
231
209
183
226
198
165
200
165
125
187
156
121
176
148
117
171
141
107
191
157
118
188
150
107
203
174
141
198
175
144
163
142
118
162
143
121
163
145
124
170
153
133
174
155
134
165
143
119
155
133
108
157
133
108
154
126
96
148
117
83
147
112
74
137
101
63
159
122
80
168
134
97
178
150
118
191
166
135
199
181
159
197
179
157
173
150
121
136
112
82
131
108
81
102
83
60
38
28
21
2
2
2
0
0
0
0
0
0
0
0
0
0
0
0
0
0
0
0
0
0
0
0
0
0
0
0
0
0
0
0
0
0
0
0
0
0
0
0
0
0
0
0
0
0
1
1
1
9
9
9
5
5
5
11
11
11
7
7
7
7
7
7
2
2
2
0
0
0
0
0
0
0
0
0
0
0
0
0
0
0
0
0
0
0
0
0
0
0
0
0
0
0
0
0
0
0
0
0
0
0
0
0
0
0
0
0
0
136
118
91
141
122
93
139
120
94
172
157
144
139
117
85
135
114
84
136
115
86
138
117
88
129
108
80
132
112
82
130
111
81
126
107
75
128
107
76
137
114
82
132
110
78
126
103
72
135
115
84
138
116
85
138
117
86
144
123
93
153
133
108
152
133
105
143
123
93
133
113
83
127
106
77
126
105
74
131
110
80
132
113
85
137
118
94
137
118
93
136
117
90
136
116
86
138
118
88
149
129
100
139
118
88
136
117
87
131
112
85
130
113
87
132
115
89
127
109
84
121
103
78
122
101
76
119
98
70
115
93
64
112
91
60
109
88
57
111
90
61
113
92
65
103
53
39
96
48
40
116
59
48
114
75
65
125
106
97
219
211
204
240
234
228
239
233
227
242
237
229
245
237
228
240
230
218
191
161
131
199
165
126
140
107
73
101
75
50
159
129
97
86
65
46
112
87
61
138
106
74
162
132
100
194
173
148
168
152
133
173
155
136
176
160
141
183
168
152
187
173
159
184
168
151
181
164
145
182
163
143
186
165
143
184
163
140
172
146
119
156
130
102
162
132
100
174
143
109
176
150
120
188
167
142
195
176
151
184
161
134
161
138
110
146
126
104
138
120
97
130
111
88
64
51
38
5
5
4
0
0
0
0
0
0
0
0
0
0
0
0
0
0
0
0
0
0
0
0
0
0
0
0
0
0
0
0
0
0
0
0
0
0
0
0
0
0
0
0
0
0
1
1
1
9
9
9
12
12
12
10
10
10
9
9
9
2
2
2
0
0
0
0
0
0
0
0
0
0
0
0
0
0
0
0
0
0
0
0
0
0
0
0
0
0
0
0
0
0
0
0
0
0
0
0
0
0
0
0
0
0
0
0
0
143
123
96
147
125
98
178
160
141
138
120
87
136
117
85
134
114
79
130
109
78
133
114
85
127
110
83
131
113
87
132
112
86
128
108
79
134
112
82
131
106
75
136
114
85
144
119
89
146
121
88
140
117
85
132
111
78
132
111
78
131
110
78
134
113
84
134
114
88
134
114
87
133
113
88
126
106
83
128
107
80
125
106
76
120
97
67
117
95
63
121
99
70
133
110
80
140
119
88
152
134
107
145
124
101
143
125
102
140
122
98
135
117
93
133
113
88
127
112
85
129
112
87
127
110
88
125
109
86
122
106
79
120
100
73
117
97
70
116
94
69
113
94
69
69
37
29
79
44
41
80
42
34
82
58
51
173
160
153
233
228
223
240
234
227
239
232
224
239
231
223
245
238
230
242
232
222
233
219
204
232
212
188
206
178
146
185
158
129
193
166
136
159
134
107
159
134
106
135
109
81
141
113
83
201
185
165
217
207
195
211
200
187
202
187
171
194
178
160
185
165
145
176
155
131
184
164
142
181
161
139
176
153
127
180
156
128
175
150
120
156
126
90
150
117
78
167
136
102
185
159
130
191
169
144
190
165
137
156
127
94
129
106
78
117
97
73
146
126
99
122
104
84
69
62
54
37
37
37
26
27
27
21
23
23
15
15
17
6
6
7
2
2
2
1
1
1
2
2
3
5
5
6
8
8
10
8
8
9
6
6
6
3
3
3
2
2
2
5
5
5
2
2
2
10
10
10
7
7
7
10
10
10
0
0
0
0
0
0
0
0
0
0
0
0
0
0
0
0
0
0
0
0
0
0
0
0
0
0
0
0
0
0
0
0
0
0
0
0
0
0
0
0
0
0
0
0
0
0
0
0
0
0
0
139
119
93
143
126
102
149
133
112
154
136
110
145
125
99
132
111
81
131
110
80
128
107
80
133
114
86
130
112
85
144
122
98
140
121
91
141
120
91
144
123
94
136
113
83
133
110
79
141
119
86
143
118
86
142
120
87
138
117
84
131
109
76
125
102
70
121
100
71
116
96
67
118
98
72
119
101
76
126
109
86
125
106
80
123
104
78
122
100
72
118
97
66
127
106
75
140
119
90
146
126
102
151
135
111
150
134
110
140
123
99
133
116
92
125
107
83
119
99
73
115
96
69
117
99
73
122
104
80
122
104
80
125
107
83
124
106
82
114
96
70
113
95
69
52
31
26
56
32
30
49
26
23
123
106
99
214
207
203
228
222
217
233
226
219
238
230
223
232
223
214
223
212
201
222
207
192
195
169
144
204
181
158
155
125
95
186
159
128
202
177
152
203
178
149
221
200
174
228
209
184
215
192
165
216
197
173
224
215
203
215
203
190
203
187
168
184
162
140
150
122
92
153
126
96
173
151
125
175
152
125
182
161
136
179
155
129
178
153
125
166
133
98
159
121
78
161
125
86
158
129
96
174
148
117
166
136
103
140
111
80
122
97
71
109
90
64
143
121
94
124
104
77
45
35
25
2
2
2
0
0
0
1
0
1
6
6
6
20
20
20
25
25
25
23
24
24
18
19
19
10
10
10
1
1
1
0
0
0
0
0
0
0
0
0
4
4
4
13
13
13
12
12
12
10
10
10
9
9
9
1
1
1
0
0
0
0
0
0
0
0
0
0
0
0
0
0
0
0
0
0
0
0
0
0
0
0
0
0
0
0
0
0
0
0
0
0
0
0
0
0
0
0
0
0
0
0
0
0
0
0
0
0
0
124
107
82
142
129
107
143
123
96
144
126
103
154
135
111
146
127
99
133
114
86
131
112
84
133
114
85
135
116
87
144
124
98
151
132
103
150
131
102
151
131
100
155
133
105
154
132
103
144
123
93
147
123
91
141
117
85
125
104
72
125
104
74
127
106
75
123
100
70
119
96
66
117
94
65
105
81
55
111
89
65
114
93
70
114
94
70
119
99
74
125
105
79
133
111
81
136
115
84
140
121
92
144
126
100
140
125
101
142
126
102
135
121
98
128
112
89
119
101
76
115
95
67
114
94
65
113
93
63
116
96
66
118
98
71
121
101
77
118
99
74
118
100
76
100
78
70
48
25
23
86
66
59
184
173
168
212
204
199
210
199
192
208
196
187
225
217
210
228
222
215
231
223
214
220
207
194
216
199
181
198
179
160
171
142
114
181
154
127
137
110
83
101
78
55
173
148
123
178
149
120
223
201
174
232
213
188
227
215
201
216
206
193
204
188
172
198
178
156
185
162
137
180
155
130
179
158
135
188
169
146
187
165
139
183
157
129
178
151
120
176
145
111
151
113
72
143
104
60
140
107
69
138
107
73
129
100
67
144
120
89
137
115
88
118
96
70
144
120
91
132
109
82
63
50
37
13
11
9
0
0
0
0
0
0
0
0
0
0
0
0
0
0
0
0
0
0
0
0
0
0
0
0
0
0
0
0
0
0
0
0
0
0
0
0
1
1
1
10
10
10
10
10
10
7
7
7
1
1
1
0
0
0
0
0
0
0
0
0
0
0
0
0
0
0
0
0
0
0
0
0
0
0
0
0
0
0
0
0
0
0
0
0
0
0
0
0
0
0
0
0
0
0
0
0
0
0
0
0
0
0
0
0
0
152
138
121
122
101
74
125
106
78
131
112
85
148
129
101
148
127
99
144
123
95
142
121
92
135
115
84
137
116
84
142
119
89
151
128
100
156
135
107
160
140
114
162
140
113
158
138
109
152
131
100
145
124
94
147
125
97
144
123
94
128
105
75
119
97
66
125
104
73
131
110
80
127
107
77
121
98
68
116
93
64
110
90
61
106
86
57
111
91
63
117
97
72
123
105
79
133
115
86
133
115
87
127
107
81
125
105
81
128
111
87
131
115
92
123
108
85
128
112
87
119
99
75
113
95
67
110
92
63
115
96
66
116
96
70
115
98
72
115
98
71
116
98
73
136
116
108
54
38
34
122
101
92
182
169
164
189
174
168
210
199
193
217
208
201
209
198
190
218
208
201
233
227
221
233
226
218
239
233
227
235
226
218
226
210
194
210
189
167
134
107
80
140
116
90
140
115
90
144
122
100
198
176
154
219
201
180
222
208
190
212
200
185
199
184
169
198
182
165
190
173
157
186
168
149
176
154
130
159
133
104
173
147
118
175
147
119
177
149
119
168
137
103
155
123
88
150
118
82
154
125
92
145
116
84
142
115
83
138
113
84
117
94
68
118
96
70
123
99
70
118
96
70
50
40
32
32
28
22
13
11
9
0
0
0
0
0
0
0
0
0
0
0
0
0
0
0
0
0
0
0
0
0
0
0
0
0
0
0
0
0
0
0
0
0
0
0
0
4
4
4
8
8
8
0
0
0
0
0
0
0
0
0
0
0
0
0
0
0
0
0
0
0
0
0
0
0
0
0
0
0
0
0
0
0
0
0
0
0
0
0
0
0
0
0
0
0
0
0
0
0
0
0
0
0
0
0
0
0
0
0
0
0
0
113
86
59
118
98
69
124
103
74
123
102
71
132
111
82
146
123
95
145
124
93
140
119
88
136
116
83
137
114
82
140
115
82
137
115
84
143
122
92
152
132
105
158
136
108
157
136
107
147
126
95
135
114
83
133
112
81
138
118
86
142
121
90
134
113
82
124
103
73
129
108
79
133
114
84
129
110
80
125
106
76
119
102
72
115
94
65
116
95
65
119
99
71
131
111
86
133
115
88
129
112
85
123
103
79
118
98
75
116
100
75
124
106
82
123
103
80
122
104
80
126
108
82
118
100
74
114
94
67
115
95
67
117
97
70
118
100
74
118
101
74
118
100
74
137
120
113
54
41
38
118
97
90
164
147
140
193
181
178
202
191
186
208
199
193
192
178
170
203
191
183
192
180
169
209
198
190
199
185
173
209
196
186
225
216
207
230
218
206
217
200
181
213
198
180
188
170
149
185
160
133
167
141
109
184
163
141
204
192
179
192
179
168
206
196
184
199
187
174
190
174
157
184
165
147
172
150
127
162
135
104
147
115
79
162
127
92
171
145
117
180
155
129
184
158
130
180
157
133
158
131
104
145
116
85
143
117
88
123
99
72
91
71
48
81
65
44
122
101
75
116
93
65
74
59
43
14
11
9
2
2
2
0
0
0
0
0
0
0
0
0
0
0
0
0
0
0
0
0
0
0
0
0
0
0
0
0
0
0
0
0
0
0
0
0
0
0
0
0
0
0
1
1
1
0
0
0
0
0
0
0
0
0
0
0
0
0
0
0
0
0
0
0
0
0
0
0
0
0
0
0
0
0
0
0
0
0
0
0
0
0
0
0
0
0
0
0
0
0
0
0
0
0
0
0
0
0
0
0
0
0
0
0
0
101
83
56
104
84
55
117
94
64
116
93
61
114
91
59
116
91
61
122
98
66
136
111
79
142
119
86
140
116
82
139
115
81
141
117
83
141
119
87
152
130
99
158
137
107
155
134
105
148
126
96
147
124
92
137
115
82
135
113
83
138
119
90
135
116
87
133
113
84
136
115
86
133
111
82
134
113
84
132
110
82
128
104
76
129
108
79
135
114
85
138
118
89
140
122
94
137
120
94
131
115
91
127
109
85
116
99
75
117
101
76
134
116
92
129
109
86
115
97
73
117
101
74
118
102
76
118
100
75
118
98
73
116
98
72
119
103
78
120
102
78
119
101
75
99
86
80
39
30
29
107
92
87
156
139
134
183
170
165
199
188
184
204
195
190
215
208
202
214
207
201
206
198
193
206
198
191
179
164
152
179
166
155
188
177
166
139
117
96
184
167
151
213
200
186
215
199
182
223
209
192
211
190
166
195
177
156
175
162
150
185
174
164
200
187
175
206
195
183
196
185
170
186
166
145
189
170
148
166
143
118
163
139
113
171
144
115
179
157
134
184
166
142
177
154
128
164
135
103
147
121
90
150
124
96
140
116
90
133
110
82
125
103
76
133
111
86
135
112
84
135
114
87
73
60
43
11
8
7
0
0
0
0
0
0
0
0
0
0
0
0
0
0
0
0
0
0
0
0
0
0
0
0
0
0
0
0
0
0
0
0
0
0
0
0
0
0
0
0
0
0
0
0
0
0
0
0
0
0
0
0
0
0
0
0
0
0
0
0
0
0
0
0
0
0
0
0
0
0
0
0
0
0
0
0
0
0
0
0
0
0
0
0
0
0
0
0
0
0
0
0
0
0
0
0
0
0
0
0
0
0
0
0
0
130
111
87
121
101
76
114
94
66
116
95
64
118
97
66
122
101
70
124
98
67
129
104
73
131
108
75
136
114
79
140
117
83
145
122
89
149
127
93
150
128
94
158
135
103
159
136
107
154
130
101
151
129
101
143
121
91
142
120
91
147
127
100
149
129
104
150
130
104
142
122
96
142
120
92
132
112
83
127
105
78
123
104
77
127
107
79
129
108
81
133
113
89
136
118
94
132
114
90
131
115
91
141
125
102
138
121
99
127
111
87
118
103
76
116
101
74
126
111
87
123
108
84
115
99
74
115
100
73
119
101
78
121
102
78
125
109
85
124
106
81
121
103
77
56
42
39
35
20
17
70
59
56
130
116
112
165
150
147
187
175
172
200
191
186
210
203
199
215
209
204
215
210
205
222
216
211
221
215
208
207
198
191
184
173
163
174
159
145
152
135
118
115
95
75
184
163
139
201
181
159
211
194
172
216
201
182
201
190
179
188
176
165
185
172
159
194
180
163
190
174
154
187
171
152
191
176
162
191
178
165
196
182
168
189
174
157
170
150
126
176
156
133
172
152
127
168
143
114
164
140
113
155
130
104
139
118
93
134
114
90
122
102
77
125
105
80
149
127
100
129
111
90
58
47
34
3
2
3
0
0
0
0
0
0
0
0
0
0
0
0
0
0
0
0
0
0
0
0
0
0
0
0
0
0
0
0
0
0
0
0
0
0
0
0
0
0
0
0
0
0
0
0
0
0
0
0
0
0
0
0
0
0
0
0
0
0
0
0
0
0
0
0
0
0
0
0
0
0
0
0
0
0
0
0
0
0
0
0
0
0
0
0
0
0
0
0
0
0
0
0
0
0
0
0
0
0
0
0
0
0
0
0
0
125
107
83
131
113
89
129
111
87
122
103
77
121
100
72
129
106
76
129
106
75
131
106
74
140
116
85
140
117
85
135
113
80
143
120
88
144
122
89
150
127
95
159
136
106
165
143
114
156
134
106
149
128
97
143
123
91
145
122
91
149
126
97
148
125
97
151
132
107
155
135
111
156
138
111
144
124
99
131
110
83
127
107
78
121
101
74
124
103
76
124
104
79
124
106
80
126
107
84
124
107
81
130
113
90
135
121
98
132
118
96
127
112
87
131
115
88
125
108
84
123
105
83
120
104
80
107
89
63
115
97
73
117
99
75
126
110
86
127
111
86
126
109
85
84
65
56
85
65
58
86
69
62
108
94
91
144
133
130
166
154
148
190
180
175
190
180
175
196
187
183
198
192
187
189
180
172
209
203
196
220
216
210
196
187
179
202
191
181
189
176
162
125
105
83
120
99
75
161
141
117
193
176
158
193
179
165
190
178
166
191
178
165
193
181
169
197
185
174
208
199
189
188
174
160
174
157
138
172
157
140
165
148
129
178
160
141
179
164
145
177
159
140
160
140
116
165
144
119
152
131
105
126
105
80
137
117
92
144
122
96
135
113
85
138
117
91
170
146
119
144
123
98
76
63
48
1
1
1
0
0
0
0
0
0
0
0
0
0
0
0
0
0
0
0
0
0
0
0
0
0
0
0
0
0
0
0
0
0
0
0
0
0
0
0
0
0
0
0
0
0
0
0
0
0
0
0
0
0
0
0
0
0
0
0
0
0
0
0
0
0
0
0
0
0
0
0
0
0
0
0
0
0
0
0
0
0
0
0
0
0
0
0
0
0
0
0
0
0
0
0
0
0
0
0
0
0
0
0
0
0
0
0
0
122
102
75
128
106
79
126
106
78
126
106
80
125
106
78
116
97
69
129
106
77
135
112
81
129
108
75
132
109
79
147
126
97
145
124
93
142
121
90
149
128
97
158
136
107
164
144
117
167
149
123
162
143
117
157
136
109
149
125
95
144
121
91
149
126
96
146
125
94
143
121
91
142
124
97
149
133
108
135
118
92
129
109
82
121
102
74
125
104
77
127
106
79
131
111
84
132
114
89
123
105
82
122
104
80
128
110
86
122
106
82
139
125
102
142
127
106
123
108
83
109
93
69
115
99
75
107
91
66
111
93
67
116
99
71
124
103
80
121
106
77
122
104
78
126
106
100
133
115
111
134
119
115
128
113
109
128
116
112
150
140
137
177
168
165
191
183
179
195
188
184
192
183
179
188
180
174
185
178
171
184
175
168
193
184
177
204
195
186
208
198
187
208
197
184
155
133
109
170
154
136
204
196
188
192
182
173
185
172
160
180
164
148
185
172
159
189
177
165
186
174
160
184
171
156
190
179
167
177
162
145
169
153
135
170
156
140
160
140
117
151
132
108
176
159
139
189
174
159
168
152
133
123
103
79
134
114
89
145
123
97
137
115
87
138
117
91
152
131
104
123
103
78
53
42
33
2
2
2
0
0
0
0
0
0
0
0
0
0
0
0
0
0
0
0
0
0
0
0
0
0
0
0
0
0
0
0
0
0
0
0
0
0
0
0
0
0
0
0
0
0
0
0
0
0
0
0
0
0
0
0
0
0
0
0
0
0
0
0
0
0
0
0
0
0
0
0
0
0
0
0
0
0
0
0
0
0
0
0
0
0
0
0
0
0
0
0
0
0
0
0
0
0
0
0
0
0
0
0
0
0
0
0
0
124
102
75
115
92
64
117
95
66
120
100
70
129
107
77
128
108
81
130
109
81
122
99
69
134
112
81
137
116
85
134
113
82
138
116
86
144
121
90
149
127
94
148
125
94
149
128
99
152
131
103
155
135
107
155
134
106
146
126
97
137
116
85
134
114
83
149
129
101
147
126
98
143
123
92
133
112
83
122
104
77
126
108
82
130
110
84
133
114
88
136
117
92
133
114
88
127
109
84
128
111
87
123
102
79
114
96
71
118
100
76
135
120
98
137
123
101
125
111
88
129
112
90
121
105
81
108
89
65
123
107
84
122
104
80
126
109
83
124
107
83
124
108
81
157
141
136
153
135
132
161
145
142
152
137
132
147
135
131
135
124
120
142
133
130
160
151
147
175
166
162
188
182
178
187
180
176
169
161
154
165
154
145
136
122
110
165
151
138
195
183
171
193
179
165
204
195
184
196
187
178
198
191
184
206
199
193
186
176
165
183
170
156
178
166
152
181
169
157
177
165
149
167
151
134
165
148
130
181
167
152
187
173
158
167
149
128
170
154
136
163
145
126
167
150
130
153
134
110
141
123
101
159
143
124
164
149
131
147
130
107
121
101
76
135
115
89
143
123
97
93
77
57
52
43
34
4
4
3
0
0
0
0
0
0
0
0
0
0
0
0
0
0
0
0
0
0
0
0
0
0
0
0
0
0
0
0
0
0
0
0
0
0
0
0
0
0
0
0
0
0
0
0
0
0
0
0
0
0
0
0
0
0
0
0
0
0
0
0
0
0
0
0
0
0
0
0
0
0
0
0
0
0
0
0
0
0
0
0
0
0
0
0
0
0
0
0
0
0
0
0
0
0
0
0
0
0
0
3
3
3
8
8
8
132
112
85
123
103
75
114
91
61
109
87
54
118
93
62
122
99
69
127
108
80
134
113
83
122
100
68
122
100
68
135
112
80
138
115
83
136
113
81
143
122
89
154
131
101
156
135
106
153
132
102
146
125
95
151
130
100
147
128
99
142
123
94
134
114
86
137
119
92
153
132
105
153
133
103
143
121
90
131
109
78
126
103
74
125
105
76
130
111
85
132
114
90
129
112
88
125
109
85
116
100
75
115
95
70
111
94
68
115
97
73
122
106
82
131
117
94
134
119
97
138
122
103
131
116
94
113
98
73
122
108
83
123
108
84
123
105
81
131
114
90
133
117
92
175
161
158
178
165
162
185
174
171
182
170
169
171
159
156
151
139
135
143
133
129
144
134
132
144
135
132
167
159
156
177
171
167
165
157
150
188
179
172
163
148
133
163
149
132
172
159
145
187
176
166
201
196
191
203
197
192
203
198
193
214
209
202
203
197
189
187
178
168
179
166
153
173
160
145
166
150
133
158
137
114
155
135
112
160
140
116
158
134
106
175
154
130
189
174
156
182
166
150
173
157
140
148
129
107
129
110
88
134
112
86
122
103
79
142
124
102
151
134
112
163
147
127
151
133
108
107
89
68
40
33
24
4
4
3
0
0
0
0
0
0
0
0
0
0
0
0
0
0
0
0
0
0
0
0
0
0
0
0
0
0
0
0
0
0
0
0
0
0
0
0
0
0
0
0
0
0
0
0
0
0
0
0
0
0
0
0
0
0
0
0
0
0
0
0
0
0
0
0
0
0
0
0
0
0
0
0
0
0
0
0
0
0
0
0
0
0
0
0
0
0
0
0
0
0
0
0
0
2
2
2
2
2
2
11
11
11
5
5
5
127
109
83
126
108
81
129
109
81
121
98
68
110
87
55
112
90
57
117
92
59
115
92
60
131
111
79
140
119
86
132
110
77
133
112
79
139
116
84
142
119
87
145
122
90
147
126
96
157
136
108
154
133
106
149
128
99
146
124
91
136
114
81
135
114
86
133
114
88
139
123
98
149
133
108
150
132
107
134
114
87
134
112
83
126
105
76
125
104
76
132
112
87
125
109
83
118
102
77
117
102
79
109
90
64
105
86
63
105
89
64
106
88
64
107
89
65
106
90
66
110
93
73
117
98
81
135
118
98
130
114
91
121
103
82
121
104
80
128
113
88
133
117
92
184
172
167
190
178
175
195
185
182
188
178
176
188
180
176
174
166
161
164
155
151
152
142
139
150
140
137
161
153
150
173
165
162
164
155
149
178
169
162
170
160
152
186
179
170
185
176
168
194
190
184
193
187
183
205
201
198
203
198
192
207
202
196
215
210
205
197
189
180
172
158
143
167
150
132
161
142
120
160
139
115
158
134
109
157
136
111
168
148
125
159
138
113
167
150
130
181
166
150
180
168
154
159
144
127
132
113
90
155
131
102
127
105
80
119
100
76
135
115
90
167
147
124
176
160
140
136
121
102
56
46
34
2
2
1
0
0
0
3
3
3
4
4
4
8
8
8
0
0
0
0
0
0
0
0
0
0
0
0
0
0
0
0
0
0
0
0
0
0
0
0
0
0
0
0
0
0
0
0
0
0
0
0
0
0
0
0
0
0
0
0
0
0
0
0
0
0
0
0
0
0
0
0
0
0
0
0
0
0
0
0
0
0
0
0
0
0
0
0
0
0
0
0
0
0
4
4
4
8
8
8
13
13
13
8
8
8
12
12
12
113
93
66
135
115
91
125
105
72
120
98
65
119
97
64
121
99
69
126
103
69
131
109
74
124
100
68
124
98
65
122
101
68
142
121
90
146
123
92
143
120
88
156
132
100
154
132
99
155
134
104
149
127
98
142
120
91
138
116
87
144
123
94
145
123
94
140
116
88
139
119
91
141
122
94
147
130
108
143
126
103
130
112
83
127
108
80
133
113
86
129
110
84
116
98
72
113
94
71
109
90
67
105
87
63
108
90
66
103
85
60
100
83
58
102
84
60
99
81
55
108
90
66
112
96
71
124
108
83
120
102
80
125
109
87
131
115
91
135
118
94
130
112
88
192
181
178
201
193
190
200
191
188
193
185
182
191
183
179
184
176
172
177
169
166
166
157
154
163
155
152
165
158
154
169
162
159
181
175
170
183
178
173
182
177
174
194
190
186
198
193
188
203
199
195
192
186
181
200
196
191
188
181
173
202
194
188
177
164
151
205
197
188
178
165
150
160
143
123
161
144
124
160
141
119
162
143
123
165
146
124
156
138
118
174
159
143
170
153
133
164
145
122
127
110
87
158
143
126
176
164
149
157
137
114
136
119
99
133
114
89
153
130
103
156
135
110
145
124
97
123
104
81
99
88
77
35
34
34
0
0
0
2
2
2
12
12
12
12
12
12
8
8
8
5
5
5
0
0
0
0
0
0
0
0
0
0
0
0
0
0
0
0
0
0
0
0
0
0
0
0
0
0
0
0
0
0
0
0
0
0
0
0
0
0
0
0
0
0
0
0
0
0
0
0
0
0
0
0
0
0
0
0
0
0
0
0
0
0
0
0
0
0
0
0
0
3
3
3
10
10
10
5
5
5
9
9
9
12
12
12
3
3
3
117
96
66
122
102
77
132
111
85
128
106
75
115
93
60
115
93
61
125
102
70
130
107
74
130
109
77
137
116
81
134
111
79
140
120
91
150
129
98
148
126
94
146
123
91
152
129
97
149
128
97
151
129
98
141
118
88
124
102
72
135
112
83
144
120
92
146
124
93
140
120
92
140
121
92
135
119
93
143
126
107
134
117
92
119
99
72
122
102
76
134
116
91
129
111
87
121
103
79
112
94
70
108
90
66
106
88
64
107
89
64
100
83
56
101
83
59
104
86
60
111
93
69
113
96
72
122
106
81
124
106
81
138
122
98
138
122
97
140
124
100
141
125
102
193
184
180
201
194
192
203
198
195
199
191
188
188
180
177
186
178
175
187
181
177
179
173
170
173
167
163
174
167
163
178
174
170
181
177
173
191
187
184
187
184
179
192
188
183
200
194
188
192
183
175
179
167
155
190
182
172
180
167
155
170
153
135
184
169
155
170
151
130
196
184
173
169
154
136
158
141
123
156
141
126
157
144
129
166
154
141
168
154
138
174
157
139
167
146
122
141
121
97
132
112
88
136
117
92
127
107
82
158
141
122
139
122
102
106
88
64
134
113
87
164
140
113
141
119
91
123
102
76
62
50
37
42
38
34
46
45
43
9
10
10
5
5
5
13
13
13
7
7
7
1
1
1
0
0
0
0
0
0
0
0
0
0
0
0
0
0
0
0
0
0
0
0
0
0
0
0
0
0
0
0
0
0
0
0
0
0
0
0
0
0
0
0
0
0
0
0
0
0
0
0
0
0
0
0
0
0
0
0
0
0
0
0
0
0
0
0
0
0
0
0
0
2
2
2
12
12
12
10
10
10
11
11
11
3
3
3
0
0
0
126
108
83
122
100
73
126
105
76
130
110
83
134
113
85
126
104
72
122
99
65
128
105
71
132
111
79
130
109
78
138
118
87
144
123
91
141
121
90
146
125
94
150
129
98
148
126
95
141
118
88
138
114
84
141
120
89
127
103
71
119
95
62
125
101
68
132
109
76
139
119
91
139
122
94
137
119
94
140
123
98
140
124
100
136
117
93
136
117
93
128
113
89
129
115
92
122
107
86
110
93
69
111
92
70
109
91
67
107
89
65
102
84
58
94
76
51
101
79
55
117
97
72
110
92
67
112
96
70
121
101
80
139
122
99
139
125
100
136
120
96
141
125
101
183
175
171
193
186
182
196
191
188
195
189
186
190
184
181
189
184
181
190
185
182
184
179
176
180
175
172
180
175
171
185
182
179
188
184
182
186
182
178
183
177
170
175
164
156
197
188
181
175
165
154
176
164
154
176
161
147
178
165
151
166
148
128
181
164
147
168
149
128
177
161
144
193
183
173
166
152
137
160
145
130
165
152
137
176
164
150
183
169
156
173
156
135
156
138
118
146
128
106
130
111
88
126
108
84
142
121
97
136
117
92
142
126
108
141
127
111
125
105
81
168
144
114
136
115
88
122
103
79
65
51
38
5
4
3
12
12
12
57
56
55
11
11
11
9
9
9
2
2
2
0
0
0
0
0
0
0
0
0
0
0
0
0
0
0
0
0
0
0
0
0
0
0
0
0
0
0
0
0
0
0
0
0
0
0
0
0
0
0
0
0
0
0
0
0
0
0
0
0
0
0
0
0
0
0
0
0
0
0
0
0
0
0
0
0
0
0
0
0
2
2
2
2
2
2
1
1
1
8
8
8
8
8
8
0
0
0
0
0
0
139
123
100
131
112
88
122
100
72
128
107
78
132
111
82
134
114
85
129
108
79
124
103
72
127
107
75
131
112
81
130
109
79
135
114
83
144
123
93
149
128
97
138
117
87
143
123
91
141
122
91
129
106
75
121
100
68
128
105
73
133
110
78
127
105
72
134
112
79
141
118
88
138
117
84
137
118
88
135
115
89
130
112
88
137
121
96
132
114
90
130
111
84
133
115
91
129
113
92
122
105
85
103
86
64
99
82
58
101
83
59
101
81
56
102
82
56
99
79
52
103
82
55
108
86
62
126
108
82
123
102
78
130
113
91
134
118
95
123
107
84
129
113
88
178
170
167
184
177
174
191
185
182
193
188
185
188
182
179
186
181
177
188
183
180
185
180
177
182
177
174
182
178
175
187
183
180
188
184
181
183
176
171
183
175
167
171
158
146
203
196
191
178
169
160
194
187
181
177
168
158
185
175
164
168
155
142
166
152
137
184
174
163
166
153
138
186
175
165
187
178
168
163
149
134
165
150
135
176
162
147
175
158
140
169
151
131
144
126
105
155
137
114
165
148
126
147
129
106
130
110
84
130
109
83
127
108
83
136
119
97
162
147
128
161
141
117
143
124
99
124
107
84
79
67
53
23
22
19
9
9
9
12
12
12
41
40
40
21
20
20
0
0
0
0
0
0
0
0
0
0
0
0
0
0
0
0
0
0
0
0
0
0
0
0
0
0
0
0
0
0
0
0
0
0
0
0
0
0
0
0
0
0
0
0
0
0
0
0
0
0
0
0
0
0
0
0
0
0
0
0
0
0
0
0
0
0
0
0
0
2
2
2
11
11
11
10
10
10
2
2
2
1
1
1
1
1
1
0
0
0
0
0
0
126
107
81
133
113
87
135
115
87
129
106
79
131
109
78
134
111
82
124
105
75
127
105
75
122
100
69
124
103
71
130
109
77
142
121
90
143
122
91
146
125
94
140
120
89
133
113
83
136
117
87
127
103
75
123
102
71
116
93
63
126
103
71
133
110
78
130
109
76
138
117
87
141
119
89
138
117
87
135
116
89
132
114
90
131
115
90
134
117
93
130
112
87
131
113
89
130
113
90
126
109
88
117
100
80
109
93
70
102
85
61
95
77
51
98
79
53
101
81
55
106
84
57
112
91
64
127
109
83
130
110
85
135
118
93
146
130
106
130
113
88
130
114
89
177
170
166
182
177
173
188
183
180
190
186
183
188
184
181
186
182
179
183
179
176
181
177
174
181
177
174
181
177
173
181
176
172
179
172
167
178
169
161
179
170
161
166
154
140
191
184
176
187
179
171
197
192
186
180
172
162
181
172
163
168
158
147
169
158
148
176
166
155
176
166
156
164
153
140
187
177
168
178
166
154
156
140
121
165
149
128
166
148
129
157
139
117
132
112
88
154
134
111
166
146
122
148
128
104
136
116
91
128
108
82
117
98
74
112
92
68
139
117
91
162
147
129
148
132
111
131
115
94
81
68
53
36
32
26
9
9
9
10
10
10
1
1
1
26
26
25
22
22
21
0
0
0
0
0
0
0
0
0
0
0
0
0
0
0
0
0
0
0
0
0
0
0
0
0
0
0
0
0
0
0
0
0
0
0
0
0
0
0
0
0
0
0
0
0
0
0
0
0
0
0
0
0
0
0
0
0
0
0
0
4
4
4
4
4
4
7
7
7
13
13
13
11
11
11
5
5
5
0
0
0
0
0
0
0
0
0
0
0
0
123
103
75
119
99
70
117
99
69
131
114
86
138
121
91
132
113
84
130
111
79
122
99
67
126
105
76
131
109
80
124
102
71
138
115
82
143
122
93
146
127
97
138
117
86
134
114
82
126
103
76
111
88
60
104
81
51
108
83
51
123
100
69
128
105
74
130
107
77
127
106
77
128
109
82
137
119
92
136
118
93
138
120
95
131
113
87
124
106
82
129
113
89
131
115
90
130
112
88
125
109
85
123
106
83
124
106
86
115
99
75
114
97
72
112
94
69
105
86
61
105
84
61
106
85
62
116
96
72
129
110
84
132
118
90
140
123
101
133
117
92
133
117
92
177
172
169
178
174
170
185
180
177
188
183
181
186
182
179
178
173
170
177
172
169
175
170
167
178
174
170
174
170
164
175
168
162
172
163
154
174
165
156
181
173
166
177
166
156
189
181
173
191
184
177
195
188
182
178
169
161
182
175
168
165
156
146
158
148
137
163
153
142
181
173
163
158
144
130
165
151
137
186
173
161
177
162
147
157
139
116
141
123
100
131
113
91
139
118
91
140
121
98
145
126
102
131
111
86
136
113
84
130
107
78
124
105
80
133
112
84
145
121
91
146
127
102
167
153
135
139
124
106
73
62
50
19
18
16
9
9
9
2
2
2
0
0
0
0
0
0
19
18
18
23
22
22
1
1
1
0
0
0
0
0
0
0
0
0
0
0
0
0
0
0
0
0
0
0
0
0
0
0
0
0
0
0
0
0
0
0
0
0
0
0
0
0
0
0
0
0
0
0
0
0
0
0
0
0
0
0
0
0
0
9
9
9
12
12
12
9
9
9
9
9
9
4
4
4
0
0
0
0
0
0
0
0
0
0
0
0
0
0
0
113
91
64
119
99
68
130
108
79
122
102
73
121
101
73
126
106
79
130
110
81
124
103
74
117
97
65
125
106
75
135
115
88
134
113
84
135
115
83
130
110
83
130
110
85
142
125
97
130
111
83
125
102
71
122
99
67
112
86
55
102
78
46
110
87
55
128
109
79
128
109
81
123
103
76
119
100
74
121
103
79
128
112
87
118
99
76
118
100
76
127
111
89
137
121
98
136
120
98
129
115
90
127
111
87
123
107
82
120
104
79
117
101
76
114
96
74
116
100
77
114
98
73
114
95
71
116
95
72
121
103
77
124
106
82
124
104
81
125
107
82
127
109
85
174
170
166
174
170
167
176
171
169
178
173
171
174
170
166
168
161
156
170
164
159
168
162
157
169
163
157
173
167
162
173
166
159
173
165
158
176
168
161
187
181
176
181
173
166
187
180
174
196
189
183
187
179
172
177
169
161
182
174
168
170
161
152
158
148
137
164
154
143
169
157
145
182
171
159
161
146
129
173
159
144
185
171
158
147
130
110
125
106
83
126
109
87
124
106
84
137
119
95
140
123
101
136
116
90
143
120
91
117
95
69
127
106
80
148
125
95
154
130
101
142
122
95
150
132
107
154
138
121
90
81
70
16
15
13
2
2
2
0
0
0
0
0
0
0
0
0
1
1
1
14
14
14
22
21
21
0
0
1
0
0
0
0
0
0
0
0
0
0
0
0
0
0
0
0
0
0
0
0
0
0
0
0
0
0
0
0
0
0
0
0
0
0
0
0
0
0
0
0
0
0
0
0
0
0
0
0
4
4
4
8
8
8
11
11
11
11
11
11
6
6
6
0
0
0
0
0
0
0
0
0
0
0
0
0
0
0
0
0
0
126
106
80
116
96
67
126
107
79
133
116
86
125
106
76
116
95
66
112
90
63
120
101
74
121
101
71
125
104
73
134
113
84
133
114
85
131
111
84
137
118
86
115
94
65
116
97
69
137
117
90
119
96
64
116
91
59
116
91
60
117
92
61
114
89
56
119
98
67
133
113
87
131
113
87
117
96
68
105
86
61
117
100
74
120
102
78
111
93
69
115
98
73
127
111
89
131
117
96
132
118
95
124
108
83
119
103
78
122
104
80
128
111
85
119
101
75
109
92
65
107
89
65
109
91
67
114
96
72
122
107
80
129
110
87
125
107
81
114
97
73
112
91
68
167
163
159
167
164
160
168
163
160
167
162
159
165
160
155
163
156
150
166
161
156
168
163
157
166
160
154
170
163
158
173
167
160
172
165
159
177
170
164
183
177
172
182
176
169
184
178
171
185
177
169
173
165
156
179
171
162
170
160
151
166
156
145
169
159
149
169
158
147
173
161
149
177
163
149
164
147
128
157
139
119
168
151
136
156
143
130
110
91
69
107
89
66
121
104
82
141
122
98
160
142
120
162
141
114
157
134
104
141
121
96
130
108
80
144
119
87
136
115
87
152
132
107
163
143
117
148
127
102
121
111
97
35
32
30
1
1
1
0
0
0
0
0
0
0
0
0
0
0
0
1
1
1
16
16
15
20
20
19
0
0
0
0
0
0
0
0
0
0
0
0
0
0
0
0
0
0
0
0
0
0
0
0
0
0
0
0
0
0
0
0
0
0
0
0
0
0
0
0
0
0
6
6
6
4
4
4
11
11
11
7
7
7
9
9
9
5
5
5
1
1
1
0
0
0
0
0
0
0
0
0
0
0
0
0
0
0
0
0
0
128
110
85
133
114
88
118
99
71
122
105
77
134
115
84
125
104
74
123
103
72
106
82
50
108
85
56
120
99
68
129
108
77
130
111
81
128
109
82
135
115
89
134
113
85
123
102
71
111
90
60
123
102
73
129
107
78
120
96
64
110
86
54
114
91
59
124
102
72
125
107
81
129
112
86
128
110
84
123
103
77
102
85
59
113
96
75
129
113
92
127
109
83
112
94
68
110
93
69
110
95
74
121
104
82
126
110
86
126
108
84
130
112
86
125
108
82
120
101
76
111
92
68
109
91
67
107
89
65
115
95
70
121
102
78
130
114
88
135
118
93
134
116
90
165
160
156
162
158
153
164
159
155
163
158
153
163
157
152
163
157
150
164
159
152
169
164
159
166
160
154
168
161
156
170
164
156
171
165
159
171
164
157
180
175
169
179
171
164
183
176
171
183
174
167
161
149
138
172
161
149
170
159
147
161
147
133
163
149
134
165
151
138
169
155
141
171
156
141
163
147
130
139
120
97
123
104
81
161
148
133
140
126
110
116
99
76
125
108
87
133
116
94
156
136
112
158
136
109
154
131
104
152
132
105
137
117
91
162
140
112
177
156
129
171
151
127
166
145
119
134
115
90
76
62
45
79
72
66
21
19
17
3
2
2
0
0
0
0
0
0
0
0
0
0
0
0
1
1
1
11
11
11
18
18
18
0
0
0
0
0
0
0
0
0
0
0
0
0
0
0
0
0
0
0
0
0
0
0
0
0
0
0
0
0
0
0
0
0
0
0
0
0
0
0
5
5
5
13
13
13
10
10
10
11
11
11
6
6
6
0
0
0
0
0
0
0
0
0
0
0
0
0
0
0
0
0
0
0
0
0
0
0
0
128
109
82
128
109
82
132
116
90
132
114
88
131
111
83
124
104
73
124
103
76
116
94
63
110
87
56
110
87
57
122
101
70
115
94
63
117
97
68
124
102
76
128
109
81
127
106
77
118
95
64
109
86
56
113
89
59
121
99
70
120
100
72
115
96
66
117
95
66
119
101
74
125
107
83
116
98
74
106
88
63
109
89
63
108
88
65
106
88
65
125
109
85
128
112
87
113
97
73
102
86
63
94
77
53
105
89
65
120
102
77
128
110
84
137
120
94
130
114
90
108
90
66
104
86
62
112
94
70
120
100
75
119
99
76
115
97
71
116
100
76
115
99
76
163
159
154
164
159
154
164
159
153
163
157
151
163
156
150
164
158
152
166
159
153
169
163
156
168
162
155
169
162
156
169
162
155
165
157
150
171
164
157
175
167
160
165
156
148
182
175
168
182
174
167
156
144
132
176
164
152
150
135
119
161
147
131
159
143
127
157
140
120
159
143
124
162
145
127
151
136
119
118
99
76
122
104
81
116
99
80
155
140
124
130
112
90
140
122
100
150
132
109
146
125
99
146
123
96
136
113
84
138
116
90
140
118
90
146
125
95
170
150
125
167
150
127
156
137
113
128
109
85
76
61
47
32
31
29
29
28
26
9
8
5
1
1
1
0
0
0
0
0
0
0
0
0
0
0
0
0
0
0
9
9
9
17
17
17
1
1
1
0
0
0
0
0
0
0
0
0
0
0
0
0
0
0
0
0
0
0
0
0
0
0
0
0
0
0
2
2
2
1
1
1
10
10
10
5
5
5
13
13
13
2
2
2
0
0
0
0
0
0
0
0
0
0
0
0
0
0
0
0
0
0
0
0
0
0
0
0
0
0
0
129
110
79
129
110
80
122
104
76
122
106
81
139
123
98
140
123
94
133
117
82
128
107
77
115
94
62
116
95
64
113
94
64
118
97
65
112
91
60
119
98
68
119
98
69
118
99
70
117
95
65
111
86
55
110
85
54
118
95
67
128
110
84
127
109
83
122
103
74
117
98
68
121
101
75
118
100
76
111
94
68
105
85
59
109
89
64
110
90
66
105
89
67
120
103
81
124
110
87
116
99
77
101
81
57
106
86
61
120
102
77
122
105
79
129
114
87
133
117
94
128
110
87
109
91
67
104
86
62
115
96
70
121
103
79
124
104
79
108
92
68
101
84
64
163
158
151
165
159
154
166
160
154
164
158
150
162
154
145
163
155
147
165
157
150
167
160
154
168
162
155
167
160
153
165
158
151
170
162
154
165
156
149
166
156
147
164
155
145
175
167
159
176
168
159
157
146
135
179
168
157
158
145
130
152
136
120
164
148
131
163
147
129
148
131
108
139
122
100
140
124
107
131
115
97
108
89
65
121
102
79
155
140
124
161
146
128
146
127
103
161
141
115
143
121
95
128
104
76
147
124
95
150
126
97
132
110
81
151
128
101
167
149
125
181
164
141
177
158
135
143
124
99
111
92
70
28
24
17
46
44
43
2
2
2
0
0
0
0
0
0
0
0
0
0
0
0
0
0
0
0
0
0
1
1
1
10
10
10
17
17
17
0
0
0
0
0
0
0
0
0
0
0
0
0
0
0
0
0
0
0
0
0
0
0
0
1
1
1
13
13
13
10
10
10
8
8
8
12
12
12
8
8
8
0
0
0
0
0
0
0
0
0
0
0
0
0
0
0
0
0
0
0
0
0
0
0
0
0
0
0
0
0
0
137
123
98
124
105
77
125
108
78
136
117
89
123
105
78
131
112
85
136
117
93
138
118
89
114
94
63
103
81
52
108
87
60
120
100
75
124
105
78
122
101
72
122
101
70
111
88
56
108
84
54
108
85
55
105
82
51
111
88
56
115
94
65
126
106
80
129
111
87
125
107
81
128
109
84
123
104
79
115
97
73
106
86
61
95
75
50
99
80
55
110
91
66
102
85
61
101
84
64
117
101
85
110
95
72
111
93
68
121
105
79
131
114
88
132
114
88
114
98
74
116
100
77
117
101
78
111
93
71
110
92
68
111
94
70
123
105
82
117
100
77
108
89
68
164
157
149
165
158
151
166
159
152
166
158
151
158
150
141
160
152
144
164
158
150
164
156
148
164
156
148
166
158
150
166
159
151
166
158
150
168
160
152
154
144
131
158
149
138
171
162
152
167
156
144
153
140
125
181
170
160
154
137
119
158
142
124
151
134
116
158
141
122
142
124
103
125
106
86
116
99
79
136
121
104
108
88
65
118
97
71
143
126
105
147
130
111
146
128
106
148
127
101
141
117
87
137
112
81
154
130
101
151
126
96
144
122
94
158
140
115
176
160
137
166
148
122
151
131
105
142
123
98
135
116
90
97
82
61
65
54
41
34
33
32
0
0
0
0
0
0
0
0
0
0
0
0
0
0
0
0
0
0
0
0
0
1
1
1
11
11
11
14
14
14
0
0
0
0
0
0
0
0
0
0
0
0
0
0
0
0
0
0
0
0
0
0
0
0
9
9
9
11
11
11
11
11
11
5
5
5
0
0
0
0
0
0
0
0
0
0
0
0
0
0
0
0
0
0
0
0
0
0
0
0
0
0
0
0
0
0
0
0
0
132
116
92
131
111
84
119
101
71
127
107
82
128
108
81
125
106
78
120
102
71
131
111
86
132
112
86
119
98
70
97
75
48
107
87
62
119
99
73
128
108
83
127
106
78
126
104
74
107
84
52
107
84
54
105
82
51
104
81
50
105
84
56
110
90
63
124
104
79
130
112
88
115
96
72
120
102
76
123
105
80
115
97
74
108
88
66
95
76
51
102
83
58
107
90
64
105
87
63
102
86
65
97
81
60
107
91
69
117
101
76
131
115
88
124
106
81
122
104
78
112
94
70
108
91
68
101
84
64
116
99
77
125
109
85
130
113
91
114
97
75
102
85
65
161
153
144
160
152
143
164
156
149
164
155
147
157
148
138
156
147
136
165
157
149
162
152
143
160
151
141
163
154
145
158
149
139
167
159
151
163
153
144
162
152
142
150
136
121
168
157
146
165
152
137
153
138
119
163
152
137
141
123
101
132
113
88
134
116
94
136
119
102
139
122
104
103
86
66
119
100
79
140
123
104
117
96
71
135
115
89
155
136
113
157
139
120
156
139
120
115
92
63
146
121
90
139
113
80
145
121
92
147
121
90
141
119
91
172
152
127
181
163
140
177
157
132
149
128
100
130
111
86
139
120
95
104
88
65
49
38
25
59
54
49
3
2
1
0
0
0
0
0
0
0
0
0
0
0
0
0
0
0
0
0
0
0
0
0
1
1
1
12
12
12
16
16
16
1
1
1
0
0
0
0
0
0
0
0
0
0
0
0
0
0
0
0
0
0
2
2
2
11
11
11
1
1
1
0
0
0
0
0
0
0
0
0
0
0
0
0
0
0
0
0
0
0
0
0
0
0
0
0
0
0
0
0
0
0
0
0
0
0
0
109
88
66
118
99
70
117
96
67
114
92
66
118
100
72
127
106
79
125
105
78
128
107
80
123
103
75
131
114
87
123
104
80
108
85
59
105
83
58
117
96
69
113
92
66
121
101
74
125
107
80
115
93
64
114
93
62
112
89
59
102
80
52
104
85
57
114
94
67
122
104
79
124
104
81
105
87
63
111
92
69
100
82
59
112
93
71
113
96
75
99
81
56
109
90
66
108
91
67
106
89
66
96
77
52
106
88
65
114
98
73
126
108
82
128
108
83
112
92
67
103
85
61
106
88
65
104
87
65
112
96
73
128
112
89
142
125
106
141
123
104
124
107
86
156
147
136
155
146
135
158
149
141
159
149
141
156
145
135
155
144
132
156
146
135
157
148
137
156
146
135
157
147
136
158
147
136
159
148
137
157
145
133
156
144
130
150
136
119
160
146
132
157
143
126
131
112
89
149
134
117
124
106
84
123
104
80
114
97
75
116
99
79
131
115
97
127
111
91
99
79
54
121
103
82
130
113
92
148
128
104
148
128
104
172
155
137
133
113
87
126
102
76
132
105
72
146
120
86
146
121
89
159
132
102
164
140
111
163
141
113
174
155
130
177
158
134
158
139
114
144
125
100
137
119
94
84
70
52
60
48
33
26
22
18
32
29
29
0
0
0
0
0
0
0
0
0
0
0
0
0
0
0
0
0
0
0
0
0
0
0
0
0
0
0
14
13
13
13
13
13
1
1
1
0
0
0
0
0
0
0
0
0
0
0
0
0
0
0
0
0
0
3
3
3
0
0
0
0
0
0
0
0
0
0
0
0
0
0
0
0
0
0
0
0
0
0
0
0
0
0
0
0
0
0
0
0
0
0
0
0
0
0
0
109
88
57
113
92
61
121
100
71
119
97
69
107
86
57
110
89
60
120
101
73
119
99
72
127
106
77
128
107
78
121
101
76
124
105
81
120
101
77
115
97
71
118
100
74
121
101
75
123
102
74
136
116
91
130
110
85
118
98
74
118
100
76
114
96
71
108
87
64
103
84
61
117
101
78
118
102
77
102
83
58
94
74
49
85
63
39
97
78
54
117
100
77
111
95
70
111
92
69
111
93
69
112
92
67
111
91
66
114
96
72
125
108
82
129
111
84
122
106
82
110
93
71
97
79
57
99
82
60
100
83
63
106
92
69
112
97
76
122
107
86
128
112
91
149
138
124
147
136
122
153
144
134
153
143
132
151
140
128
151
138
125
149
136
121
146
132
118
147
132
118
149
136
121
150
136
122
153
139
125
153
140
124
143
127
108
143
126
107
143
126
106
154
140
123
123
106
83
124
108
87
133
116
95
113
95
71
132
115
92
110
91
67
108
89
66
117
99
78
119
99
76
135
116
91
154
137
116
142
122
97
161
142
118
164
147
128
131
109
81
153
133
109
129
100
64
138
110
74
157
129
93
165
134
99
165
141
110
163
142
114
156
136
109
157
136
109
147
126
100
156
136
112
155
136
112
88
75
59
10
9
7
4
3
3
47
47
47
1
1
1
0
0
0
0
0
0
0
0
0
0
0
0
0
0
0
0
0
0
0
0
0
0
0
0
1
1
1
14
14
14
8
8
8
0
0
0
0
0
0
0
0
0
0
0
0
0
0
0
0
0
0
0
0
0
0
0
0
0
0
0
0
0
0
0
0
0
0
0
0
0
0
0
0
0
0
0
0
0
0
0
0
0
0
0
0
0
0
0
0
0
0
0
0
125
104
76
113
90
60
114
93
62
119
99
70
118
97
67
106
87
56
109
90
59
113
94
64
113
93
65
124
103
76
120
98
71
117
96
71
123
101
74
109
87
60
113
93
68
116
96
70
117
98
70
120
100
74
123
103
78
118
98
74
113
96
71
119
101
76
111
93
69
100
81
57
94
77
57
115
98
77
111
92
70
85
68
44
94
73
48
99
77
52
112
91
66
118
100
75
117
99
75
107
89
64
118
101
77
126
106
81
120
102
76
125
105
82
119
99
76
118
99
77
114
96
73
114
96
71
106
90
65
104
88
65
104
89
66
113
97
76
111
97
74
103
86
66
144
131
113
142
128
111
147
136
122
146
133
119
145
132
117
146
132
117
142
128
110
138
122
105
137
121
103
139
124
104
143
126
109
148
133
116
146
131
113
136
119
98
131
114
91
133
117
97
147
132
113
125
109
86
126
111
92
125
108
88
112
95
72
115
97
73
111
91
65
101
80
55
112
91
65
119
98
74
133
114
89
148
131
109
146
126
100
140
118
91
147
129
107
144
123
96
150
125
96
143
118
87
139
112
75
150
120
81
165
136
100
169
144
113
183
164
139
168
148
122
154
131
103
153
134
110
165
147
124
157
139
115
115
99
76
73
61
42
36
28
17
16
14
13
26
26
26
0
0
0
0
0
0
0
0
0
0
0
0
0
0
0
0
0
0
0
0
0
0
0
0
0
0
0
1
1
1
14
14
14
4
4
4
0
0
0
0
0
0
0
0
0
0
0
0
0
0
0
0
0
0
0
0
0
0
0
0
0
0
0
0
0
0
0
0
0
0
0
0
0
0
0
0
0
0
0
0
0
0
0
0
0
0
0
0
0
0
0
0
0
135
117
91
127
109
82
118
97
67
115
94
63
114
93
62
117
96
68
114
94
65
112
91
62
107
87
58
97
78
49
111
90
63
115
92
65
114
97
67
130
107
77
109
85
54
102
77
47
110
90
62
118
99
71
118
98
72
124
104
79
113
95
69
103
86
64
107
93
72
113
97
74
98
80
58
87
71
48
99
82
61
98
82
61
93
76
52
103
83
57
110
88
64
120
103
77
119
103
79
111
94
70
113
93
68
118
101
75
123
106
80
120
102
78
122
104
82
112
94
70
105
87
63
108
90
66
107
89
65
108
90
66
105
89
64
103
87
64
105
88
68
101
84
66
142
125
107
140
124
104
143
130
113
141
127
109
142
128
112
139
124
106
137
121
102
135
119
100
130
113
92
128
112
89
133
116
93
134
117
95
143
128
109
128
111
89
134
118
96
112
93
68
144
130
114
124
106
83
128
113
92
131
116
97
107
89
66
109
90
65
109
87
62
112
91
65
115
93
67
124
104
78
137
119
94
140
123
101
127
106
79
143
121
95
150
130
106
146
120
91
153
128
97
155
132
105
141
113
77
148
120
83
159
134
102
169
147
118
174
154
126
180
158
131
173
150
124
162
141
115
133
115
91
122
107
87
80
69
54
17
13
10
20
14
9
17
11
7
35
34
32
2
2
2
0
0
0
0
0
0
0
0
0
0
0
0
0
0
0
0
0
0
0
0
0
0
0
0
0
0
0
1
1
1
14
14
14
3
3
3
0
0
0
0
0
0
0
0
0
0
0
0
0
0
0
0
0
0
0
0
0
0
0
0
0
0
0
0
0
0
0
0
0
0
0
0
0
0
0
0
0
0
0
0
0
0
0
0
0
0
0
0
0
0
118
99
70
124
106
80
126
107
78
119
99
72
115
96
66
111
91
64
115
95
70
118
98
71
118
97
69
119
97
68
99
76
46
101
76
45
108
82
53
113
94
62
131
111
85
124
102
70
107
82
52
103
82
55
111
91
66
118
100
77
122
104
80
122
103
77
102
86
63
99
82
58
111
94
74
101
84
63
86
70
48
93
77
55
96
78
56
95
76
53
108
86
61
111
91
65
119
101
75
111
94
70
118
100
76
120
102
76
119
101
75
113
94
68
104
84
59
112
93
70
111
93
69
114
96
72
116
98
74
106
87
64
99
79
60
91
74
54
89
72
52
91
74
53
140
123
103
138
123
101
142
126
108
144
129
109
144
130
114
139
122
103
135
119
98
135
119
98
123
106
81
127
110
86
131
113
88
134
116
93
127
109
86
129
112
90
141
127
108
106
85
57
138
121
101
113
95
71
131
116
97
119
102
78
93
74
50
102
82
57
118
96
69
122
101
74
127
106
77
126
105
79
131
112
87
135
118
98
92
71
45
131
109
80
166
146
122
136
112
84
131
107
78
139
118
89
130
105
71
149
123
88
169
144
113
174
153
125
159
138
111
157
133
102
156
134
106
151
132
108
129
112
91
136
119
97
104
90
69
49
43
33
3
3
3
2
2
1
6
5
4
12
12
10
0
0
0
0
0
0
0
0
0
0
0
0
0
0
0
0
0
0
0
0
0
0
0
0
0
0
0
0
0
0
2
2
2
12
12
12
2
2
2
1
1
1
0
0
0
0
0
0
0
0
0
0
0
0
0
0
0
0
0
0
0
0
0
0
0
0
0
0
0
0
0
0
0
0
0
0
0
0
0
0
0
0
0
0
0
0
0
0
0
0
114
94
65
111
91
64
126
106
81
128
108
82
114
94
67
117
97
71
115
95
69
119
97
70
121
99
71
122
101
72
116
93
63
100
75
45
96
73
41
108
83
51
120
99
67
136
114
87
121
100
70
110
89
62
105
85
59
113
95
70
119
101
77
125
107
83
119
101
75
105
87
61
100
84
61
119
102
82
108
92
70
86
70
47
94
76
53
93
74
51
98
78
52
107
89
63
114
96
70
114
95
69
115
99
75
121
104
82
124
106
82
111
91
66
104
84
58
92
74
49
98
78
55
113
94
70
122
104
80
113
95
71
104
88
65
90
74
53
101
84
65
101
84
66
135
118
98
136
121
97
143
127
108
145
129
109
146
131
111
143
126
106
135
118
95
133
116
93
126
108
84
127
109
85
134
116
92
131
113
88
114
95
70
122
103
79
135
119
101
121
101
74
134
113
90
111
89
62
126
110
90
122
104
80
103
83
58
103
81
53
120
98
70
133
113
84
136
115
86
138
117
90
132
112
87
142
124
103
104
81
53
126
101
69
148
126
99
136
110
81
124
100
70
130
103
69
142
118
87
152
125
90
168
143
113
174
153
125
173
151
124
158
132
101
156
131
99
153
133
107
155
137
114
128
111
90
123
106
83
102
86
63
44
36
24
1
1
1
1
0
1
5
5
5
1
1
1
0
0
0
0
0
0
0
0
0
0
0
0
0
0
0
0
0
0
0
0
0
0
0
0
0
0
0
0
0
0
4
3
3
14
13
13
1
1
1
0
0
0
0
0
0
0
0
0
0
0
0
0
0
0
0
0
0
0
0
0
0
0
0
0
0
0
0
0
0
0
0
0
0
0
0
0
0
0
0
0
0
0
0
0
0
0
0
114
93
67
113
94
66
104
84
56
107
90
62
121
102
77
114
96
70
122
102
76
125
103
77
121
100
71
123
103
73
114
93
64
114
91
59
112
89
57
104
82
49
116
91
60
118
95
65
124
106
81
130
110
84
123
103
78
110
93
67
116
98
73
119
101
76
123
107
82
122
104
78
92
73
49
101
82
61
112
95
75
104
87
65
95
79
56
90
72
48
92
72
45
99
79
54
116
99
71
122
104
78
110
92
68
109
92
68
115
97
74
117
99
75
107
87
63
100
80
55
95
76
51
108
90
65
121
103
78
112
93
70
97
81
59
84
68
47
88
71
53
101
86
67
134
118
95
139
123
100
138
122
100
143
127
105
142
126
103
139
123
102
135
118
94
133
114
90
128
109
85
127
109
84
137
118
93
122
103
76
105
83
56
99
78
52
115
98
77
136
118
94
122
98
69
123
100
69
131
114
93
105
84
58
125
103
74
110
87
60
107
86
59
119
97
69
142
121
93
136
114
86
122
101
74
131
112
89
111
85
55
118
91
58
151
126
96
139
114
83
131
104
73
145
116
81
169
144
115
168
140
104
165
140
109
143
120
88
151
126
96
143
119
88
155
131
100
146
126
100
146
127
103
147
129
105
92
78
61
77
64
46
80
63
40
35
26
16
4
3
2
1
1
1
1
1
1
0
0
0
0
0
0
0
0
0
0
0
0
0
0
0
0
0
0
0
0
0
0
0
0
0
0
0
0
0
0
0
0
0
6
5
5
11
10
10
0
0
0
0
0
0
0
0
0
0
0
0
0
0
0
0
0
0
0
0
0
0
0
0
0
0
0
0
0
0
0
0
0
0
0
0
0
0
0
0
0
0
0
0
0
0
0
0
98
77
48
99
79
53
121
101
76
113
93
67
97
77
50
117
99
73
113
96
70
114
95
69
132
110
82
127
106
75
125
102
71
125
101
69
117
95
63
111
90
59
118
97
66
122
101
69
116
97
67
126
106
81
125
108
82
119
102
78
121
103
79
123
105
81
111
93
69
128
110
86
121
99
74
97
78
53
95
78
55
88
71
50
98
82
61
92
76
55
97
79
56
100
81
54
110
90
61
123
107
80
123
107
82
113
95
71
108
90
66
111
95
70
111
93
69
102
84
59
107
87
62
107
87
62
122
102
77
119
101
77
110
92
68
87
71
47
74
58
36
73
59
38
138
122
99
141
124
102
135
118
96
132
115
92
135
118
95
131
113
90
129
111
86
131
112
85
127
108
82
121
100
74
127
107
80
119
98
69
109
87
61
107
89
64
109
88
64
131
112
91
115
93
63
131
108
77
142
124
101
110
88
60
118
96
68
119
97
69
102
83
58
93
73
47
119
97
68
131
108
79
123
99
71
134
114
89
133
107
76
126
98
62
137
111
79
131
106
77
136
108
73
152
121
84
163
134
99
165
140
110
160
136
105
157
133
102
134
111
79
129
106
75
143
121
91
155
134
107
149
131
107
158
140
117
93
80
64
12
10
7
22
17
11
35
26
17
5
3
3
0
0
0
0
0
0
0
0
0
0
0
0
0
0
0
2
2
2
3
3
3
3
3
3
0
0
0
0
0
0
0
0
0
0
0
0
0
0
0
1
1
1
8
7
7
8
7
7
0
0
0
0
0
0
0
0
0
0
0
0
0
0
0
0
0
0
0
0
0
0
0
0
0
0
0
0
0
0
0
0
0
0
0
0
0
0
0
0
0
0
0
0
0
118
98
71
92
70
43
103
85
61
120
102
78
104
84
57
96
76
48
114
96
70
106
88
61
122
100
73
134
112
84
127
104
74
126
101
72
120
98
68
118
97
68
114
95
64
125
104
73
121
101
74
121
102
74
122
106
78
117
101
76
116
100
75
126
110
86
112
94
70
108
91
68
127
107
84
108
87
63
101
83
60
91
72
51
91
74
53
91
74
54
91
73
53
109
89
62
116
98
65
121
103
76
124
108
82
121
103
80
109
91
68
104
88
65
107
90
68
102
84
62
112
91
66
107
87
62
112
92
68
117
99
75
117
99
75
98
82
58
90
73
49
81
65
41
127
110
86
135
118
95
123
106
81
121
102
77
125
108
83
121
103
77
120
102
77
122
103
76
123
104
79
119
98
72
110
88
60
111
91
64
114
94
68
122
104
82
106
84
57
136
118
97
113
89
58
122
100
70
142
124
101
128
107
79
123
101
73
112
89
62
118
99
73
82
62
37
104
82
55
117
93
64
127
102
71
137
113
85
140
114
82
151
121
86
149
124
94
143
117
87
144
116
79
123
94
57
148
118
80
169
147
119
169
147
116
170
146
116
151
127
97
145
124
96
155
134
105
160
139
111
162
141
113
166
148
122
151
135
113
63
55
42
5
4
3
1
0
0
0
0
0
0
0
0
0
0
0
0
0
0
0
0
0
1
1
1
11
11
11
9
9
9
7
7
7
3
3
3
0
0
0
0
0
0
0
0
0
0
0
0
0
0
0
1
1
1
5
5
4
1
1
1
0
0
0
0
0
0
0
0
0
0
0
0
0
0
0
0
0
0
0
0
0
0
0
0
0
0
0
0
0
0
0
0
0
0
0
0
0
0
0
0
0
0
109
90
63
123
104
78
101
81
52
99
78
51
110
91
67
108
89
61
99
78
51
97
77
52
108
88
61
111
90
61
119
97
69
125
103
73
123
103
72
124
103
74
123
103
75
119
102
72
125
107
80
126
108
81
114
97
71
109
90
65
110
92
67
115
98
76
120
103
80
113
97
73
113
96
72
111
93
68
89
71
47
79
63
40
73
56
36
78
61
40
89
71
48
98
80
56
120
102
77
125
107
81
123
106
79
123
106
84
119
102
80
107
89
65
111
93
69
91
74
51
98
80
58
110
91
66
111
92
64
118
100
75
122
105
83
108
92
68
93
75
51
102
84
61
126
110
86
126
109
86
120
103
78
115
96
71
124
106
82
120
101
76
113
94
70
116
98
73
118
100
75
119
100
75
109
88
63
106
86
60
115
93
67
132
114
93
106
83
58
126
106
82
107
83
53
112
90
62
138
120
97
131
110
82
128
105
77
105
84
56
113
90
63
111
89
60
110
87
57
115
91
61
124
97
63
152
127
96
136
109
74
153
128
95
163
139
110
150
121
87
159
131
97
136
110
72
136
109
73
159
138
113
167
142
112
161
137
105
129
107
79
109
90
65
111
92
66
116
94
65
137
117
88
148
131
109
151
134
110
101
88
67
18
15
10
0
1
1
0
0
0
0
0
0
0
0
0
0
0
0
0
0
0
4
4
4
7
7
7
12
12
12
11
11
11
6
6
6
0
0
0
0
0
0
0
0
0
0
0
0
0
0
0
0
0
0
1
1
1
1
1
1
1
1
1
0
0
0
0
0
0
0
0
0
0
0
0
0
0
0
0
0
0
0
0
0
0
0
0
0
0
0
0
0
0
0
0
0
0
0
0
0
0
0
114
95
69
110
93
68
126
108
84
116
94
69
110
90
65
103
83
57
111
91
64
104
83
56
91
68
38
96
73
43
106
83
52
118
97
66
125
104
74
116
96
68
120
100
74
130
112
85
133
115
87
120
105
78
120
104
78
108
92
69
103
86
63
98
80
58
106
89
69
107
89
67
102
84
60
113
95
71
116
99
75
74
59
36
61
45
24
64
48
26
76
59
35
104
84
59
106
87
61
117
99
74
124
106
82
121
103
79
118
103
81
112
97
72
100
81
57
104
86
62
83
66
43
97
79
56
119
101
75
115
97
73
117
97
76
111
95
71
111
91
68
107
89
65
119
102
78
120
103
79
119
102
77
113
96
69
126
108
85
120
102
77
105
84
59
114
95
70
115
95
71
110
93
70
102
84
60
99
76
48
117
96
71
128
109
85
119
101
77
95
73
47
107
84
54
118
95
66
129
111
87
137
117
90
118
95
67
108
87
61
111
89
60
121
96
62
116
90
56
129
103
69
135
107
71
148
124
94
158
128
90
173
145
112
183
159
131
157
127
90
166
137
102
160
133
101
152
127
96
155
133
105
161
139
111
153
129
98
144
121
91
138
116
87
130
109
80
136
112
80
152
130
100
163
143
118
155
139
115
89
75
55
45
35
22
11
8
5
0
0
0
0
0
0
0
0
0
0
0
0
0
0
0
9
9
9
4
4
4
6
6
6
6
6
6
0
0
0
0
0
0
0
0
0
0
0
0
0
0
0
0
0
0
0
0
0
0
0
0
0
0
0
3
3
2
3
3
3
0
0
0
0
0
0
0
0
0
0
0
0
0
0
0
0
0
0
0
0
0
0
0
0
0
0
0
0
0
0
0
0
0
0
0
0
105
84
58
112
96
71
120
104
80
124
108
83
117
99
73
109
88
61
104
84
55
111
91
63
104
82
50
99
75
43
107
82
51
115
94
61
124
104
74
121
99
74
107
88
62
116
98
72
129
113
89
128
110
84
118
100
76
113
97
76
104
87
65
94
77
55
96
79
58
105
89
66
104
86
64
102
81
58
107
89
64
103
88
69
65
48
28
59
42
21
71
56
32
101
80
51
112
93
66
111
94
69
114
96
72
117
101
78
110
94
72
117
101
80
100
83
64
94
76
52
86
66
44
94
76
54
117
98
76
117
101
77
108
91
68
113
97
74
119
103
78
122
106
82
121
104
80
115
98
72
126
108
85
119
99
72
120
102
76
120
103
79
98
78
51
113
95
68
106
86
62
104
86
62
96
77
53
97
75
48
117
98
74
115
94
66
118
102
82
91
69
40
105
82
53
121
100
72
123
105
80
125
104
77
108
88
61
109
87
59
76
57
32
105
81
51
105
80
47
135
107
70
155
128
93
166
141
112
154
124
85
179
150
114
178
154
124
177
149
115
181
156
124
175
150
119
165
140
110
160
136
105
166
146
121
142
118
88
130
109
81
135
112
82
134
111
79
136
114
83
158
138
109
164
144
117
157
139
114
126
109
85
37
29
19
6
3
3
2
2
1
0
0
0
0
0
0
3
3
3
12
12
12
12
12
12
11
11
11
7
7
7
1
1
1
0
0
0
0
0
0
0
0
0
0
0
0
0
0
0
0
0
0
0
0
0
0
0
0
0
0
0
1
1
1
1
1
1
1
1
1
0
0
0
0
0
0
0
0
0
0
0
0
0
0
0
0
0
0
0
0
0
0
0
0
0
0
0
0
0
0
0
0
0
113
93
64
109
89
63
104
84
59
118
100
77
123
104
78
109
90
61
100
76
48
102
81
53
104
82
52
106
83
53
110
87
55
112
89
57
115
95
65
120
103
74
109
89
64
101
83
59
112
95
73
116
101
76
123
107
83
113
98
76
101
85
64
105
88
68
98
81
61
92
76
54
105
86
64
101
83
61
97
78
54
109
88
65
108
91
71
84
66
45
73
54
31
97
75
48
108
87
60
108
90
66
113
95
71
113
94
72
116
100
75
112
96
73
104
88
67
84
67
45
82
64
41
79
62
40
99
81
57
116
101
77
114
98
75
112
96
75
127
110
89
129
113
89
116
98
74
110
91
65
127
109
85
120
101
75
118
99
72
118
101
78
95
75
49
111
91
64
103
84
58
96
76
53
90
70
45
95
75
49
116
97
74
114
96
72
111
93
70
103
81
53
89
70
45
114
97
76
98
77
50
86
67
42
90
70
46
69
48
23
87
63
34
107
80
46
116
89
55
140
113
75
161
134
101
170
147
118
175
147
113
184
156
120
189
168
140
162
135
102
177
150
117
175
150
117
161
135
104
147
122
89
163
141
114
150
127
96
158
134
104
157
135
105
133
110
80
118
96
67
133
112
84
156
135
108
171
152
126
118
102
81
61
52
38
2
2
2
0
0
0
1
1
1
8
8
8
9
9
9
7
7
7
11
11
11
2
2
2
0
0
0
0
0
0
0
0
0
0
0
0
0
0
0
0
0
0
0
0
0
0
0
0
0
0
0
0
0
0
0
0
0
0
0
0
0
0
0
0
0
0
0
0
0
0
0
0
0
0
0
0
0
0
0
0
0
0
0
0
0
0
0
0
0
0
0
0
0
0
0
0
0
0
0
115
95
67
121
101
75
113
93
69
104
84
58
111
92
66
119
101
76
112
92
66
104
83
52
108
83
52
101
77
47
100
79
50
111
88
57
111
89
59
111
90
61
110
90
65
103
85
61
91
75
53
107
90
70
104
88
66
98
82
60
99
83
61
87
70
50
101
84
67
98
81
62
101
82
62
107
91
66
104
86
62
101
83
59
106
88
64
105
86
63
97
78
52
99
80
52
112
93
66
122
103
75
109
91
65
112
94
69
117
101
77
111
96
75
113
99
79
104
88
68
75
58
35
78
59
37
80
63
37
104
88
66
111
94
74
106
90
65
111
94
71
126
109
87
103
87
63
100
81
56
124
106
81
119
100
75
115
95
69
115
97
75
105
87
63
108
88
63
111
91
66
108
88
62
85
66
42
94
78
56
90
71
46
128
112
92
105
84
58
96
74
46
91
70
45
100
86
68
66
48
27
80
62
40
72
55
35
73
52
28
103
77
45
113
87
53
127
100
64
144
118
81
167
142
111
169
142
110
174
146
112
185
158
123
184
160
132
164
137
102
147
117
80
153
124
84
157
128
91
153
127
92
138
114
83
149
127
99
142
119
88
148
126
95
143
121
90
140
121
93
147
123
92
138
117
88
169
149
122
138
120
96
58
49
35
9
6
5
4
4
4
6
6
6
13
13
13
7
7
7
10
10
10
7
7
7
0
0
0
0
0
0
0
0
0
0
0
0
0
0
0
0
0
0
0
0
0
0
0
0
0
0
0
0
0
0
0
0
0
0
0
0
0
0
0
0
0
0
0
0
0
0
0
0
0
0
0
0
0
0
0
0
0
0
0
0
0
0
0
0
0
0
0
0
0
0
0
0
0
0
0
0
0
0
118
100
74
110
91
67
111
95
70
112
94
68
111
89
60
109
88
63
116
96
71
112
90
63
111
88
59
111
89
56
94
72
42
102
81
54
108
86
59
111
94
67
110
90
63
108
88
63
88
71
47
89
72
50
98
81
61
85
70
46
81
67
43
84
67
44
86
69
49
91
76
54
91
74
53
103
85
61
102
84
60
104
84
61
103
84
60
103
84
59
109
89
67
99
80
55
110
90
65
123
102
75
126
106
79
110
93
65
107
91
67
104
88
66
104
88
65
113
98
79
83
67
45
74
56
32
74
56
32
90
71
49
104
86
62
110
92
68
105
88
62
111
96
72
90
73
51
93
76
51
110
92
67
117
100
75
105
87
62
111
95
71
113
96
73
105
88
63
100
81
56
116
96
70
93
75
50
100
86
68
90
74
52
125
110
92
84
66
41
71
51
29
74
55
31
98
81
61
50
33
17
81
59
31
95
70
41
101
75
46
128
100
64
130
105
72
131
106
72
144
118
84
168
145
118
165
138
106
157
131
97
168
142
110
166
141
110
175
148
114
157
127
89
162
132
92
157
128
90
156
131
99
147
124
94
140
122
97
111
91
64
110
86
57
128
106
75
155
133
103
161
138
109
146
123
92
162
141
114
159
141
116
119
102
78
9
7
5
13
12
13
7
7
7
10
10
10
10
10
10
6
6
6
0
0
0
0
0
0
0
0
0
0
0
0
0
0
0
0
0
0
0
0
0
0
0
0
0
0
0
0
0
0
0
0
0
0
0
0
0
0
0
0
0
0
0
0
0
0
0
0
0
0
0
0
0
0
0
0
0
0
0
0
0
0
0
1
1
1
2
2
2
4
4
4
2
2
2
0
0
0
0
0
0
100
82
58
111
92
69
99
81
57
108
90
66
110
91
64
106
85
56
98
79
56
115
96
69
102
81
50
115
93
63
112
91
61
106
87
60
101
81
54
113
93
67
120
100
73
113
95
69
97
79
53
86
68
44
80
64
41
88
73
50
77
62
40
63
48
29
61
46
28
58
44
25
85
69
48
90
73
52
87
69
46
112
96
73
100
80
54
101
79
53
113
94
71
108
90
68
106
87
64
115
99
74
128
110
82
134
115
87
103
87
63
93
76
56
92
75
53
85
70
51
97
82
64
88
70
49
73
54
33
74
56
32
85
68
46
108
92
68
118
100
75
116
98
74
74
60
41
81
65
43
96
79
57
104
88
66
98
82
58
101
84
60
96
79
57
107
89
64
90
72
47
93
74
51
94
77
57
91
73
53
92
78
62
91
73
52
73
56
32
66
48
25
79
57
33
84
64
41
69
49
26
82
59
31
94
68
36
117
92
57
137
111
76
134
108
74
139
113
78
136
112
79
156
132
105
170
145
113
154
127
93
149
122
85
158
133
99
148
117
77
162
132
96
160
132
96
155
129
96
153
129
98
138
116
86
131
111
87
112
91
67
109
88
60
99
77
49
108
87
58
154
131
100
162
140
111
164
144
115
150
132
106
112
96
75
51
41
28
7
6
6
6
6
6
10
10
10
3
3
3
0
0
0
0
0
0
0
0
0
0
0
0
0
0
0
0
0
0
0
0
0
0
0
0
0
0
0
0
0
0
0
0
0
0
0
0
0
0
0
0
0
0
0
0
0
0
0
0
0
0
0
0
0
0
0
0
0
0
0
0
0
0
0
0
0
0
2
2
2
12
12
12
9
9
9
7
7
7
3
3
3
0
0
0
94
76
51
95
76
51
101
81
56
101
81
52
103
82
56
114
93
71
117
98
72
99
79
54
111
90
64
102
81
54
104
83
55
94
74
45
106
85
55
107
87
59
109
90
64
110
92
67
104
86
62
94
75
50
93
78
53
80
64
43
77
62
43
77
62
42
75
59
37
61
46
27
49
33
20
86
69
48
102
82
58
92
74
50
122
103
80
111
91
66
107
87
62
124
105
85
120
102
81
126
109
86
121
104
78
121
104
80
119
102
76
93
74
51
87
69
45
80
63
41
77
61
41
83
65
47
81
63
42
83
66
42
75
59
34
95
78
55
123
107
85
128
113
90
62
49
31
59
44
27
83
67
46
85
69
48
88
71
50
85
66
44
84
66
44
96
78
54
82
63
39
70
50
26
79
63
42
94
76
56
97
80
65
62
44
26
65
45
24
67
47
22
105
84
59
91
67
37
89
67
38
99
74
43
104
77
44
122
97
62
146
121
89
145
119
83
159
134
102
154
131
101
137
114
83
157
131
100
151
124
90
159
132
100
174
149
118
159
128
89
154
127
92
167
142
111
160
135
105
161
136
106
135
113
85
116
95
66
131
111
85
126
105
76
117
97
69
105
86
59
131
111
83
162
142
115
167
150
125
168
151
126
92
79
59
65
54
39
44
33
21
5
5
5
7
7
7
0
0
0
0
0
0
0
0
0
0
0
0
0
0
0
0
0
0
0
0
0
0
0
0
0
0
0
0
0
0
0
0
0
0
0
0
0
0
0
0
0
0
0
0
0
0
0
0
0
0
0
0
0
0
0
0
0
0
0
0
0
0
0
0
0
0
0
0
0
5
5
5
8
8
8
12
12
12
10
10
10
4
4
4
0
0
0
99
80
56
99
79
54
97
76
50
104
85
55
104
83
54
105
85
59
110
92
66
114
95
69
98
80
56
97
78
54
89
71
43
91
72
44
98
77
49
104
84
57
103
86
60
102
85
59
101
85
61
98
80
56
95
79
55
81
64
42
73
58
38
69
54
35
85
69
48
78
60
38
61
44
25
69
55
30
103
83
60
100
80
55
123
104
80
128
109
85
120
100
72
122
104
80
119
103
81
128
112
90
131
115
92
125
109
84
118
101
75
99
81
57
92
74
50
79
62
40
72
55
35
78
62
44
77
60
39
91
75
53
90
73
49
82
64
40
115
98
76
128
112
88
62
46
27
51
34
18
73
55
35
84
65
40
92
73
48
74
55
31
87
66
40
113
92
65
86
64
37
77
54
26
62
44
24
105
88
67
103
81
55
65
44
22
72
49
24
76
54
28
109
92
70
120
95
65
114
89
58
118
93
59
116
92
60
118
93
60
137
113
82
157
130
96
168
143
111
158
133
104
126
96
58
149
120
82
174
147
115
170
143
110
175
148
115
167
139
106
165
140
107
177
152
122
164
139
110
153
129
99
153
132
102
140
119
90
146
128
103
141
120
92
124
104
77
105
85
59
132
113
86
145
127
101
157
140
116
164
145
121
136
119
95
64
52
38
42
34
24
3
2
3
1
1
1
0
0
0
0
0
0
0
0
0
0
0
0
0
0
0
0
0
0
0
0
0
0
0
0
0
0
0
0
0
0
0
0
0
0
0
0
0
0
0
0
0
0
0
0
0
0
0
0
0
0
0
0
0
0
0
0
0
0
0
0
0
0
0
0
0
0
1
1
1
9
9
9
3
3
3
7
7
7
5
5
5
0
0
0
0
0
0
83
67
43
95
76
52
108
87
60
105
85
60
116
97
69
101
81
55
94
76
51
97
79
55
94
79
57
83
68
47
87
71
48
83
65
41
89
68
43
101
80
55
93
76
50
99
81
56
97
79
55
100
81
58
97
81
58
82
66
42
75
59
38
69
54
35
71
54
34
84
68
48
90
74
49
75
57
34
88
70
44
107
88
61
111
93
69
128
112
89
133
114
88
131
113
87
123
107
83
127
111
86
125
109
87
127
111
88
129
113
88
104
88
66
103
87
64
79
63
41
68
51
31
64
49
30
82
67
48
93
74
53
104
83
60
99
81
57
96
78
53
116
98
74
76
58
35
83
62
34
100
80
52
100
78
50
96
76
48
93
71
44
108
85
56
120
97
67
104
80
49
88
66
38
108
90
68
100
76
46
103
81
51
104
80
50
97
72
43
112
88
58
135
116
90
143
120
88
130
107
75
151
127
96
131
106
74
140
114
79
145
118
85
156
129
93
174
147
113
162
134
100
150
118
80
144
112
71
176
147
110
180
155
125
172
145
111
175
151
120
156
131
99
153
127
96
148
123
92
143
118
86
140
116
85
163
140
110
173
154
128
157
139
115
141
122
94
125
106
78
139
120
94
150
133
108
155
138
113
152
135
112
104
91
75
66
53
40
25
20
14
30
22
12
15
9
6
1
1
0
0
0
0
0
0
0
0
0
0
0
0
0
0
0
0
0
0
0
0
0
0
0
0
0
0
0
0
0
0
0
0
0
0
0
0
0
0
0
0
0
0
0
0
0
0
0
0
0
0
0
0
0
0
0
0
0
0
0
0
0
5
5
5
11
11
11
12
12
12
9
9
9
5
5
5
0
0
0
0
0
0
0
0
0
95
75
52
83
66
42
92
74
50
105
83
59
92
77
56
107
89
64
94
76
53
80
62
37
78
61
38
79
64
44
90
74
57
90
77
57
89
70
48
97
77
52
102
82
59
90
72
48
83
67
43
79
62
41
99
82
64
79
64
43
84
70
48
87
71
48
81
61
38
63
49
30
87
73
52
96
78
55
97
78
53
115
95
68
120
100
73
111
93
69
127
113
89
133
117
92
126
110
85
127
108
82
126
108
84
120
103
79
121
105
81
119
103
81
98
82
60
98
83
62
79
64
44
82
66
46
76
60
37
87
70
50
99
80
58
119
103
80
113
95
73
111
94
70
89
70
46
112
90
62
117
96
69
120
99
69
123
102
71
113
90
59
129
106
74
136
115
83
116
92
60
124
104
77
134
113
82
120
96
64
131
106
73
123
99
64
134
111
78
130
110
83
148
125
96
156
133
102
148
124
92
162
137
106
147
122
87
163
137
104
156
126
89
155
123
82
167
138
103
152
121
80
150
118
77
162
130
91
159
128
89
169
145
117
153
126
92
162
137
106
157
132
100
130
107
77
105
84
56
136
112
79
151
126
95
155
132
101
176
155
128
177
159
134
141
120
93
147
126
97
143
125
99
173
156
131
182
166
142
159
143
123
113
99
80
39
29
20
12
7
4
1
1
1
4
2
2
2
1
1
0
0
0
0
0
0
0
0
0
0
0
0
0
0
0
0
0
0
0
0
0
0
0
0
0
0
0
0
0
0
0
0
0
0
0
0
0
0
0
0
0
0
0
0
0
0
0
0
0
0
0
0
0
0
4
4
4
9
9
9
10
10
10
7
7
7
10
10
10
1
1
1
0
0
0
0
0
0
0
0
0
0
0
0
94
75
51
86
68
44
80
64
40
92
76
53
97
78
53
92
78
57
98
81
60
86
68
44
78
59
34
62
45
24
71
56
37
97
84
66
97
81
61
105
88
65
99
81
57
107
89
65
94
78
56
89
75
51
89
75
54
85
70
47
84
70
47
70
56
35
96
79
60
76
58
36
77
62
40
95
79
58
101
84
60
111
92
65
132
113
84
124
106
79
120
104
80
121
105
81
131
115
90
132
117
91
133
115
91
127
109
84
114
96
70
127
112
88
112
97
75
90
74
53
84
67
47
79
63
41
84
66
41
95
76
52
97
77
53
116
100
76
118
104
83
116
102
81
108
89
64
126
108
82
136
115
86
131
111
81
132
110
78
120
98
67
147
126
96
152
130
99
146
126
97
139
118
88
140
118
86
134
110
75
156
132
99
155
132
97
153
130
96
154
135
109
158
135
103
156
133
101
147
122
88
163
138
105
151
125
88
165
137
103
168
137
100
169
138
99
164
135
98
158
127
87
170
139
101
171
141
105
165
137
102
164
139
108
136
110
74
144
120
88
146
122
91
142
119
87
136
111
78
141
117
86
157
134
102
156
136
107
158
138
112
168
151
126
156
137
110
110
92
66
130
112
86
143
127
102
177
161
136
183
168
145
123
109
90
64
51
35
10
7
4
0
0
0
0
0
0
0
0
0
0
0
0
0
0
0
0
0
0
0
0
0
0
0
0
0
0
0
0
0
0
0
0
0
0
0
0
0
0
0
0
0
0
0
0
0
0
0
0
0
0
0
0
0
0
0
0
0
0
0
0
6
6
6
7
7
7
12
12
12
9
9
9
9
9
9
5
5
5
0
0
0
0
0
0
0
0
0
0
0
0
0
0
0
108
92
69
94
76
54
78
63
40
82
66
43
98
81
60
80
65
41
82
67
47
84
71
51
85
66
44
75
57
34
55
40
19
75
57
35
91
74
54
100
84
65
112
95
74
107
90
67
89
75
52
77
63
37
81
66
43
81
66
46
70
54
32
73
57
35
72
59
43
99
83
61
90
70
47
70
56
34
100
84
61
115
97
73
119
102
77
126
108
83
123
106
82
125
109
83
124
108
81
133
117
91
141
125
100
138
123
100
127
109
85
112
96
72
106
90
67
95
78
58
81
65
45
76
60
42
89
71
47
99
79
53
103
81
56
118
100
75
120
103
79
104
90
67
113
95
70
134
115
89
130
111
82
133
114
85
128
107
75
132
110
80
150
129
99
161
141
115
160
138
109
144
121
89
144
120
88
145
121
87
166
142
111
167
143
112
158
133
100
152
133
105
158
134
101
158
132
100
159
133
100
165
140
105
162
134
98
163
134
97
169
139
101
179
150
114
174
144
107
160
131
92
173
144
109
161
131
93
166
141
108
158
132
98
136
110
75
140
113
79
136
110
75
154
129
97
144
121
91
135
113
83
163
140
110
166
145
117
167
148
121
160
141
115
161
143
120
138
119
94
124
108
83
126
109
83
149
132
107
163
146
127
128
112
89
71
60
42
12
10
6
0
0
0
0
0
0
0
0
0
0
0
0
0
0
0
0
0
0
0
0
0
0
0
0
0
0
0
0
0
0
0
0
0
0
0
0
0
0
0
0
0
0
0
0
0
0
0
0
0
0
0
0
0
0
0
0
0
0
0
0
12
12
12
9
9
9
10
10
10
9
9
9
5
5
5
0
0
0
0
0
0
0
0
0
0
0
0
0
0
0
0
0
0
91
72
52
99
85
64
86
70
50
70
57
35
77
62
41
86
71
50
75
60
41
71
56
37
74
58
38
83
67
45
66
52
31
61
44
24
72
58
39
93
76
56
104
88
66
101
84
62
110
93
74
112
95
77
98
81
59
65
50
31
52
38
22
48
35
19
58
43
29
81
65
47
96
76
55
88
71
49
91
75
52
114
95
71
120
104
80
119
104
81
119
103
80
141
125
103
138
122
98
130
114
90
128
110
86
130
114
89
122
106
83
114
96
72
111
93
69
95
81
62
83
67
47
69
55
35
68
56
40
102
84
60
104
84
59
116
98
74
139
121
95
120
103
79
123
107
85
127
110
82
128
108
80
146
125
95
139
117
85
147
125
96
151
130
102
156
133
102
157
135
104
149
126
94
155
133
102
151
128
96
165
142
112
172
150
120
160
138
108
144
121
90
148
123
91
153
127
91
161
137
105
163
137
102
168
140
105
165
136
98
171
141
104
177
147
112
174
146
111
169
141
105
176
149
115
161
131
94
161
134
100
136
107
70
129
103
67
133
106
70
138
112
76
145
119
85
157
131
101
153
130
101
165
143
115
176
157
131
163
142
114
156
136
109
166
149
127
144
126
103
124
107
85
132
115
91
143
126
102
149
133
113
102
91
72
90
75
54
45
34
22
6
4
2
0
0
0
0
0
0
0
0
0
0
0
0
0
0
0
0
0
0
0
0
0
0
0
0
0
0
0
0
0
0
0
0
0
0
0
0
0
0
0
0
0
0
0
0
0
0
0
0
0
0
0
0
0
0
0
0
0
4
4
4
5
5
5
11
11
11
3
3
3
0
0
0
0
0
0
0
0
0
0
0
0
0
0
0
0
0
0
0
0
0
89
73
52
80
68
47
93
78
61
79
66
48
71
58
40
73
60
38
77
62
41
79
62
41
67
52
33
63
50
32
71
56
37
70
55
35
64
51
31
86
71
51
97
80
60
98
82
61
105
89
68
114
99
80
95
78
59
90
75
56
61
48
31
52
38
25
57
43
29
73
58
41
85
68
48
93
77
56
99
82
60
116
96
71
120
102
76
125
108
85
121
104
83
129
113
90
141
125
103
138
122
97
124
108
84
118
103
78
117
101
80
102
86
64
92
74
51
86
71
52
87
71
52
81
65
45
69
56
40
95
80
61
110
93
70
112
94
71
140
123
99
137
121
97
115
96
71
135
117
92
139
119
89
138
116
85
137
115
84
148
127
96
147
126
96
149
127
96
147
126
94
156
133
101
154
131
100
152
130
98
159
136
104
171
148
118
166
146
118
143
119
87
146
121
87
149
122
85
146
120
85
151
124
88
170
141
105
166
135
95
174
145
108
173
143
106
167
140
102
165
137
100
170
141
107
157
128
91
160
131
96
161
133
99
143
117
84
143
118
83
147
122
89
149
125
92
152
127
97
162
138
108
167
144
113
179
158
132
163
142
114
145
125
96
137
119
95
143
127
106
140
123
100
136
118
94
144
128
103
147
131
110
91
78
59
68
58
43
38
31
23
10
7
5
4
3
3
0
0
0
0
0
0
0
0
0
0
0
0
0
0
0
0
0
0
0
0
0
0
0
0
0
0
0
0
0
0
0
0
0
0
0
0
0
0
0
0
0
0
0
0
0
0
0
0
5
5
5
9
9
9
2
2
2
4
4
4
5
5
5
1
1
1
0
0
0
0
0
0
0
0
0
0
0
0
0
0
0
0
0
0
0
0
0
88
73
54
72
60
40
92
73
54
79
65
47
56
47
30
71
60
43
80
65
46
79
63
42
90
71
48
81
65
42
73
58
38
87
70
48
87
69
49
94
78
56
106
92
68
97
80
59
114
100
76
109
92
71
89
75
56
97
83
63
88
74
54
76
62
43
83
67
51
75
60
42
77
61
42
99
84
60
98
82
59
121
102
79
138
117
92
123
104
79
113
98
77
116
99
77
129
114
91
129
112
92
120
104
81
106
92
69
96
80
58
101
86
69
92
75
58
68
55
35
78
63
43
85
71
48
70
54
34
84
67
46
107
91
70
114
99
76
115
102
80
133
117
93
112
94
69
136
118
93
141
122
95
125
103
74
139
119
88
139
116
84
144
122
91
146
124
94
146
125
93
158
135
104
159
136
103
147
124
92
164
141
110
160
138
108
167
144
117
140
114
79
143
118
82
150
122
85
142
113
73
150
121
85
162
132
94
171
140
101
177
149
112
176
149
114
167
138
100
160
129
89
159
129
91
161
131
96
152
124
88
157
129
92
164
140
109
160
134
103
157
131
100
161
136
104
158
132
101
167
142
113
152
129
98
175
153
127
154
133
104
149
128
100
136
118
93
137
120
99
144
124
99
158
139
114
166
150
126
159
142
118
116
101
79
38
30
22
52
45
32
20
15
11
4
3
2
0
0
0
0
0
0
0
0
0
0
0
0
0
0
0
0
0
0
0
0
0
0
0
0
0
0
0
0
0
0
0
0
0
0
0
0
0
0
0
0
0
0
0
0
0
1
1
1
11
11
11
11
11
11
7
7
7
0
0
0
0
0
0
0
0
0
0
0
0
0
0
0
0
0
0
0
0
0
0
0
0
0
0
0
0
0
0
88
70
48
48
36
21
80
66
47
80
65
44
63
48
31
61
46
27
68
53
33
82
65
43
79
63
42
96
79
59
84
67
47
86
71
50
96
82
60
73
59
40
90
75
54
119
102
78
107
88
67
108
90
68
99
83
64
68
54
37
82
68
49
93
76
56
100
82
58
81
65
43
71
58
40
88
73
50
103
87
63
122
103
81
132
116
91
137
119
94
121
106
81
110
95
72
113
99
75
125
110
88
119
104
83
123
109
86
108
92
71
80
67
49
83
70
54
76
62
45
65
52
33
71
57
36
81
65
40
82
66
41
99
83
60
114
98
73
104
89
68
112
97
76
116
96
70
132
114
88
141
122
96
126
104
73
138
116
86
125
102
69
143
121
90
146
125
95
151
129
99
153
132
101
144
121
87
141
116
83
165
142
112
163
141
112
170
146
116
141
114
76
147
120
82
152
124
87
154
123
83
150
121
83
157
127
90
164
134
94
176
149
114
175
149
116
163
134
96
156
126
86
155
125
87
171
145
112
161
134
101
138
111
75
162
137
106
165
140
110
169
143
113
160
132
98
159
131
99
161
137
106
184
164
136
166
143
115
150
128
99
158
137
110
151
130
102
144
126
101
147
130
106
151
134
111
172
156
135
153
137
115
118
101
78
66
55
39
32
24
16
33
26
18
2
2
1
0
0
0
0
0
0
0
0
0
0
0
0
0
0
0
0
0
0
0
0
0
0
0
0
0
0
0
0
0
0
0
0
0
0
0
0
0
0
0
6
6
6
8
8
8
10
10
10
11
11
11
11
11
11
6
6
6
0
0
0
0
0
0
0
0
0
0
0
0
0
0
0
0
0
0
0
0
0
0
0
0
0
0
0
0
0
0
89
75
53
57
44
30
58
46
28
73
58
37
67
52
32
74
57
34
69
55
33
80
63
41
79
63
43
91
76
55
97
81
60
81
66
45
90
74
53
87
70
52
79
64
44
110
94
73
104
84
60
101
83
59
101
85
64
92
77
60
79
64
46
102
86
65
118
99
76
110
93
70
66
53
35
68
53
32
83
67
46
119
103
80
121
104
82
130
113
91
125
110
87
116
101
78
105
91
68
123
107
86
121
105
84
126
110
88
121
105
84
96
83
65
76
64
48
81
68
50
84
71
52
76
62
40
83
67
44
95
79
54
100
84
59
111
95
72
103
88
68
104
88
67
