P3 128 128
255
0
0
0
0
0
0
0
0
0
0
0
0
0
0
0
0
0
0
0
0
0
0
0
0
0
0
0
0
0
0
0
0
0
0
0
0
0
0
0
0
0
0
0
0
0
0
0
0
0
0
0
0
0
0
0
0
0
0
0
0
0
0
0
0
0
0
0
0
0
0
0
0
0
0
0
0
0
0
0
0
0
0
0
0
0
0
0
0
0
0
0
0
0
0
0
0
1
1
1
1
1
1
4
3
3
1
1
1
1
0
0
0
0
0
0
0
0
0
0
0
0
0
0
0
0
0
0
0
0
0
0
0
0
0
0
0
0
0
0
0
0
0
0
0
0
0
0
0
0
0
3
3
3
8
8
8
10
10
10
1
1
1
0
0
0
0
0
0
0
0
0
0
0
0
0
0
0
0
0
0
0
0
0
0
0
0
0
0
0
0
0
0
0
0
0
0
0
0
0
0
0
0
0
0
0
0
0
0
0
0
0
0
0
0
0
0
0
0
0
0
0
0
0
0
0
0
0
0
0
0
0
0
0
0
0
0
0
0
0
0
166
162
163
112
108
107
145
140
138
193
191
193
215
214
217
193
191
192
144
140
141
162
158
158
194
192
193
167
165
168
180
178
181
176
174
177
157
155
158
167
165
168
167
165
167
188
187
192
175
174
180
180
180
186
206
209
215
183
184
188
108
106
106
206
204
206
182
181
186
187
187
190
199
200
203
183
182
183
179
175
175
147
141
137
177
172
169
135
128
118
170
164
160
124
114
106
136
127
123
128
119
116
152
144
141
205
199
197
176
168
164
201
195
186
158
146
135
133
120
106
138
127
115
112
98
85
139
123
109
116
99
90
122
108
97
109
98
88
135
125
119
157
146
141
0
0
0
0
0
0
0
0
0
0
0
0
0
0
0
0
0
0
0
0
0
0
0
0
0
0
0
0
0
0
0
0
0
0
0
0
0
0
0
0
0
0
0
0
0
0
0
0
0
0
0
0
0
0
0
0
0
0
0
0
0
0
0
0
0
0
0
0
0
0
0
0
0
0
0
0
0
0
0
0
0
0
0
0
0
0
0
0
0
0
40
33
26
75
62
51
89
73
60
99
83
71
112
97
86
67
55
49
9
7
6
1
1
1
0
0
0
0
0
0
0
0
0
0
0
0
0
0
0
0
0
0
0
0
0
0
0
0
0
0
0
0
0
0
0
0
0
0
0
0
3
3
3
10
10
10
14
14
14
12
12
12
5
5
5
0
0
0
0
0
0
0
0
0
0
0
0
0
0
0
0
0
0
0
0
0
0
0
0
0
0
0
0
0
0
0
0
0
0
0
0
0
0
0
0
0
0
0
0
0
0
0
0
0
0
0
0
0
0
0
0
0
0
0
0
0
0
0
0
0
0
0
0
0
0
0
0
0
0
0
171
169
171
197
195
197
111
107
105
153
149
149
191
190
193
209
209
212
182
181
184
168
166
167
146
142
140
171
169
170
176
174
179
134
132
135
146
144
146
167
165
168
129
126
128
150
147
150
193
192
198
187
186
191
205
208
212
193
197
201
178
178
180
147
143
143
196
194
197
209
209
210
177
175
176
181
177
178
171
164
163
136
129
123
191
186
184
150
141
133
178
169
166
132
121
116
176
167
164
129
120
118
128
118
113
223
218
214
180
172
166
186
180
170
116
106
93
152
140
127
120
108
96
94
80
67
144
128
113
123
107
95
125
110
100
102
91
84
122
111
106
134
124
118
0
0
0
0
0
0
0
0
0
0
0
0
0
0
0
0
0
0
0
0
0
0
0
0
0
0
0
0
0
0
0
0
0
0
0
0
0
0
0
0
0
0
0
0
0
0
0
0
0
0
0
0
0
0
0
0
0
0
0
0
0
0
0
0
0
0
0
0
0
0
0
0
0
0
0
0
0
0
0
0
0
0
0
0
1
1
0
48
40
34
92
76
64
84
68
57
85
68
57
93
75
62
97
79
66
122
107
92
115
100
89
12
10
9
0
0
1
0
0
0
0
0
0
0
0
0
0
0
0
0
0
0
0
0
0
0
0
0
0
0
0
0
0
0
0
0
0
0
0
0
11
11
11
2
2
2
9
9
9
5
5
5
0
0
0
0
0
0
0
0
0
0
0
0
0
0
0
0
0
0
0
0
0
0
0
0
0
0
0
0
0
0
0
0
0
0
0
0
0
0
0
0
0
0
0
0
0
0
0
0
0
0
0
0
0
0
0
0
0
0
0
0
0
0
0
0
0
0
0
0
0
0
0
0
0
0
0
0
0
0
166
163
166
190
189
191
177
175
175
111
107
105
147
145
147
188
187
190
188
186
190
168
166
169
144
141
142
151
148
151
130
128
132
142
140
143
130
128
130
141
140
143
145
144
148
118
115
115
168
166
170
195
194
198
212
214
218
215
219
223
199
199
202
141
137
138
173
170
170
186
183
185
155
150
148
181
174
175
178
172
170
141
134
129
193
185
183
161
154
150
187
178
173
142
133
128
188
180
176
144
134
130
134
124
118
218
211
208
188
179
172
156
145
133
156
147
134
140
128
115
105
92
78
86
72
60
138
124
110
142
129
116
114
100
90
124
113
107
128
117
112
133
122
117
0
0
0
0
0
0
0
0
0
0
0
0
0
0
0
0
0
0
0
0
0
0
0
0
0
0
0
0
0
0
0
0
0
0
0
0
0
0
0
0
0
0
0
0
0
0
0
0
0
0
0
0
0
0
0
0
0
0
0
0
0
0
0
0
0
0
0
0
0
0
0
0
0
0
0
0
0
0
1
0
1
3
2
3
77
63
52
95
80
69
87
71
61
89
73
63
90
74
65
90
74
62
99
81
68
98
79
65
101
84
70
82
69
60
5
4
4
0
0
0
0
0
0
0
0
0
0
0
0
0
0
0
0
0
0
0
0
0
0
0
0
0
0
0
3
3
3
10
10
10
12
12
12
11
11
11
7
7
7
0
0
0
0
0
0
0
0
0
0
0
0
0
0
0
0
0
0
0
0
0
0
0
0
0
0
0
0
0
0
0
0
0
0
0
0
0
0
0
0
0
0
0
0
0
0
0
0
0
0
0
0
0
0
0
0
0
0
0
0
0
0
0
0
0
0
0
0
0
0
0
0
0
0
0
0
0
0
0
0
0
172
169
170
179
177
180
162
160
161
137
136
136
148
146
149
149
147
150
167
165
169
148
146
151
149
147
149
125
122
124
128
126
128
121
117
119
113
111
112
134
133
135
171
170
175
161
160
163
141
138
139
214
214
215
200
200
203
225
227
230
194
193
197
189
186
189
154
147
146
184
180
178
162
157
154
164
157
155
193
188
185
148
141
138
172
164
162
190
183
181
190
183
179
161
152
147
201
193
188
168
157
152
120
110
104
189
181
177
203
194
188
166
153
141
143
129
115
131
117
103
114
103
87
91
79
67
118
105
95
140
126
116
104
91
83
135
124
118
143
132
126
123
112
106
0
0
0
0
0
0
0
0
0
0
0
0
0
0
0
0
0
0
0
0
0
0
0
0
0
0
0
0
0
0
0
0
0
0
0
0
0
0
0
0
0
0
0
0
0
0
0
0
0
0
0
0
0
0
0
0
0
0
0
0
0
0
0
0
0
0
0
0
0
0
0
0
0
0
0
1
0
1
7
5
4
100
82
65
126
109
91
88
73
64
88
72
63
89
74
65
92
77
68
93
78
68
98
80
69
100
82
68
100
82
67
99
81
69
60
51
44
1
0
0
0
0
0
0
0
0
0
0
0
0
0
0
0
0
0
0
0
0
2
2
2
2
2
2
11
11
11
4
4
4
12
12
12
2
2
2
0
0
0
0
0
0
0
0
0
0
0
0
0
0
0
0
0
0
0
0
0
0
0
0
0
0
0
0
0
0
0
0
0
0
0
0
0
0
0
0
0
0
0
0
0
0
0
0
0
0
0
0
0
0
0
0
0
0
0
0
0
0
0
0
0
0
0
0
0
0
0
0
0
0
0
0
0
0
0
0
0
0
0
0
142
138
138
168
168
171
158
157
157
149
147
148
134
132
134
147
147
150
131
129
132
153
151
155
126
124
126
133
131
132
139
137
139
117
115
116
110
108
109
159
158
160
172
172
176
176
175
179
136
133
134
180
178
179
189
187
188
219
218
219
219
218
219
201
199
203
181
176
175
144
135
132
161
151
149
137
128
126
190
184
181
192
187
184
154
146
140
208
204
201
169
162
158
172
164
157
187
179
172
188
178
170
155
144
139
179
171
166
197
189
183
169
154
140
138
122
107
123
108
91
127
113
97
116
106
96
136
124
116
143
130
122
115
106
96
127
117
111
126
115
109
119
108
102
0
0
0
0
0
0
0
0
0
0
0
0
0
0
0
0
0
0
0
0
0
0
0
0
0
0
0
0
0
0
0
0
0
0
0
0
0
0
0
0
0
0
0
0
0
0
0
0
1
1
1
6
6
6
7
7
7
2
2
2
0
0
0
0
0
0
0
0
0
0
0
0
0
0
0
4
4
4
103
85
66
139
121
101
88
74
64
89
74
65
89
74
65
90
74
66
92
77
69
95
81
72
97
80
69
100
82
70
100
82
67
98
79
66
101
86
75
4
3
3
0
0
0
0
0
0
0
0
0
0
0
0
0
0
0
3
3
3
7
7
7
14
14
14
7
7
7
11
11
11
8
8
8
0
0
0
0
0
0
0
0
0
0
0
0
0
0
0
0
0
0
0
0
0
0
0
0
0
0
0
0
0
0
0
0
0
0
0
0
0
0
0
0
0
0
0
0
0
0
0
0
0
0
0
0
0
0
0
0
0
0
0
0
0
0
0
0
0
0
0
0
0
0
0
0
0
0
0
0
0
0
0
0
0
0
0
0
0
0
0
134
132
131
135
135
138
175
177
181
142
140
142
147
145
146
162
161
164
138
136
139
128
126
129
133
131
134
137
135
138
118
116
119
135
133
136
118
117
118
155
154
155
184
185
186
165
165
168
174
172
174
152
146
148
186
183
183
185
182
181
216
213
213
222
219
219
172
166
164
150
142
137
134
124
119
166
158
155
188
181
178
190
185
182
146
137
126
194
186
184
182
173
169
173
164
157
199
192
185
172
161
152
168
159
150
181
173
165
180
169
159
170
154
137
147
131
115
123
108
91
116
103
88
133
121
113
154
142
134
151
138
131
108
99
91
123
112
106
115
104
99
130
120
114
0
0
0
0
0
0
0
0
0
0
0
0
0
0
0
0
0
0
0
0
0
0
0
0
0
0
0
0
0
0
0
0
0
0
0
0
0
0
0
0
0
0
0
0
0
0
0
0
1
1
1
11
11
11
12
12
12
10
10
10
5
5
5
0
0
0
0
0
0
0
0
0
5
3
3
90
78
64
134
116
95
81
65
56
86
71
61
89
74
65
89
75
66
90
76
68
91
77
69
96
82
74
97
81
71
100
82
70
99
81
67
100
81
68
96
80
69
61
50
46
0
0
0
0
0
0
0
0
0
0
0
0
1
1
1
12
12
12
5
5
5
8
8
8
12
12
12
5
5
5
0
0
0
0
0
0
0
0
0
0
0
0
0
0
0
0
0
0
0
0
0
0
0
0
0
0
0
0
0
0
0
0
0
0
0
0
0
0
0
0
0
0
0
0
0
0
0
0
0
0
0
0
0
0
0
0
0
0
0
0
0
0
0
0
0
0
0
0
0
2
2
2
0
0
0
0
0
0
0
0
0
0
0
0
0
0
0
0
0
0
164
163
165
131
129
132
142
140
143
133
132
133
160
158
161
132
130
131
142
140
141
138
135
138
153
148
152
108
106
108
142
140
143
126
125
128
144
142
144
97
96
95
183
183
185
190
191
193
177
177
179
176
174
176
149
144
143
190
187
185
177
170
169
215
210
208
199
190
188
143
133
126
149
141
135
173
165
163
171
164
161
208
205
201
146
135
124
202
193
189
167
158
155
167
158
151
207
199
191
149
137
128
179
168
159
170
159
149
171
157
145
169
151
131
154
137
120
109
95
80
114
102
86
174
161
151
138
127
118
154
143
137
107
97
91
152
143
138
105
94
90
118
108
104
0
0
0
0
0
0
0
0
0
0
0
0
0
0
0
0
0
0
0
0
0
0
0
0
0
0
0
0
0
0
0
0
0
0
0
0
0
0
0
0
0
0
0
0
0
0
0
0
8
8
8
5
5
5
10
10
10
8
8
8
2
2
2
0
0
0
0
0
0
2
2
1
89
77
63
115
99
84
83
70
63
90
78
71
87
74
66
88
74
66
90
76
67
91
78
69
92
77
70
94
81
73
98
84
74
99
82
71
99
81
68
100
81
68
89
71
60
117
102
92
8
6
6
0
0
0
0
0
0
0
0
0
1
1
1
10
10
10
9
9
9
12
12
12
3
3
3
0
0
0
0
0
0
0
0
0
0
0
0
0
0
0
0
0
0
0
0
0
0
0
0
0
0
0
0
0
0
0
0
0
0
0
0
0
0
0
0
0
0
0
0
0
0
0
0
0
0
0
0
0
0
0
0
0
0
0
0
0
0
0
0
0
0
4
4
4
9
9
9
9
9
9
2
2
2
0
0
0
0
0
0
0
0
0
0
0
0
0
0
0
157
155
158
124
122
124
131
129
131
131
129
130
101
99
100
124
122
123
160
160
160
149
147
150
152
148
147
97
93
91
151
149
151
143
142
147
143
142
146
124
123
125
156
154
155
219
220
221
164
164
166
210
209
211
164
159
158
169
163
160
175
166
164
196
188
181
181
170
166
171
162
155
157
149
144
187
181
175
173
164
160
209
207
203
137
128
117
168
160
155
179
171
168
174
164
156
188
181
171
152
138
130
154
142
133
179
169
158
168
153
140
163
145
125
150
132
112
125
109
94
124
111
98
174
162
150
156
146
138
165
155
149
132
121
116
128
120
115
130
121
116
120
110
106
0
0
0
0
0
0
0
0
0
0
0
0
0
0
0
0
0
0
0
0
0
0
0
0
0
0
0
0
0
0
0
0
0
0
0
0
0
0
0
0
0
0
1
1
1
5
5
5
11
11
11
7
7
7
8
8
8
2
2
2
0
0
0
0
0
0
0
0
0
66
57
48
93
78
67
85
72
65
93
81
75
96
86
80
93
82
75
90
77
69
90
78
70
92
79
71
92
79
71
93
79
72
97
84
76
99
83
73
99
82
70
99
81
67
92
74
62
107
94
85
54
46
39
0
0
0
0
0
0
2
2
2
4
4
4
1
1
1
5
5
5
8
8
8
0
0
0
0
0
0
0
0
0
0
0
0
0
0
0
0
0
0
0
0
0
0
0
0
0
0
0
0
0
0
0
0
0
0
0
0
0
0
0
0
0
0
0
0
0
0
0
0
0
0
0
0
0
0
0
0
0
0
0
0
0
0
0
0
0
0
0
0
0
5
5
5
10
10
10
13
13
13
10
10
10
4
4
4
0
0
0
0
0
0
0
0
0
0
0
0
143
141
144
126
123
124
130
127
129
145
144
146
86
85
86
160
159
162
141
141
142
171
170
174
130
125
122
116
109
106
134
132
132
150
149
154
176
176
182
177
177
179
123
120
122
196
197
196
201
201
205
181
179
181
187
181
179
143
133
131
175
166
162
183
174
167
176
165
159
186
176
170
190
183
177
193
185
180
174
164
160
221
217
212
142
133
124
141
133
125
199
193
190
188
177
169
163
151
143
147
133
124
155
142
132
177
161
149
161
144
128
155
137
117
142
124
107
139
124
109
182
169
155
170
158
147
150
140
131
163
153
146
160
150
144
125
115
111
142
133
128
148
138
134
0
0
0
0
0
0
0
0
0
0
0
0
0
0
0
0
0
0
0
0
0
0
0
0
0
0
0
0
0
0
0
0
0
0
0
0
0
0
0
1
1
1
7
7
7
8
8
8
12
12
12
7
7
7
2
2
2
0
0
0
0
0
0
0
0
0
43
36
30
85
71
61
87
74
68
90
79
73
93
81
76
97
87
81
98
88
82
94
82
76
93
81
74
93
81
74
93
80
72
93
79
72
96
83
75
99
85
75
100
82
72
97
80
67
96
77
65
82
65
55
96
83
71
19
15
10
1
1
1
11
11
11
12
12
12
2
2
2
1
1
1
0
0
0
0
0
0
0
0
0
0
0
0
0
0
0
0
0
0
0
0
0
0
0
0
0
0
0
0
0
0
0
0
0
0
0
0
0
0
0
0
0
0
0
0
0
0
0
0
0
0
0
0
0
0
0
0
0
0
0
0
0
0
0
0
0
0
0
0
0
1
1
1
10
10
10
3
3
3
9
9
9
5
5
5
0
0
0
0
0
0
0
0
0
0
0
0
0
0
0
117
114
116
138
134
135
103
99
100
168
166
168
125
123
125
157
157
160
158
158
160
178
177
181
132
126
124
109
102
99
97
92
89
173
172
171
224
225
228
171
170
173
180
179
181
139
137
135
209
208
210
166
164
164
143
135
132
167
158
153
160
152
145
171
163
156
187
177
170
174
164
157
194
189
183
170
160
156
181
172
167
196
190
184
150
140
131
158
150
141
206
201
196
181
170
162
178
166
157
142
128
114
171
159
147
174
158
144
154
138
122
142
125
105
163
147
132
147
132
118
191
176
162
172
160
149
134
124
115
144
132
124
153
141
134
125
115
108
152
142
136
148
138
134
0
0
0
0
0
0
0
0
0
0
0
0
0
0
0
0
0
0
0
0
0
0
0
0
0
0
0
0
0
0
0
0
0
1
1
1
4
4
4
12
12
12
8
8
8
9
9
9
11
11
11
0
0
0
0
0
0
0
0
0
0
0
0
25
20
17
86
72
62
86
74
68
90
78
72
91
80
74
92
81
76
96
86
80
100
90
84
99
88
83
97
85
80
96
85
79
94
81
74
93
80
73
94
81
74
99
86
77
100
83
74
98
81
68
97
79
67
86
67
57
99
82
70
44
37
29
11
10
9
13
13
13
11
11
11
7
7
7
0
0
0
0
0
0
0
0
0
0
0
0
0
0
0
0
0
0
0
0
0
0
0
0
0
0
0
0
0
0
0
0
0
0
0
0
0
0
0
0
0
0
0
0
0
0
0
0
0
0
0
0
0
0
0
0
0
0
0
0
0
0
0
0
0
0
0
0
0
4
4
4
9
9
9
11
11
11
11
11
11
6
6
6
0
0
0
0
0
0
0
0
0
0
0
0
0
0
0
0
0
0
151
147
146
123
117
118
111
106
105
149
146
147
136
134
136
148
147
149
169
169
171
165
165
166
149
146
144
111
102
100
96
90
87
151
143
140
190
189
188
206
205
206
187
185
186
146
143
142
175
172
170
190
188
189
155
151
148
142
133
127
173
166
159
161
152
146
181
172
167
178
168
161
175
168
161
183
175
169
160
149
146
198
191
185
146
136
127
153
144
135
194
188
183
189
180
171
211
202
188
166
149
134
166
150
135
156
139
125
154
137
121
148
131
113
188
175
161
174
160
145
181
166
151
166
154
144
155
144
135
155
142
135
148
135
128
118
106
98
157
147
140
164
154
149
0
0
0
0
0
0
0
0
0
0
0
0
0
0
0
0
0
0
0
0
0
0
0
0
0
0
0
0
0
0
0
0
0
9
9
9
5
5
5
10
10
10
10
10
10
8
8
8
3
3
3
0
0
0
0
0
0
0
0
0
8
6
5
82
69
59
84
72
66
89
78
72
90
79
73
91
80
74
92
81
76
95
84
79
99
89
83
101
90
85
100
89
84
100
88
83
96
84
78
94
81
74
94
80
74
98
85
77
100
86
76
99
82
71
97
79
66
92
73
62
90
73
62
67
56
47
16
13
11
10
10
10
4
4
4
0
0
0
0
0
0
0
0
0
0
0
0
0
0
0
0
0
0
0
0
0
0
0
0
0
0
0
0
0
0
0
0
0
0
0
0
0
0
0
0
0
0
0
0
0
0
0
0
0
0
0
0
0
0
0
0
0
0
0
0
0
0
0
0
0
0
3
3
3
4
4
4
11
11
11
6
6
6
10
10
10
2
2
2
0
0
0
0
0
0
0
0
0
0
0
0
0
0
0
0
0
0
0
0
0
148
144
142
141
137
134
134
130
127
90
85
83
174
171
170
146
145
146
177
178
179
150
148
147
190
188
185
150
147
144
83
76
73
164
156
152
172
167
164
205
203
201
188
184
183
179
175
172
142
137
133
197
193
193
162
159
157
148
138
132
181
172
165
186
177
171
186
177
171
162
150
142
171
161
154
194
189
181
179
169
164
191
184
177
132
121
112
166
155
145
188
181
172
196
185
174
203
193
178
165
147
131
160
143
127
166
149
136
149
132
118
161
145
132
191
179
165
163
148
134
166
150
136
148
134
124
156
143
135
155
142
134
148
136
128
123
111
102
135
125
118
156
146
140
0
0
0
0
0
0
0
0
0
0
0
0
0
0
0
0
0
0
0
0
0
0
0
0
0
0
0
0
0
0
0
0
0
12
12
12
12
12
12
12
12
12
6
6
6
2
2
2
0
0
0
0
0
0
0
0
0
1
1
0
64
53
45
81
67
61
88
77
71
90
78
72
90
79
74
91
80
75
93
81
76
94
83
78
99
88
83
101
91
85
101
91
86
101
91
86
99
88
82
95
82
75
94
81
74
96
84
76
100
88
79
100
84
74
97
80
67
95
77
64
85
67
56
81
66
54
20
18
17
7
7
7
0
0
0
0
0
0
0
0
0
0
0
0
0
0
0
0
0
0
0
0
0
0
0
0
0
0
0
0
0
0
0
0
0
0
0
0
0
0
0
0
0
0
0
0
0
0
0
0
0
0
0
0
0
0
0
0
0
0
0
0
0
0
0
0
0
0
5
5
5
8
8
8
14
14
14
7
7
7
11
11
11
6
6
6
0
0
0
0
0
0
0
0
0
0
0
0
0
0
0
0
0
0
0
0
0
0
0
0
156
152
149
139
134
132
145
141
138
114
109
107
129
124
121
137
134
131
181
181
181
176
176
175
148
142
139
208
205
205
126
119
116
155
147
141
183
175
171
190
186
182
185
180
176
207
202
198
112
106
100
193
189
186
206
202
199
170
160
154
148
136
128
170
158
152
187
179
172
151
140
129
178
169
161
174
166
159
186
177
170
184
176
166
152
140
130
167
152
141
182
171
160
182
168
156
194
177
161
163
144
125
165
150
133
176
164
153
149
134
122
160
144
131
195
181
168
154
140
124
147
132
120
148
132
122
150
137
129
177
165
157
161
149
141
128
116
108
143
133
126
151
141
135
0
0
0
0
0
0
0
0
0
0
0
0
0
0
0
0
0
0
0
0
0
0
0
0
0
0
0
0
0
0
0
0
0
1
1
1
3
3
3
11
11
11
1
1
1
0
0
0
0
0
0
0
0
0
0
0
0
48
39
33
77
64
57
88
76
70
89
78
72
90
79
73
91
80
74
92
80
75
93
81
76
94
83
78
97
87
81
100
90
85
102
91
86
102
91
86
101
90
85
95
83
76
95
82
75
96
84
76
101
89
80
101
86
77
98
81
69
95
78
65
86
68
57
81
65
55
26
20
17
3
2
1
0
0
0
0
0
0
0
0
0
0
0
0
0
0
0
0
0
0
0
0
0
0
0
0
0
0
0
0
0
0
0
0
0
0
0
0
0
0
0
0
0
0
0
0
0
0
0
0
0
0
0
0
0
0
0
0
0
0
0
0
0
0
0
2
2
2
11
11
11
5
5
5
8
8
8
13
13
13
4
4
4
0
0
0
0
0
0
0
0
0
0
0
0
0
0
0
0
0
0
0
0
0
0
0
0
0
0
0
141
137
135
137
133
131
150
144
141
144
138
136
134
129
127
141
136
133
143
140
138
206
206
206
165
160
158
181
174
168
169
163
154
139
133
127
146
136
130
179
171
167
175
168
164
197
192
188
132
124
118
187
181
177
191
186
182
163
154
149
155
144
136
173
161
154
163
154
145
159
148
137
174
164
156
163
152
144
191
181
175
163
152
143
177
166
156
152
137
125
186
174
162
180
167
155
179
162
146
154
135
116
177
163
150
180
169
160
176
163
154
156
141
129
190
176
163
161
146
131
176
165
155
150
136
127
154
141
133
183
170
162
144
131
124
159
146
138
143
131
124
158
148
142
0
0
0
0
0
0
0
0
0
0
0
0
0
0
0
0
0
0
0
0
0
0
0
0
0
0
0
8
8
8
12
12
12
2
2
2
3
3
3
2
2
2
0
0
0
0
0
0
0
0
0
0
0
0
20
16
14
80
66
58
86
74
69
89
77
71
89
78
72
90
79
73
91
80
74
92
81
75
93
81
76
94
83
78
96
86
80
100
89
84
101
91
85
102
91
86
102
91
86
96
84
78
95
82
75
96
84
77
100
89
81
102
88
79
100
83
73
94
77
65
88
72
60
79
62
52
38
28
23
3
2
2
0
0
0
0
0
0
0
0
0
0
0
0
0
0
0
0
0
0
0
0
0
0
0
0
0
0
0
0
0
0
0
0
0
0
0
0
0
0
0
0
0
0
0
0
0
0
0
0
0
0
0
0
0
0
0
0
0
0
0
0
0
0
0
1
1
1
10
10
10
9
9
9
12
12
12
2
2
2
0
0
0
0
0
0
0
0
0
0
0
0
0
0
0
0
0
0
0
0
0
0
0
0
0
0
0
0
0
0
105
98
95
151
146
144
159
152
149
152
144
141
133
126
124
165
163
159
133
128
125
212
209
208
203
200
198
145
138
130
155
146
135
155
149
141
146
137
129
162
152
145
144
135
127
187
179
175
156
147
139
163
153
146
173
163
158
164
154
148
139
128
120
149
137
129
157
147
138
156
145
135
167
156
148
161
150
141
178
167
160
179
167
158
164
153
142
159
144
131
170
156
142
178
165
154
165
149
137
162
144
129
171
157
144
178
166
157
172
159
151
166
152
142
180
167
155
153
139
123
177
166
157
145
133
125
172
162
155
159
147
139
159
148
140
164
151
143
150
138
131
161
150
144
0
0
0
0
0
0
0
0
0
0
0
0
0
0
0
0
0
0
1
1
1
1
1
1
3
3
3
12
12
12
10
10
10
8
8
8
0
0
0
0
0
0
0
0
0
0
0
0
0
0
0
0
0
1
64
53
45
81
68
62
88
76
71
89
78
72
89
78
73
90
79
74
91
80
74
92
81
75
93
81
77
94
83
78
95
85
79
98
88
82
100
90
84
101
91
85
102
92
87
98
86
80
96
83
76
97
85
78
101
89
81
102
90
82
101
85
76
95
78
66
88
72
61
78
61
51
50
37
31
3
2
2
0
0
0
0
0
0
0
0
0
0
0
0
0
0
0
0
0
0
0
0
0
0
0
0
0
0
0
0
0
0
0
0
0
0
0
0
0
0
0
0
0
0
0
0
0
0
0
0
0
0
0
0
0
0
0
0
0
0
0
0
2
2
2
3
3
3
1
1
1
7
7
7
7
7
7
0
0
0
0
0
0
0
0
0
0
0
0
0
0
0
0
0
0
0
0
0
0
0
0
0
0
0
0
0
0
0
0
0
122
115
110
116
109
105
133
123
122
126
118
115
159
152
148
153
147
144
184
176
173
180
177
174
207
203
203
207
203
201
137
129
118
158
150
140
131
122
113
127
116
108
138
128
119
158
148
141
140
130
122
144
134
125
154
143
137
153
141
136
110
98
89
117
104
95
160
148
140
159
147
138
155
142
133
158
145
135
166
155
146
172
159
149
149
136
123
147
131
118
142
126
111
153
140
128
146
133
123
164
149
134
157
143
130
190
178
169
167
155
146
187
173
163
175
161
151
162
148
136
149
135
126
162
151
144
176
166
160
138
127
118
169
159
150
163
150
142
134
122
115
168
157
151
0
0
0
0
0
0
0
0
0
0
0
0
0
0
0
0
0
0
9
9
9
11
11
11
11
11
11
11
11
11
10
10
10
3
3
3
0
0
0
0
0
0
0
0
0
0
0
0
0
0
0
38
32
27
74
60
53
86
74
68
88
77
71
89
78
72
89
78
73
90
79
74
91
80
74
92
81
75
93
81
77
94
83
78
95
84
79
97
87
81
99
89
83
100
90
84
102
92
86
100
88
82
96
84
77
98
85
79
101
89
82
103
92
84
102
86
78
97
80
69
88
72
62
78
61
52
63
46
39
12
7
6
0
0
0
0
0
0
0
0
0
0
0
0
0
0
0
0
0
0
0
0
0
0
0
0
0
0
0
0
0
0
0
0
0
0
0
0
0
0
0
0
0
0
0
0
0
0
0
0
0
0
0
0
0
0
0
0
0
1
1
1
12
12
12
12
12
12
2
2
2
0
0
0
0
0
0
0
0
0
0
0
0
0
0
0
0
0
0
0
0
0
0
0
0
0
0
0
0
0
0
0
0
0
0
0
0
0
0
0
104
97
92
107
100
95
132
123
121
169
160
157
169
163
158
140
134
130
191
184
180
163
157
152
205
201
199
197
192
190
167
161
153
142
134
125
126
118
109
115
103
94
133
121
113
144
131
122
121
111
102
128
117
108
137
127
120
154
143
137
98
86
76
109
97
88
141
128
120
151
139
131
149
135
126
156
142
133
159
145
134
164
150
138
155
140
127
135
118
104
133
116
101
154
141
129
161
150
137
171
159
145
141
126
113
176
165
157
169
158
151
160
147
137
167
156
146
146
131
119
139
125
115
162
151
144
160
149
144
142
131
122
189
178
171
169
158
149
169
159
152
162
152
146
0
0
0
0
0
0
0
0
0
0
0
0
0
0
0
1
1
1
4
4
4
10
10
10
8
8
8
11
11
11
1
1
1
0
0
0
0
0
0
0
0
0
0
0
0
0
0
0
22
19
15
76
63
54
81
68
62
87
75
69
88
77
71
89
78
72
89
78
73
90
79
73
91
80
74
92
81
75
92
81
77
93
82
78
95
84
79
96
85
80
98
87
82
99
89
83
102
91
86
101
90
84
97
84
77
98
86
80
101
90
83
103
92
85
102
88
80
100
83
74
91
74
64
80
63
54
75
58
50
37
28
24
3
2
1
0
0
0
0
0
0
0
0
0
0
0
0
0
0
0
0
0
0
0
0
0
0
0
0
0
0
0
0
0
0
0
0
0
0
0
0
0
0
0
0
0
0
0
0
0
0
0
0
6
6
6
4
4
4
9
9
9
13
13
13
12
12
12
6
6
6
0
0
0
0
0
0
0
0
0
0
0
0
0
0
0
0
0
0
0
0
0
0
0
0
0
0
0
0
0
0
0
0
0
0
0
0
0
0
0
158
150
145
121
113
108
142
132
126
188
178
175
154
145
140
176
166
161
162
155
149
161
154
147
185
176
170
202
196
190
168
160
151
129
120
110
128
118
108
109
97
89
106
94
86
111
98
89
97
87
77
116
104
95
137
127
118
142
131
124
92
79
68
110
96
87
143
131
122
149
136
128
147
134
126
136
122
111
168
154
142
162
148
137
155
140
127
137
120
107
139
122
108
168
153
139
181
171
160
163
150
137
146
132
120
185
175
166
164
152
146
148
135
124
154
144
133
149
136
124
149
138
129
149
138
133
186
175
171
148
137
131
174
163
156
178
168
159
183
174
167
154
145
139
0
0
0
0
0
0
0
0
0
2
2
2
3
3
3
8
8
8
9
9
9
11
11
11
8
8
8
2
2
2
0
0
0
0
0
0
0
0
0
0
0
0
0
0
0
10
8
6
71
59
51
75
61
54
85
73
67
87
76
70
88
77
71
88
77
72
89
78
72
90
79
73
91
80
74
91
80
75
92
81
77
93
82
78
94
83
79
95
85
80
97
86
81
98
88
82
101
91
85
102
91
85
97
84
78
99
87
81
102
91
84
104
93
86
101
89
82
101
84
77
94
77
68
84
67
58
75
58
50
69
53
46
12
8
6
0
0
0
0
0
0
0
0
0
0
0
0
0
0
0
0
0
0
0
0
0
0
0
0
0
0
0
0
0
0
0
0
0
0
0
0
0
0
0
0
0
0
0
0
0
0
0
0
7
7
7
13
13
13
6
6
6
10
10
10
3
3
3
0
0
0
0
0
0
0
0
0
0
0
0
0
0
0
0
0
0
0
0
0
0
0
0
0
0
0
0
0
0
0
0
0
0
0
0
0
0
0
0
0
0
158
149
142
131
121
116
140
130
124
165
155
151
175
165
162
166
154
147
161
149
141
151
139
131
137
126
118
187
177
170
172
162
154
146
136
127
135
123
115
95
83
75
83
71
62
106
93
85
106
93
85
91
78
70
127
116
108
141
132
123
110
99
90
103
90
81
138
128
118
133
121
112
128
118
112
155
143
132
164
149
137
162
148
136
148
133
121
138
123
110
142
125
111
158
142
127
184
171
160
141
127
117
148
134
124
184
174
165
157
146
137
141
128
117
150
139
129
142
130
118
150
139
135
178
169
165
182
172
168
165
155
149
145
135
127
168
158
149
167
158
150
170
161
155
0
0
0
0
0
0
0
0
0
2
2
2
13
13
13
9
9
9
10
10
10
10
10
10
1
1
1
0
0
0
0
0
0
0
0
0
0
0
0
0
0
0
0
0
0
56
48
41
72
57
50
81
69
63
85
74
68
87
75
69
88
76
70
88
77
71
89
78
72
89
78
73
90
79
74
91
80
75
92
81
76
93
82
78
94
83
79
95
84
80
96
86
80
98
87
82
100
90
84
102
91
86
97
85
78
100
88
81
103
92
85
104
94
87
101
90
84
98
83
76
96
79
71
86
69
60
75
58
50
73
57
48
33
24
19
3
2
1
0
0
0
0
0
0
0
0
0
0
0
0
0
0
0
0
0
0
0
0
0
0
0
0
0
0
0
0
0
0
0
0
0
0
0
0
0
0
0
0
0
0
3
3
3
11
11
11
10
10
10
12
12
12
7
7
7
0
0
0
0
0
0
0
0
0
0
0
0
0
0
0
0
0
0
0
0
0
0
0
0
0
0
0
0
0
0
0
0
0
0
0
0
0
0
0
0
0
0
0
0
0
134
125
116
140
130
122
149
139
132
163
153
147
182
173
167
151
140
132
154
142
134
137
125
116
119
107
98
151
140
131
164
154
145
144
132
123
103
91
82
92
80
72
91
79
71
92
80
72
89
77
68
87
75
66
108
97
88
134
124
115
125
114
106
96
82
74
137
127
118
133
121
112
131
121
115
157
148
138
134
120
107
161
146
133
140
125
112
135
121
106
150
134
119
140
123
107
176
162
149
129
116
107
154
140
131
170
158
147
176
167
160
147
136
126
149
139
130
134
120
108
182
172
168
186
177
171
169
158
153
180
170
164
146
136
127
159
149
141
161
150
146
150
141
136
0
0
0
0
0
0
0
0
0
5
5
5
9
9
9
11
11
11
6
6
6
2
2
2
0
0
0
0
0
0
0
0
0
0
0
0
0
0
0
0
0
0
3
2
2
75
63
55
73
60
54
82
70
64
85
73
67
86
75
69
87
76
70
88
77
71
88
77
72
89
78
73
90
79
74
91
80
75
92
81
76
93
82
78
94
83
79
95
84
80
96
85
80
97
87
81
100
90
84
102
92
86
98
86
79
100
88
82
104
93
87
105
94
88
102
91
85
95
82
76
92
77
68
84
70
60
74
58
50
73
56
47
51
39
32
4
3
2
0
0
0
0
0
0
0
0
0
0
0
0
0
0
0
0
0
0
0
0
0
0
0
0
0
0
0
0
0
0
0
0
0
0
0
0
6
6
6
6
6
6
9
9
9
4
4
4
11
11
11
3
3
3
0
0
0
0
0
0
0
0
0
0
0
0
0
0
0
0
0
0
0
0
0
0
0
0
0
0
0
0
0
0
0
0
0
0
0
0
0
0
0
0
0
0
0
0
0
0
0
0
151
141
133
142
132
124
153
143
134
152
142
133
168
159
152
164
154
146
123
111
103
143
133
125
114
102
91
123
113
103
175
164
156
125
113
104
96
84
74
92
81
72
85
75
66
100
89
80
79
67
56
71
59
49
88
77
68
148
136
127
154
144
135
103
92
83
159
150
141
114
103
95
153
144
139
142
132
126
137
124
112
152
137
124
140
126
114
147
134
120
164
151
138
139
124
108
146
130
115
165
151
142
159
147
138
154
140
130
210
203
198
145
135
130
174
164
157
138
124
112
178
167
161
164
153
145
165
154
147
161
150
143
163
152
143
150
139
130
160
149
144
147
139
136
0
0
0
9
9
9
10
10
10
5
5
5
12
12
12
11
11
11
2
2
2
0
0
0
0
0
0
0
0
0
0
0
0
0
0
0
0
0
0
0
0
0
36
31
27
70
58
52
74
62
56
81
70
64
84
73
67
85
74
68
86
75
69
87
76
70
88
77
71
89
78
72
90
79
73
91
80
75
92
81
76
93
82
78
94
83
79
95
84
80
96
85
81
97
87
81
100
90
84
102
92
86
99
87
80
101
89
83
105
95
88
106
96
89
103
92
86
95
83
77
86
73
65
80
67
57
72
57
49
78
62
52
68
54
45
10
6
4
0
0
0
0
0
0
0
0
0
0
0
0
0
0
0
0
0
0
0
0
0
0
0
0
0
0
0
0
0
0
0
0
0
0
0
0
5
5
5
14
14
14
10
10
10
12
12
12
7
7
7
0
0
0
0
0
0
0
0
0
0
0
0
0
0
0
0
0
0
0
0
0
0
0
0
0
0
0
0
0
0
0
0
0
0
0
0
0
0
0
0
0
0
0
0
0
0
0
0
0
0
0
166
156
148
157
147
138
153
144
135
172
163
154
152
140
132
142
130
121
113
101
91
145
134
123
92
80
69
101
89
77
147
134
125
132
121
110
116
104
93
82
69
60
94
83
74
99
89
80
72
60
49
75
62
53
101
89
81
137
124
115
147
138
129
130
122
114
154
144
136
128
117
111
141
136
130
163
154
149
161
153
144
143
128
116
129
114
103
165
153
141
165
151
141
139
125
112
132
116
103
160
145
138
147
136
128
145
132
123
191
182
174
156
146
142
161
152
146
143
130
117
174
162
153
152
139
128
153
142
133
148
137
129
161
150
141
143
131
123
153
142
136
163
157
155
0
0
0
7
7
7
10
10
10
13
13
13
9
9
9
1
1
1
0
0
0
0
0
0
0
0
0
0
0
0
0
0
0
0
0
0
0
0
0
13
11
10
78
65
55
65
52
47
73
61
56
79
68
62
82
71
65
84
73
67
86
74
69
87
76
70
88
76
71
88
77
72
89
78
73
91
80
75
92
81
76
93
82
78
94
83
79
95
85
80
96
86
81
97
87
82
100
90
84
102
92
86
100
88
81
102
90
84
106
96
90
106
96
90
103
92
86
95
83
78
85
72
65
75
63
53
69
55
46
85
68
57
75
61
50
12
8
6
0
0
0
0
0
0
0
0
0
0
0
0
0
0
0
0
0
0
0
0
0
0
0
0
0
0
0
0
0
0
2
2
2
1
1
1
8
8
8
7
7
7
11
11
11
2
2
2
0
0
0
0
0
0
0
0
0
0
0
0
0
0
0
0
0
0
0
0
0
0
0
0
0
0
0
0
0
0
0
0
0
0
0
0
0
0
0
0
0
0
0
0
0
0
0
0
0
0
0
0
0
0
143
132
120
141
131
119
160
150
141
157
147
138
147
136
127
133
120
109
119
106
96
122
108
98
116
104
93
81
70
58
118
106
94
127
115
104
118
106
95
97
85
75
115
105
95
95
84
75
84
72
60
90
79
69
122
109
99
148
137
125
132
120
109
147
138
129
141
131
122
130
120
113
169
164
156
144
136
131
193
187
181
136
124
115
141
128
119
171
159
149
152
138
128
154
141
128
128
114
100
152
139
130
153
139
130
147
133
121
176
166
159
164
155
150
182
173
168
134
118
105
141
125
112
146
132
121
139
125
114
142
129
120
152
140
132
163
153
146
144
134
128
168
163
161
16
15
14
23
21
19
15
15
15
3
3
3
2
2
2
6
6
6
8
8
7
2
2
2
0
0
0
0
0
0
0
0
0
0
0
0
1
1
2
67
61
56
65
55
50
64
51
47
71
59
54
77
65
60
80
69
63
83
72
66
84
73
68
86
75
69
87
76
70
88
77
71
89
78
73
90
79
74
91
81
76
93
82
78
94
83
79
96
85
81
97
86
82
98
88
82
100
90
84
102
91
86
100
89
83
103
91
85
106
96
90
106
96
90
102
91
85
93
81
77
83
70
64
71
58
51
67
53
45
91
74
62
69
57
47
10
7
4
0
0
0
0
0
0
0
0
0
0
0
0
0
0
0
0
0
0
0
0
0
0
0
0
0
0
0
0
0
0
11
11
11
11
11
11
9
9
9
11
11
11
7
7
7
0
0
0
0
0
0
0
0
0
0
0
0
0
0
0
0
0
0
0
0
0
0
0
0
0
0
0
0
0
0
0
0
0
0
0
0
0
0
0
0
0
0
0
0
0
0
0
0
0
0
0
0
0
0
0
0
0
152
139
126
141
128
117
172
162
150
134
123
112
161
151
141
146
135
124
123
109
98
108
96
86
112
98
88
92
80
69
133
120
109
137
123
112
120
108
96
125
114
103
112
100
89
117
108
98
93
81
69
101
90
77
111
99
85
125
112
102
138
124
114
156
144
136
153
141
133
130
121
113
177
170
163
143
135
129
194
185
180
152
140
132
150
138
130
158
145
137
164
151
142
156
143
131
133
118
105
189
176
166
158
143
131
141
126
112
168
158
150
157
148
143
199
190
185
137
122
110
137
121
108
149
135
124
133
119
108
134
120
109
155
143
135
155
145
138
134
125
119
145
137
134
58
56
53
65
60
58
49
47
45
29
28
27
19
19
18
28
27
26
33
33
31
23
21
20
4
4
4
8
8
6
25
22
21
31
28
26
66
59
53
99
85
73
65
57
54
61
49
46
67
55
52
73
61
57
77
66
61
80
69
64
83
72
66
85
74
68
86
75
69
87
76
71
88
77
72
90
79
73
91
80
75
92
82
77
94
83
79
96
86
81
98
87
83
98
88
83
100
90
84
102
91
85
101
90
84
103
92
86
105
95
89
104
93
88
99
88
83
90
78
73
79
66
61
67
54
48
65
51
45
65
52
44
35
28
22
3
2
1
0
0
0
0
0
0
0
0
0
0
0
0
0
0
0
0
0
0
0
0
0
0
0
0
0
0
0
0
0
0
6
6
6
12
12
12
9
9
9
6
6
6
0
0
0
0
0
0
0
0
0
0
0
0
0
0
0
0
0
0
0
0
0
0
0
0
0
0
0
0
0
0
0
0
0
0
0
0
0
0
0
0
0
0
0
0
0
0
0
0
0
0
0
0
0
0
0
0
0
0
0
0
140
127
115
146
132
121
139
125
114
126
112
102
151
138
129
165
155
145
107
93
81
83
71
59
128
115
103
99
86
75
109
96
85
121
107
95
109
96
85
136
124
112
98
87
75
122
110
101
94
84
72
129
117
105
118
105
93
94
81
70
131
117
107
153
140
131
163
152
142
128
119
109
166
157
150
177
169
161
169
158
149
183
175
165
152
139
129
170
159
151
154
141
132
158
144
133
124
110
98
194
182
170
158
143
129
128
112
96
183
172
164
152
141
135
159
148
142
146
133
123
142
126
114
143
129
118
130
117
106
130
116
106
148
136
125
130
117
108
128
119
110
139
131
128
95
88
80
101
95
92
90
87
86
86
84
83
92
89
84
83
79
74
78
74
68
86
77
68
52
47
42
41
34
28
70
63
56
85
79
76
73
66
61
115
101
86
98
88
81
61
52
49
61
49
46
68
56
53
73
62
58
77
66
61
80
69
64
83
72
66
85
74
68
86
75
70
88
76
71
89
78
72
90
79
74
92
81
76
94
83
79
97
86
82
99
88
84
99
89
83
100
90
84
101
91
85
102
91
85
103
92
86
103
92
86
99
89
83
94
83
78
85
73
68
73
61
55
65
52
45
63
50
44
45
35
30
6
4
3
0
0
0
0
0
0
0
0
0
0
0
0
0
0
0
0
0
0
0
0
0
0
0
0
0
0
0
0
0
0
0
0
0
2
2
2
10
10
10
1
1
1
0
0
0
0
0
0
0
0
0
0
0
0
0
0
0
0
0
0
0
0
0
0
0
0
0
0
0
0
0
0
0
0
0
0
0
0
0
0
0
0
0
0
0
0
0
0
0
0
0
0
0
0
0
0
0
0
0
0
0
0
0
0
0
108
94
84
148
134
124
106
92
82
109
95
85
124
111
101
163
151
141
113
99
86
98
82
68
113
100
87
136
125
112
115
100
85
114
99
86
118
103
91
126
113
101
104
90
79
157
145
134
112
100
91
125
112
99
113
100
87
90
76
63
130
117
107
130
117
108
152
140
128
145
133
122
147
136
126
184
174
165
154
142
131
179
165
154
149
135
124
181
173
163
155
143
133
168
155
145
153
140
129
176
166
154
163
148
136
146
130
114
183
170
162
178
167
161
148
135
127
146
132
122
140
125
113
136
122
109
135
122
111
121
107
96
130
116
106
118
106
96
120
110
103
128
120
117
98
93
89
84
82
82
76
75
75
75
74
74
76
76
75
81
80
79
90
88
86
94
92
89
95
92
89
94
85
77
92
86
80
83
81
79
77
74
75
102
93
84
95
86
79
84
77
74
61
52
49
61
50
47
68
56
54
73
62
59
77
66
61
80
69
64
83
72
66
85
74
68
86
75
70
88
77
71
89
78
73
91
80
75
93
82
78
96
86
82
99
89
85
99
89
84
99
89
83
100
90
84
101
90
84
100
90
83
98
88
81
94
83
78
88
77
72
80
68
63
69
56
51
64
50
44
63
49
43
47
37
31
3
2
1
0
0
0
0
0
0
0
0
0
0
0
0
0
0
0
0
0
0
0
0
0
0
0
0
0
0
0
0
0
0
0
0
0
0
0
0
2
2
2
0
0
0
0
0
0
0
0
0
0
0
0
0
0
0
0
0
0
0
0
0
0
0
0
0
0
0
0
0
0
0
0
0
0
0
0
0
0
0
0
0
0
0
0
0
0
0
0
0
0
0
0
0
0
0
0
0
0
0
0
0
0
0
0
0
0
123
109
98
149
136
125
121
108
98
100
86
76
127
113
103
138
125
114
120
106
92
90
77
62
87
73
59
139
124
111
136
121
106
112
97
85
120
105
92
99
86
73
126
112
99
150
137
126
146
135
124
119
106
92
120
105
91
105
92
78
145
131
120
127
114
105
147
133
121
155
142
131
138
125
113
167
156
144
167
155
144
170
156
145
159
145
132
165
154
144
187
179
171
198
193
186
169
158
146
183
173
159
145
131
120
139
124
108
181
168
156
183
171
163
140
127
119
147
133
123
138
124
112
149
136
122
124
110
99
128
115
105
119
106
97
109
99
95
125
116
113
133
125
122
86
84
84
76
76
76
73
72
72
73
72
72
74
73
73
72
72
72
73
73
73
77
77
77
80
80
81
81
80
81
78
77
77
78
77
77
68
67
67
74
72
74
78
74
72
81
75
72
78
73
71
60
51
48
61
50
47
68
56
54
73
61
59
77
65
61
79
69
64
82
71
66
84
73
68
86
75
70
88
77
72
90
79
74
92
81
77
95
85
81
99
89
85
100
90
85
98
88
82
98
88
82
98
87
81
95
85
78
92
81
75
88
77
72
83
71
67
75
63
59
67
52
47
64
48
42
65
50
44
62
49
43
7
4
3
0
0
0
0
0
0
0
0
0
0
0
0
0
0
0
0
0
0
0
0
0
0
0
0
0
0
0
0
0
0
0
0
0
0
0
0
0
0
0
0
0
0
0
0
0
0
0
0
0
0
0
0
0
0
0
0
0
0
0
0
0
0
0
0
0
0
0
0
0
0
0
0
0
0
0
0
0
0
0
0
0
0
0
0
0
0
0
0
0
0
0
0
0
0
0
0
0
0
0
0
0
0
0
0
0
124
111
96
161
148
135
139
127
115
102
88
78
106
93
83
154
141
128
127
112
99
94
80
65
119
106
92
139
123
109
139
124
110
108
93
80
106
91
78
110
94
81
122
107
94
131
117
104
159
146
133
115
100
87
101
86
71
110
98
83
168
155
143
133
120
110
136
122
107
140
127
112
131
118
105
150
137
125
182
171
161
166
154
142
144
130
117
174
161
153
192
184
176
211
207
201
146
133
120
198
187
173
168
157
147
138
123
108
170
157
145
158
144
135
123
109
100
160
146
136
147
134
123
116
102
91
131
117
106
134
121
112
118
107
98
119
110
105
114
104
102
111
103
98
82
80
80
75
74
75
73
72
72
73
72
71
74
73
73
73
73
73
73
73
73
75
75
75
78
79
79
80
80
81
75
74
75
70
70
70
65
64
64
66
65
65
77
75
76
70
68
67
75
71
70
76
71
70
60
51
48
61
50
47
68
56
54
72
61
58
76
65
61
79
68
63
82
71
66
84
73
68
86
75
70
88
77
72
90
80
75
94
83
79
98
88
84
101
91
87
99
89
85
96
86
81
94
84
78
92
81
75
88
77
71
84
73
68
79
67
64
71
59
55
65
51
44
64
48
41
67
50
43
79
63
54
19
13
10
0
0
0
0
0
0
0
0
0
0
0
0
0
0
0
0
0
0
0
0
0
0
0
0
0
0
0
0
0
0
0
0
0
0
0
0
0
0
0
0
0
0
0
0
0
0
0
0
0
0
0
0
0
0
0
0
0
0
0
0
0
0
0
0
0
0
0
0
0
0
0
0
0
0
0
0
0
0
0
0
0
0
0
0
0
0
0
0
0
0
0
0
0
0
0
0
0
0
0
1
1
1
8
8
8
106
91
76
130
115
101
127
113
101
129
115
105
123
113
102
137
122
110
157
145
131
96
82
68
128
113
97
118
102
85
136
121
104
111
96
83
120
106
94
114
99
85
122
107
93
111
96
81
131
116
103
140
125
112
120
105
90
114
100
84
161
149
135
132
119
109
138
123
110
141
127
112
159
148
137
158
145
134
181
169
160
183
171
161
158
146
134
193
182
173
179
171
160
195
188
182
186
181
174
199
188
174
190
181
169
127
113
98
146
132
120
143
130
121
138
124
115
141
127
117
165
151
141
100
86
76
126
112
102
127
116
107
105
95
87
118
108
104
128
118
116
130
122
120
79
77
78
75
74
75
73
71
72
72
71
71
73
72
72
74
74
74
74
74
73
76
76
75
79
79
78
79
79
80
75
74
75
69
68
68
64
63
63
63
62
62
72
70
71
76
74
74
67
65
64
73
70
69
72
67
66
61
52
49
62
51
48
67
56
53
72
60
58
75
64
61
78
67
63
81
70
66
84
73
68
87
76
71
89
78
74
92
82
77
96
86
82
100
90
86
101
91
87
98
88
85
94
85
80
91
80
75
87
76
71
83
71
68
77
65
63
71
58
54
65
50
43
66
49
41
67
51
44
83
65
56
34
26
21
1
1
1
0
0
0
0
0
0
0
0
0
0
0
0
0
0
0
0
0
0
0
0
0
0
0
0
0
0
0
0
0
0
0
0
0
0
0
0
0
0
0
0
0
0
0
0
0
0
0
0
0
0
0
0
0
0
0
0
0
0
0
0
0
0
0
0
0
0
0
0
0
0
0
0
0
0
0
0
0
0
0
0
0
0
0
0
0
0
0
0
0
0
0
0
0
0
0
0
1
1
1
10
10
10
105
90
74
122
106
92
122
106
92
143
130
117
130
116
102
96
81
69
178
165
149
96
81
67
120
105
89
121
105
88
99
83
66
123
108
94
153
143
132
135
123
109
140
126
111
112
96
83
131
113
101
147
130
116
134
118
102
122
107
93
156
142
130
144
132
122
170
159
149
126
111
98
180
169
158
186
176
168
157
145
134
186
174
164
184
173
164
182
171
162
192
182
173
206
198
190
198
193
187
164
151
138
185
173
162
149
138
126
137
123
114
145
133
122
156
145
135
129
115
105
169
156
147
122
108
98
132
119
108
138
129
121
120
110
106
125
115
113
140
132
128
121
113
110
76
75
76
76
75
75
73
71
72
72
70
71
73
72
71
75
75
74
75
75
74
77
77
76
79
79
79
80
79
80
75
74
75
69
68
69
64
64
64
63
62
63
68
66
67
76
75
75
73
71
71
65
64
63
71
68
69
69
64
64
62
53
50
62
51
48
66
55
52
71
59
57
74
63
60
77
66
63
81
70
66
85
74
69
88
77
72
90
80
75
93
84
80
98
88
84
100
90
87
99
90
87
97
88
85
94
85
81
90
80
77
85
75
72
79
68
65
72
59
55
67
51
44
67
50
43
69
53
46
78
62
53
63
49
40
5
3
2
0
0
0
0
0
0
0
0
0
0
0
0
0
0
0
0
0
0
0
0
0
0
0
0
0
0
0
0
0
0
0
0
0
0
0
0
0
0
0
0
0
0
0
0
0
0
0
0
0
0
0
0
0
0
0
0
0
0
0
0
0
0
0
0
0
0
0
0
0
0
0
0
0
0
0
0
0
0
0
0
0
0
0
0
0
0
0
0
0
0
0
0
0
0
0
0
6
6
6
7
7
7
111
97
84
107
92
77
119
104
89
114
100
85
143
130
115
114
99
86
167
155
137
125
112
96
105
92
74
129
114
98
108
91
76
134
118
103
156
146
133
170
162
148
137
121
107
123
106
92
146
130
114
170
153
137
125
109
92
133
118
104
149
134
121
143
130
117
171
160
149
139
128
117
174
162
150
190
181
172
175
164
153
184
172
162
181
171
161
180
168
160
198
189
179
192
180
167
205
200
190
148
134
122
176
164
154
147
134
123
172
160
152
124
110
100
176
167
157
123
110
100
161
148
139
131
119
110
110
97
86
148
139
132
143
137
133
129
120
119
130
121
118
130
121
118
75
74
75
76
76
76
73
72
73
71
70
70
72
71
71
74
74
73
76
76
75
78
78
77
80
80
79
80
80
80
75
75
75
69
68
69
65
65
65
64
64
64
67
66
67
73
72
73
76
75
75
69
68
67
65
63
63
69
67
68
68
63
62
63
55
52
62
52
49
65
55
52
69
58
56
73
62
59
77
66
62
81
70
66
86
75
70
89
78
74
92
82
78
96
87
83
99
90
87
100
92
89
101
93
90
100
92
89
97
89
86
92
84
81
84
74
72
75
62
58
68
53
46
69
52
44
69
53
47
74
58
50
92
72
57
13
8
5
0
0
0
0
0
0
0
0
0
0
0
0
0
0
0
0
0
0
0
0
0
0
0
0
0
0
0
0
0
0
0
0
0
0
0
0
0
0
0
0
0
0
0
0
0
0
0
0
0
0
0
0
0
0
0
0
0
0
0
0
0
0
0
0
0
0
0
0
0
0
0
0
0
0
0
0
0
0
0
0
0
0
0
0
0
0
0
0
0
0
0
0
0
5
5
5
9
9
9
9
9
9
84
70
55
114
99
83
121
107
92
95
79
63
141
128
113
105
89
74
146
129
112
164
147
127
104
90
74
141
126
111
126
109
94
136
120
104
158
145
130
184
175
161
136
121
105
146
129
114
146
128
113
163
144
129
130
113
94
148
133
120
160
146
135
154
142
130
154
143
130
180
172
162
179
166
156
188
178
168
182
173
163
179
165
154
187
175
166
211
204
196
199
191
181
191
176
160
190
181
167
135
120
108
159
145
134
161
147
137
187
176
165
127
113
102
167
154
144
142
130
119
151
138
128
136
127
118
113
102
93
134
124
118
165
159
155
150
142
141
150
140
138
130
121
118
75
74
75
77
76
76
74
73
74
71
69
70
72
71
70
74
73
72
77
77
75
79
79
77
81
81
80
80
80
80
76
75
75
70
69
69
66
66
66
66
66
66
69
68
68
72
71
72
76
75
76
74
73
73
66
65
64
65
64
64
69
66
67
67
62
61
65
57
54
64
54
51
66
55
52
68
58
55
72
61
59
76
65
62
82
71
67
87
76
73
91
81
78
97
88
84
103
94
91
105
98
95
106
100
97
106
100
97
104
97
94
99
92
90
89
80
78
78
65
62
71
56
49
72
55
47
71
54
47
68
52
46
75
57
45
20
13
8
0
0
0
0
0
0
0
0
0
0
0
0
0
0
0
0
0
0
0
0
0
0
0
0
0
0
0
0
0
0
0
0
0
0
0
0
0
0
0
0
0
0
0
0
0
0
0
0
0
0
0
0
0
0
0
0
0
0
0
0
0
0
0
0
0
0
0
0
0
0
0
0
0
0
0
0
0
0
0
0
0
0
0
0
1
1
1
2
2
2
6
6
6
9
9
9
12
12
12
5
5
5
98
84
70
116
101
86
123
107
91
110
93
74
116
100
82
142
126
110
121
103
85
179
158
139
118
101
83
125
108
91
121
105
87
136
120
104
177
161
145
160
148
135
159
145
130
134
118
102
146
128
111
170
152
135
139
121
102
141
125
111
157
145
133
173
163
153
148
136
122
173
161
150
190
180
170
183
172
161
196
187
178
149
134
119
183
171
159
209
202
192
209
202
192
179
162
147
181
164
149
131
117
104
149
135
125
137
123
112
167
153
143
144
131
120
157
144
133
163
151
140
134
122
111
136
125
116
138
127
121
133
123
115
159
151
147
160
151
149
160
152
147
156
146
143
76
75
75
77
76
76
74
73
74
71
69
70
71
70
70
73
72
71
77
77
75
80
80
78
82
81
80
81
80
80
76
75
75
70
69
69
67
66
66
67
67
67
71
70
70
74
72
73
77
75
77
77
76
76
71
71
69
65
64
63
67
65
66
69
66
67
69
64
62
68
61
58
66
57
54
66
57
54
68
58
55
72
61
59
76
65
63
82
71
69
89
79
76
97
88
85
108
99
96
113
106
103
114
108
105
111
105
103
106
100
98
100
92
91
89
80
79
80
68
63
75
60
53
74
57
49
71
54
48
69
52
46
35
25
22
4
3
3
2
2
2
3
3
3
0
0
0
0
0
0
0
0
0
0
0
0
0
0
0
0
0
0
0
0
0
0
0
0
0
0
0
0
0
0
0
0
0
0
0
0
0
0
0
0
0
0
0
0
0
0
0
0
0
0
0
0
0
0
0
0
0
0
0
0
0
0
0
0
0
0
0
0
0
0
0
0
0
0
0
1
1
1
4
4
4
14
14
14
9
9
9
11
11
11
10
10
10
1
1
1
128
114
97
107
91
72
145
129
111
118
102
84
115
99
81
141
123
104
128
111
94
156
138
117
148
130
111
115
98
81
121
105
87
118
101
84
173
157
139
138
125
109
179
166
152
152
136
118
157
140
118
137
119
98
168
151
134
134
118
105
144
133
121
171
161
152
177
171
162
147
132
120
190
181
170
191
178
166
184
174
162
143
127
112
180
165
152
196
186
177
221
215
205
172
154
137
167
150
133
157
143
132
157
143
131
139
125
113
149
133
120
131
116
106
145
132
121
160
146
136
149
137
126
135
123
111
147
138
129
163
155
146
168
162
156
175
169
165
173
165
160
172
163
159
77
76
76
77
76
76
74
73
74
71
70
71
70
69
69
72
71
70
76
76
75
81
81
79
82
82
81
81
80
80
76
75
75
70
69
69
68
67
67
68
67
67
72
72
72
76
75
76
79
77
78
79
78
79
76
76
75
68
67
66
67
65
64
69
67
67
70
67
67
71
66
65
71
65
62
70
62
59
68
58
55
68
58
56
71
61
59
76
66
63
83
73
71
95
85
82
107
99
96
116
108
105
117
110
107
112
105
103
103
96
95
95
87
86
88
77
75
81
68
64
77
62
56
74
58
51
71
53
48
73
53
48
37
25
22
12
11
11
9
9
9
8
8
8
4
4
4
0
0
0
0
0
0
0
0
0
0
0
0
0
0
0
0
0
0
0
0
0
0
0
0
0
0
0
0
0
0
0
0
0
0
0
0
0
0
0
0
0
0
0
0
0
0
0
0
0
0
0
0
0
0
0
0
0
0
0
0
0
0
0
0
0
0
0
0
0
0
0
0
9
9
9
7
7
7
9
9
9
12
12
12
7
7
7
2
2
2
0
0
0
135
120
102
121
105
86
141
126
109
144
130
112
116
100
82
109
92
73
136
120
104
147
130
112
126
108
89
135
118
99
134
118
100
131
114
98
164
146
130
163
146
128
182
165
149
164
147
130
149
131
110
130
110
87
168
152
133
163
150
136
165
153
141
164
155
144
171
163
155
189
182
171
184
172
159
182
168
156
155
142
128
132
115
99
176
158
142
196
182
168
203
192
179
176
159
141
151
134
115
146
132
122
178
166
157
179
169
160
134
118
106
129
113
103
159
145
134
153
140
129
161
149
138
137
125
114
172
163
154
175
166
157
181
176
170
154
150
147
197
190
186
175
167
161
78
77
78
77
76
76
74
72
73
71
70
71
69
68
68
71
70
70
75
75
73
81
81
79
83
83
82
81
80
80
76
75
75
70
69
69
69
68
68
69
68
67
73
73
73
78
77
77
81
80
81
83
81
82
79
79
79
73
73
72
68
67
66
69
67
67
70
68
67
71
68
67
74
69
68
74
68
65
71
63
60
67
58
55
67
58
55
70
62
59
76
67
64
86
78
75
99
90
87
107
99
96
109
101
98
105
99
96
98
90
90
92
82
80
86
75
71
83
70
65
79
64
59
74
57
52
71
54
48
73
55
49
30
21
18
10
10
9
10
10
10
11
11
11
6
6
6
0
0
0
0
0
0
0
0
0
0
0
0
0
0
0
0
0
0
0
0
0
0
0
0
0
0
0
0
0
0
0
0
0
0
0
0
0
0
0
0
0
0
0
0
0
0
0
0
0
0
0
0
0
0
0
0
0
0
0
0
0
0
0
0
0
0
0
0
0
0
0
0
10
10
10
12
12
12
12
12
12
5
5
5
2
2
2
0
0
0
0
0
0
131
118
102
154
143
125
118
102
85
126
111
94
120
104
86
111
96
77
136
125
109
133
118
101
140
122
102
137
120
101
171
158
140
139
123
108
168
151
134
131
114
95
188
172
156
191
177
161
156
137
116
145
128
106
150
133
112
153
137
121
163
149
135
165
154
144
176
167
157
174
165
154
180
168
155
171
157
144
181
168
155
158
144
127
150
130
109
176
158
140
173
156
140
178
160
142
158
139
121
132
118
108
186
173
164
182
174
166
129
114
102
130
115
104
164
150
139
147
133
122
183
174
162
154
143
128
196
187
176
164
153
143
204
197
190
165
161
158
203
196
191
161
151
142
78
77
77
75
74
74
72
71
72
71
70
71
68
66
67
70
68
68
74
73
72
80
80
78
83
83
81
79
78
78
75
73
73
70
69
69
70
69
69
70
69
69
74
74
74
79
79
78
84
84
84
87
85
86
83
83
83
78
78
77
73
72
71
72
70
69
72
70
69
72
69
68
74
69
68
75
70
68
72
66
64
67
60
57
67
60
57
72
65
62
78
71
68
80
73
70
87
77
76
93
84
82
98
90
87
99
90
88
95
86
85
91
80
77
87
75
70
84
71
65
77
63
57
72
56
49
73
55
49
76
57
50
24
18
16
7
7
7
7
7
7
5
5
5
0
0
0
0
0
0
0
0
0
0
0
0
0
0
0
0
0
0
0
0
0
0
0
0
0
0
0
0
0
0
0
0
0
0
0
0
0
0
0
0
0
0
0
0
0
0
0
0
0
0
0
0
0
0
0
0
0
0
0
0
0
0
0
0
0
0
0
0
0
1
1
1
1
1
1
2
2
2
4
4
4
11
11
11
1
1
1
0
0
0
0
0
0
0
0
0
136
122
107
169
160
142
134
118
100
128
112
94
115
98
79
92
76
55
131
119
103
153
142
129
133
116
98
154
137
118
143
127
108
180
168
154
189
174
156
129
112
93
178
165
149
193
179
163
166
147
128
176
158
139
149
132
113
136
119
102
155
139
125
138
125
114
172
163
154
159
146
134
171
159
145
158
142
128
179
167
154
183
170
154
146
126
103
150
130
109
164
147
129
157
140
123
144
127
110
139
125
115
182
170
161
171
161
152
128
113
100
125
110
98
152
138
126
150
136
123
188
177
167
162
149
136
175
162
152
182
170
159
177
166
157
200
192
187
187
178
171
161
148
140
76
75
75
71
70
70
69
67
68
68
67
68
66
64
65
68
66
67
72
71
70
78
78
76
82
82
80
76
75
74
72
70
70
70
68
68
72
70
71
73
72
72
74
74
73
78
79
78
85
84
84
89
88
89
87
86
87
82
82
82
79
78
78
77
76
74
76
74
73
73
71
70
73
69
68
73
68
67
71
66
64
68
63
60
74
69
66
82
77
74
87
82
79
81
74
72
77
68
67
80
71
69
87
78
75
93
83
80
94
84
81
91
80
75
87
74
69
81
67
61
74
57
51
72
54
47
78
59
52
72
58
50
20
17
16
9
9
9
6
6
6
0
0
0
0
0
0
0
0
0
0
0
0
0
0
0
0
0
0
0
0
0
0
0
0
0
0
0
0
0
0
0
0
0
0
0
0
0
0
0
0
0
0
0
0
0
0
0
0
0
0
0
0
0
0
0
0
0
0
0
0
0
0
0
0
0
0
0
0
0
0
0
0
8
8
8
12
12
12
4
4
4
1
1
1
2
2
2
0
0
0
0
0
0
0
0
0
0
0
0
129
117
103
160
144
127
171
161
145
122
106
89
119
102
85
116
100
82
127
114
98
181
173
161
137
123
107
161
145
126
132
115
92
177
168
154
196
182
166
163
147
130
150
134
114
206
195
178
157
139
120
164
146
128
144
127
108
139
121
104
147
134
120
143
130
120
168
157
147
194
184
173
181
169
157
153
137
122
171
157
141
187
175
157
132
112
88
145
126
105
151
134
116
166
149
134
131
114
97
146
133
120
193
182
173
155
142
132
132
116
105
153
138
126
143
127
115
144
129
116
169
156
146
164
150
140
172
159
148
181
167
156
173
160
149
189
178
172
189
179
172
165
151
143
73
71
71
67
65
66
64
62
63
63
61
62
64
62
63
66
64
65
70
69
68
75
75
73
81
80
78
73
71
71
68
66
66
69
67
67
74
72
73
77
76
76
76
75
74
77
77
75
82
82
81
90
90
90
90
89
89
86
85
86
85
83
84
82
81
79
80
79
77
76
75
73
75
72
71
73
70
68
71
68
66
72
67
66
82
77
76
96
91
89
101
97
95
88
84
82
79
71
71
78
68
67
82
72
69
88
77
73
92
81
75
91
79
73
86
73
67
78
63
57
73
55
48
74
55
47
79
63
54
54
44
38
14
12
12
3
3
3
0
0
0
0
0
0
0
0
0
0
0
0
0
0
0
0
0
0
0
0
0
0
0
0
0
0
0
0
0
0
0
0
0
0
0
0
0
0
0
0
0
0
0
0
0
0
0
0
0
0
0
0
0
0
0
0
0
0
0
0
0
0
0
0
0
0
2
2
2
1
1
1
4
4
4
10
10
10
11
11
11
8
8
8
0
0
0
0
0
0
0
0
0
0
0
0
0
0
0
0
0
0
113
99
86
166
149
128
153
139
123
139
123
107
152
136
119
120
104
86
107
93
75
165
153
136
188
176
160
159
143
125
130
113
90
173
162
146
187
177
162
156
140
124
149
132
114
195
181
165
168
151
129
139
121
103
143
125
105
144
127
108
141
128
116
148
135
127
179
166
156
207
197
185
199
189
178
155
138
122
165
148
131
183
168
150
138
118
94
147
130
111
145
129
114
163
149
138
126
109
91
152
138
124
190
180
172
170
156
144
153
137
127
147
132
121
143
128
115
152
138
125
160
148
138
174
160
149
178
164
152
152
138
124
184
172
160
192
182
174
172
161
154
162
149
140
71
69
69
64
62
62
59
57
58
59
57
58
62
60
60
63
62
62
67
66
65
72
71
69
79
78
76
70
69
68
66
64
64
69
67
67
77
76
76
81
80
80
79
78
76
75
75
73
79
79
77
90
89
89
90
89
89
90
89
88
90
88
88
86
85
84
82
81
79
79
78
76
77
76
74
75
74
72
74
72
70
79
75
73
91
86
85
110
106
103
111
106
104
100
95
94
87
82
81
84
75
74
84
75
72
84
74
70
87
75
71
87
74
69
82
67
61
75
57
50
73
55
47
79
61
52
58
46
40
23
19
17
7
7
7
0
0
0
0
0
0
0
0
0
0
0
0
0
0
0
0
0
0
0
0
0
0
0
0
0
0
0
0
0
0
0
0
0
0
0
0
0
0
0
0
0
0
0
0
0
0
0
0
0
0
0
0
0
0
0
0
0
0
0
0
0
0
0
0
0
0
0
0
0
6
6
6
12
12
12
10
10
10
11
11
11
7
7
7
3
3
3
0
0
0
0
0
0
0
0
0
0
0
0
0
0
0
0
0
0
159
144
126
132
114
94
137
121
102
178
161
144
130
114
96
141
124
108
117
101
85
164
151
133
174
159
141
195
181
162
142
125
104
175
163
144
174
161
145
123
107
89
165
149
131
196
185
172
172
153
131
146
129
109
163
146
127
156
145
132
162
151
140
172
162
152
174
163
152
203
193
179
215
208
195
168
151
133
163
146
126
181
165
147
137
118
95
166
155
143
160
146
132
181
169
160
128
112
95
166
150
133
192
184
168
146
132
119
168
155
144
142
126
114
143
129
115
149
136
123
159
146
137
164
150
139
162
148
135
159
146
132
189
177
163
188
176
167
166
154
146
179
168
161
68
67
66
60
59
58
56
54
54
57
55
55
59
58
58
59
58
57
63
62
61
70
69
68
77
76
74
70
69
68
66
65
64
70
69
67
80
79
78
84
83
82
81
81
79
75
74
73
77
75
74
89
87
86
90
89
87
93
92
90
94
93
91
90
89
88
84
83
82
83
82
80
80
79
77
76
75
73
77
75
73
81
77
76
91
86
84
104
99
96
109
104
102
107
102
101
102
97
95
96
90
88
90
82
79
84
74
71
82
70
66
80
65
60
76
59
53
76
58
50
76
58
50
102
83
70
22
17
14
6
6
6
0
0
0
0
0
0
0
0
0
0
0
0
0
0
0
0
0
0
0
0
0
0
0
0
0
0
0
0
0
0
0
0
0
0
0
0
0
0
0
0
0
0
0
0
0
0
0
0
0
0
0
0
0
0
0
0
0
0
0
0
0
0
0
0
0
0
0
0
0
1
1
1
6
6
6
10
10
10
10
10
10
9
9
9
1
1
1
0
0
0
0
0
0
0
0
0
0
0
0
0
0
0
0
0
0
0
0
0
147
132
112
150
138
120
128
111
90
171
155
139
143
126
109
143
127
110
132
116
100
143
128
111
174
158
140
197
183
164
164
151
134
151
138
121
198
183
167
149
134
120
147
130
113
199
191
176
175
158
138
152
135
115
176
158
142
161
147
134
150
138
126
189
178
167
182
171
159
192
179
165
204
191
176
162
145
126
164
146
126
165
149
130
134
113
90
166
154
140
168
154
140
200
192
182
139
127
112
165
147
128
187
174
158
156
142
126
178
165
153
173
161
151
148
136
125
153
139
127
171
159
150
162
149
138
162
147
131
161
150
136
189
176
163
176
162
153
186
175
166
186
174
167
63
62
61
57
56
54
54
53
52
54
52
53
56
54
54
56
54
54
60
59
58
70
68
67
75
73
72
69
68
67
66
65
64
71
70
68
81
80
78
84
83
81
81
81
79
76
75
74
78
76
75
85
84
83
90
89
87
97
96
94
98
97
96
95
94
92
86
85
83
83
82
80
80
79
77
77
76
74
79
78
76
78
75
73
80
75
73
88
83
81
101
96
94
113
109
107
123
120
117
115
112
110
99
93
91
87
78
75
80
67
63
75
59
53
76
58
51
81
63
55
81
61
53
111
91
73
8
6
6
0
0
0
0
0
0
0
0
0
0
0
0
0
0
0
0
0
0
0
0
0
0
0
0
0
0
0
0
0
0
0
0
0
0
0
0
0
0
0
0
0
0
0
0
0
0
0
0
0
0
0
0
0
0
0
0
0
0
0
0
0
0
0
0
0
0
2
2
2
5
5
5
6
6
6
8
8
8
12
12
12
7
7
7
3
3
3
0
0
0
0
0
0
0
0
0
0
0
0
0
0
0
0
0
0
0
0
0
0
0
0
176
158
136
165
154
135
136
119
100
161
145
128
155
141
123
148
133
115
178
165
148
159
145
129
167
152
135
185
170
151
185
170
151
134
117
101
183
167
150
197
184
169
149
133
117
186
174
157
182
168
152
170
152
133
164
145
130
169
160
147
157
143
129
180
171
157
189
177
165
195
183
170
200
185
170
171
154
136
155
135
115
210
196
179
121
101
77
191
179
163
160
145
130
208
199
187
175
166
153
146
128
108
186
169
152
155
139
122
176
163
150
196
187
177
156
143
133
141
127
115
169
158
150
187
176
169
161
144
129
159
143
128
176
161
148
194
183
173
194
183
173
188
175
164
61
60
58
56
55
53
54
53
52
53
51
51
56
54
55
54
52
53
55
54
54
65
63
63
68
67
66
65
64
63
65
64
63
73
72
70
83
82
80
86
85
83
81
80
78
73
72
70
76
75
73
82
82
80
93
92
91
105
103
103
109
108
107
100
99
97
85
84
81
78
77
74
73
72
70
77
76
74
85
82
80
81
77
76
77
72
71
80
75
72
93
88
86
115
110
108
129
126
123
122
120
118
105
100
98
89
81
78
79
65
60
73
56
49
79
59
51
86
68
59
83
65
54
83
64
48
9
5
4
0
0
0
0
0
0
0
0
0
0
0
0
0
0
0
0
0
0
0
0
0
0
0
0
0
0
0
0
0
0
0
0
0
0
0
0
0
0
0
0
0
0
0
0
0
0
0
0
0
0
0
0
0
0
0
0
0
0
0
0
0
0
0
0
0
0
2
2
2
13
13
13
9
9
9
11
11
11
11
11
11
1
1
1
0
0
0
0
0
0
0
0
0
0
0
0
0
0
0
0
0
0
0
0
0
0
0
0
0
0
0
167
150
125
121
101
79
155
139
119
134
118
101
178
165
147
154
137
119
173
159
142
168
155
140
181
167
149
186
172
154
197
186
166
150
134
116
159
142
124
201
191
176
153
138
123
175
161
144
178
164
149
166
149
132
132
114
97
159
144
130
156
143
128
165
149
134
166
151
137
188
177
163
181
166
151
200
188
174
163
143
125
201
183
165
145
126
106
171
157
142
160
145
130
205
195
182
174
165
153
133
116
96
153
135
114
148
132
114
161
147
133
182
172
163
160
148
136
152
139
128
171
161
153
195
187
181
144
124
107
146
127
110
163
147
131
184
171
158
182
169
155
188
172
156
58
57
55
57
56
55
56
54
55
53
51
52
56
54
55
55
53
54
52
50
50
58
57
57
62
61
61
63
61
61
67
65
64
77
75
73
87
86
84
90
89
86
81
80
78
70
69
67
70
69
67
80
79
77
98
98
96
118
117
116
124
122
122
108
107
105
85
83
81
80
79
77
74
73
71
80
79
76
89
85
82
90
85
83
83
78
76
83
78
76
84
79
77
100
96
93
114
110
107
118
115
113
109
105
103
93
85
82
78
65
59
72
53
44
77
57
47
85
66
56
85
68
58
59
46
39
6
4
3
0
0
0
0
0
0
0
0
0
0
0
0
0
0
0
0
0
0
0
0
0
0
0
0
0
0
0
0
0
0
0
0
0
0
0
0
0
0
0
0
0
0
0
0
0
0
0
0
0
0
0
0
0
0
0
0
0
0
0
0
0
0
0
0
0
0
4
4
4
9
9
9
11
11
11
7
7
7
2
2
2
0
0
0
0
0
0
0
0
0
0
0
0
0
0
0
0
0
0
0
0
0
0
0
0
0
0
0
0
0
0
161
143
121
136
118
97
162
145
124
177
161
142
173
161
144
167
151
132
168
151
132
145
128
112
173
161
144
191
177
159
173
164
147
168
154
137
157
141
123
173
162
148
185
171
156
164
150
129
174
160
144
141
125
108
132
115
98
150
134
119
157
145
133
158
143
127
149
133
117
176
162
147
168
152
136
199
189
177
163
143
125
188
167
148
150
131
113
171
155
139
166
151
136
192
180
166
170
159
146
150
132
114
130
110
89
141
126
107
183
171
158
173
163
153
166
151
140
165
155
146
174
164
156
200
194
187
152
131
112
147
128
110
175
159
145
170
154
139
180
163
145
204
188
170
55
54
52
56
55
55
56
54
55
53
52
52
57
55
56
58
55
56
55
53
54
57
56
57
60
60
60
62
60
60
71
69
68
83
81
78
93
93
89
93
92
89
84
83
81
70
69
68
66
65
63
79
78
76
102
102
100
128
126
126
132
130
130
115
114
112
90
88
86
84
82
80
89
87
85
91
88
86
90
86
84
92
87
85
92
87
85
91
86
84
84
79
78
84
79
76
97
92
89
110
106
104
108
104
102
94
87
84
79
66
61
72
54
46
74
53
44
80
60
50
90
73
63
78
65
58
16
13
10
0
0
0
0
0
0
0
0
0
0
0
0
0
0
0
0
0
0
0
0
0
0
0
0
0
0
0
0
0
0
0
0
0
0
0
0
0
0
0
0
0
0
0
0
0
0
0
0
0
0
0
0
0
0
0
0
0
0
0
0
7
7
7
10
10
10
6
6
6
11
11
11
11
11
11
3
3
3
0
0
0
0
0
0
0
0
0
0
0
0
0
0
0
0
0
0
0
0
0
0
0
0
0
0
0
0
0
0
0
0
0
128
109
88
178
163
141
155
137
115
175
159
137
181
171
153
181
169
150
148
130
111
149
133
116
175
166
149
196
188
170
146
130
112
180
165
146
151
137
121
171
159
143
188
174
158
158
142
122
171
158
141
136
122
105
137
121
104
112
98
81
170
159
149
153
141
129
158
141
125
167
151
136
154
138
121
209
201
190
157
137
119
185
164
143
152
131
108
161
145
129
157
141
126
185
174
157
174
159
144
152
135
115
110
90
69
146
130
113
169
155
142
167
159
149
155
140
128
173
165
154
180
170
159
184
172
159
156
136
114
161
142
123
170
154
139
175
159
143
171
153
133
173
155
135
55
54
52
57
56
55
54
52
53
51
49
50
50
48
49
56
54
54
58
57
56
63
63
62
60
60
60
65
64
62
79
76
74
88
85
81
96
93
90
97
95
91
90
89
86
73
72
71
63
62
60
82
81
78
115
114
112
137
136
134
131
130
128
111
110
108
90
88
86
90
86
84
103
100
98
105
102
100
99
94
92
97
92
90
98
93
90
98
93
91
94
89
87
84
80
78
86
81
79
96
91
90
100
96
93
99
93
89
92
83
79
82
69
62
75
57
49
77
57
48
88
71
62
98
84
75
51
43
38
6
4
3
0
0
0
0
0
0
0
0
0
0
0
0
0
0
0
0
0
0
0
0
0
0
0
0
0
0
0
0
0
0
0
0
0
0
0
0
0
0
0
0
0
0
0
0
0
0
0
0
0
0
0
0
0
0
0
0
0
4
4
4
10
10
10
13
13
13
9
9
9
1
1
1
0
0
0
0
0
0
0
0
0
0
0
0
0
0
0
0
0
0
0
0
0
0
0
0
0
0
0
0
0
0
0
0
0
0
0
0
143
124
103
162
145
123
200
184
163
179
162
140
137
120
97
195
183
164
150
133
115
151
135
118
131
114
97
187
177
157
177
162
144
153
137
116
140
126
109
172
159
144
192
177
163
174
159
144
156
142
127
148
134
117
121
105
89
125
112
97
138
127
115
172
162
152
167
153
138
142
127
111
139
122
105
181
165
150
153
135
116
154
135
112
150
130
106
189
178
159
153
136
121
179
163
145
160
143
126
135
116
95
104
86
65
169
154
137
145
130
115
190
181
172
144
129
117
179
169
159
163
148
135
179
165
147
150
129
107
162
141
120
173
158
142
168
151
133
163
144
121
181
163
143
58
57
55
58
57
56
55
53
54
50
48
49
50
48
49
56
55
54
63
62
61
70
69
68
66
65
64
72
70
67
82
79
76
86
81
78
92
87
84
100
97
93
97
95
91
79
77
75
64
63
62
86
85
81
124
123
120
140
139
137
128
127
125
104
102
100
89
86
84
99
95
93
114
109
108
116
111
110
112
107
105
111
106
104
112
107
104
111
106
103
108
104
102
97
93
91
90
86
84
91
87
85
102
97
95
115
110
107
112
107
103
96
87
82
80
66
60
75
58
49
83
65
57
96
82
73
91
78
70
24
19
16
0
0
0
0
0
0
0
0
0
0
0
0
0
0
0
0
0
0
0
0
0
0
0
0
0
0
0
0
0
0
0
0
0
0
0
0
0
0
0
0
0
0
0
0
0
0
0
0
0
0
0
0
0
0
0
0
0
1
1
1
11
11
11
3
3
3
0
0
0
0
0
0
0
0
0
0
0
0
0
0
0
0
0
0
0
0
0
0
0
0
0
0
0
0
0
0
0
0
0
0
0
0
0
0
0
0
0
0
158
138
117
156
137
116
187
171
148
173
154
131
135
116
93
171
156
136
174
161
144
125
108
92
123
106
89
149
137
119
171
158
137
136
121
99
143
128
109
154
138
123
163
148
134
163
148
134
136
120
105
131
116
101
100
85
71
141
128
117
143
133
120
178
169
160
177
165
153
161
147
132
126
109
93
171
155
140
162
146
128
149
130
109
138
119
95
171
157
140
155
138
121
174
157
141
142
124
105
127
108
87
133
114
95
155
138
122
118
102
87
173
161
152
159
144
131
173
163
152
156
139
124
183
173
158
166
143
121
150
129
106
160
142
122
162
141
120
167
148
129
170
151
135
57
56
54
60
59
58
59
58
57
55
53
54
57
55
56
64
62
63
70
69
68
72
71
70
69
68
66
71
70
67
77
74
72
78
74
72
83
78
75
93
90
85
96
93
89
81
80
78
68
66
65
95
92
89
130
128
125
141
140
138
127
126
124
106
105
103
104
101
99
107
104
103
111
107
105
116
112
110
126
122
120
128
124
121
128
123
120
124
119
117
126
122
120
115
112
110
103
99
97
96
92
89
105
101
98
118
113
110
114
109
106
100
93
89
84
73
67
77
61
54
80
63
56
91
75
68
102
88
79
62
53
47
6
5
4
0
0
0
0
0
0
0
0
0
0
0
0
0
0
0
0
0
0
0
0
0
0
0
0
0
0
0
0
0
0
0
0
0
0
0
0
0
0
0
0
0
0
0
0
0
0
0
0
0
0
0
0
0
0
0
0
0
3
3
3
2
2
2
0
0
0
0
0
0
0
0
0
0
0
0
0
0
0
0
0
0
0
0
0
0
0
0
0
0
0
0
0
0
0
0
0
0
0
0
0
0
0
0
0
0
168
148
125
166
146
123
172
154
132
164
146
123
132
114
90
120
103
82
175
160
144
146
131
115
118
103
88
103
88
71
143
129
110
132
117
95
129
113
93
116
101
84
126
110
96
128
113
98
155
140
126
124
108
94
105
90
76
159
148
138
142
132
122
183
172
163
180
168
157
161
148
135
127
111
95
142
126
111
152
136
121
170
155
139
136
117
94
157
141
123
160
143
125
171
153
134
155
137
117
138
120
101
143
127
108
149
133
117
121
105
90
161
149
139
159
145
132
168
155
144
147
130
113
179
165
148
165
143
120
155
133
111
143
123
101
161
142
124
175
158
145
167
150
135
58
57
55
63
62
60
60
59
58
58
56
56
62
60
61
71
68
70
76
74
75
73
71
71
68
67
64
67
66
64
68
67
65
68
65
64
70
67
65
80
77
74
84
81
79
78
76
75
73
71
69
96
94
90
122
121
117
131
130
126
121
120
116
113
112
109
110
108
106
107
105
103
110
107
105
119
115
113
131
128
126
140
138
134
140
138
133
134
130
126
130
126
123
120
116
114
110
106
104
99
94
92
100
95
92
109
104
102
105
100
97
92
86
82
82
70
66
78
64
58
81
67
60
88
74
66
98
84
75
88
77
69
18
15
12
0
0
0
0
0
0
0
0
0
0
0
0
0
0
0
0
0
0
0
0
0
0
0
0
0
0
0
0
0
0
0
0
0
0
0
0
0
0
0
0
0
0
0
0
0
0
0
0
0
0
0
0
0
0
0
0
0
0
0
0
0
0
0
0
0
0
0
0
0
0
0
0
0
0
0
0
0
0
0
0
0
0
0
0
0
0
0
0
0
0
0
0
0
0
0
0
0
0
0
0
0
0
0
0
0
192
172
147
138
119
97
181
163
140
168
150
127
134
117
94
104
87
66
124
108
91
135
120
105
140
124
109
91
76
59
109
94
76
120
105
84
118
102
83
100
84
69
115
101
87
100
86
73
157
141
126
111
95
80
120
106
92
163
154
145
163
153
143
155
143
133
145
134
123
170
158
146
130
114
99
124
108
93
148
133
119
180
166
152
131
112
91
158
142
123
162
147
129
157
140
116
172
154
133
139
121
102
154
137
120
148
132
116
113
98
84
149
137
125
162
147
135
162
146
133
169
151
134
168
147
125
157
135
111
140
118
96
150
132
114
176
161
148
157
139
126
157
140
127
61
60
58
66
65
64
63
62
61
63
61
62
68
66
67
74
73
73
80
78
79
78
76
76
68
67
66
64
63
61
63
62
60
61
60
58
64
63
61
71
70
68
75
73
71
77
76
74
77
76
73
91
90
86
111
110
105
122
121
117
117
115
111
107
104
101
99
96
93
101
99
96
108
104
103
117
112
110
127
123
120
135
132
128
140
138
134
139
137
133
131
128
125
128
124
121
119
114
112
102
97
95
93
88
85
94
89
86
90
85
81
83
75
71
79
68
63
81
68
63
84
72
66
88
76
69
93
81
73
92
81
72
31
26
22
0
0
0
0
0
0
0
0
0
0
0
0
0
0
0
0
0
0
0
0
0
0
0
0
0
0
0
0
0
0
0
0
0
0
0
0
0
0
0
0
0
0
0
0
0
0
0
0
0
0
0
0
0
0
0
0
0
0
0
0
0
0
0
0
0
0
0
0
0
0
0
0
0
0
0
0
0
0
0
0
0
0
0
0
0
0
0
0
0
0
0
0
0
0
0
0
0
0
0
0
0
0
0
0
0
156
136
110
158
139
115
179
161
138
157
140
119
126
109
89
100
83
65
111
95
80
109
95
81
133
120
104
85
70
55
143
128
113
121
106
88
104
88
72
103
88
72
125
111
97
88
75
62
142
126
111
119
104
89
109
94
80
170
163
153
165
156
146
130
117
109
181
171
161
142
129
115
137
122
107
113
97
82
141
125
111
177
164
149
141
125
105
142
123
103
144
126
109
166
147
124
147
128
106
132
114
94
150
133
116
131
114
98
117
103
88
145
131
118
138
122
107
161
144
127
151
129
108
157
135
111
162
140
116
140
119
97
156
142
130
157
142
129
137
121
106
137
122
111
65
64
62
73
71
70
68
66
65
67
66
66
76
74
74
83
82
82
84
83
83
84
83
83
73
72
71
66
65
65
62
61
59
60
59
57
63
62
61
70
69
68
74
73
72
77
75
74
76
75
72
89
87
83
105
104
98
113
111
106
103
99
94
90
85
81
79
75
71
77
74
71
81
77
75
92
88
84
105
101
96
113
109
105
124
122
118
130
128
124
129
126
122
126
122
119
120
115
112
107
102
99
94
89
85
89
84
79
86
81
77
82
76
72
83
73
68
84
73
67
84
73
67
85
73
67
86
74
66
84
72
65
34
29
25
1
1
1
0
0
0
0
0
0
0
0
0
0
0
0
0
0
0
0
0
0
0
0
0
0
0
0
0
0
0
0
0
0
0
0
0
0
0
0
0
0
0
0
0
0
0
0
0
0
0
0
0
0
0
0
0
0
0
0
0
0
0
0
0
0
0
0
0
0
0
0
0
0
0
0
0
0
0
0
0
0
0
0
0
0
0
0
0
0
0
0
0
0
0
0
0
0
0
0
0
0
0
0
0
0
143
123
98
152
132
107
151
133
110
152
135
114
133
116
98
97
80
64
111
96
82
95
81
66
111
98
83
95
82
67
140
126
111
129
114
96
93
78
64
84
71
55
129
116
101
86
72
60
122
107
92
110
97
85
105
91
79
151
143
134
136
123
115
111
99
90
163
150
139
134
119
105
151
135
121
103
87
72
125
110
96
164
150
136
142
126
107
129
110
89
145
127
109
172
153
129
143
124
104
123
105
86
137
119
100
126
109
93
119
104
90
126
111
98
130
112
98
149
130
114
150
130
110
164
142
118
156
134
110
140
123
105
132
121
112
155
141
130
120
106
93
116
103
93
69
68
66
77
76
74
74
73
71
78
77
75
84
83
81
84
84
82
88
88
87
86
86
85
79
79
78
71
70
70
65
64
63
64
63
62
70
69
68
74
73
73
75
73
73
74
71
70
74
71
68
80
76
73
82
79
74
77
74
69
65
61
55
52
48
43
45
41
37
41
38
35
42
39
36
52
49
45
66
61
56
82
77
73
105
102
97
123
120
116
127
123
120
122
117
114
117
112
109
110
105
101
95
91
86
91
86
81
91
86
82
88
82
79
85
77
72
82
72
66
79
69
63
77
67
60
78
68
60
78
67
59
34
28
24
2
2
1
0
0
0
0
0
0
0
0
0
0
0
0
0
0
0
0
0
0
0
0
0
0
0
0
0
0
0
0
0
0
0
0
0
0
0
0
0
0
0
0
0
0
0
0
0
0
0
0
0
0
0
0
0
0
0
0
0
0
0
0
0
0
0
0
0
0
0
0
0
0
0
0
0
0
0
0
0
0
0
0
0
0
0
0
0
0
0
0
0
0
0
0
0
0
0
0
0
0
0
0
0
0
147
128
104
131
112
88
136
118
96
157
142
122
119
102
84
99
83
68
91
77
62
83
70
55
88
75
61
110
96
81
119
106
91
130
115
98
78
64
50
93
81
69
122
109
96
103
89
76
118
103
90
134
122
111
94
82
70
123
113
103
124
113
104
118
107
98
124
111
99
135
121
108
130
114
99
97
82
67
134
119
106
145
130
117
135
118
99
113
95
72
127
109
90
154
136
113
141
124
104
112
96
79
114
97
77
127
111
95
105
91
80
107
93
79
118
101
86
146
129
111
148
129
110
151
130
107
140
121
99
117
104
91
121
108
99
142
128
117
92
80
70
99
88
78
77
76
74
80
79
77
82
81
79
84
83
81
87
86
84
91
90
88
91
91
89
88
88
87
85
84
84
77
75
76
71
70
71
76
75
75
83
82
83
80
79
79
73
71
69
72
67
65
67
62
59
56
52
49
45
41
38
36
33
30
28
25
22
20
18
16
16
14
13
13
11
10
13
12
9
20
17
14
30
26
21
48
44
39
77
73
68
103
98
94
115
110
107
115
110
107
109
105
101
103
99
94
93
88
84
91
86
82
93
88
85
91
86
83
85
79
75
77
70
65
71
63
57
69
61
55
79
68
61
81
69
60
35
29
24
3
2
2
0
0
0
0
0
0
0
0
0
0
0
0
0
0
0
0
0
0
0
0
0
0
0
0
0
0
0
0
0
0
0
0
0
0
0
0
0
0
0
0
0
0
0
0
0
0
0
0
0
0
0
0
0
0
0
0
0
0
0
0
0
0
0
0
0
0
0
0
0
0
0
0
0
0
0
0
0
0
0
0
0
0
0
0
0
0
0
0
0
0
0
0
0
0
0
0
0
0
0
0
0
0
152
133
109
123
105
81
131
114
93
165
151
133
101
86
69
98
84
68
106
93
81
65
54
41
122
111
97
108
94
79
147
135
119
104
89
75
84
71
59
105
94
83
112
99
86
98
85
73
117
104
92
126
115
106
97
87
77
106
95
85
130
121
111
129
119
110
109
97
85
119
106
93
127
112
98
108
93
79
130
117
105
106
92
77
135
118
99
122
105
82
119
102
83
141
124
107
118
104
86
111
95
78
104
88
71
103
87
73
118
104
94
107
93
80
128
113
97
140
123
107
167
149
131
144
124
102
132
116
96
105
94
82
138
126
117
122
108
97
87
75
66
108
98
92
83
82
80
86
85
83
87
86
84
85
84
82
86
85
83
94
93
92
96
95
94
94
94
93
90
90
90
82
80
81
79
78
79
91
91
91
97
98
98
84
84
83
67
65
63
57
53
49
40
36
34
25
21
20
14
11
11
10
9
10
14
16
19
18
20
24
16
17
20
12
13
15
9
9
10
11
11
10
18
17
14
26
24
19
46
42
37
74
69
64
94
89
86
99
95
92
97
93
89
91
87
81
87
83
78
88
83
79
91
86
83
94
89
86
89
84
81
79
73
69
68
63
58
69
62
56
86
75
66
84
73
63
35
29
24
3
2
2
0
0
0
0
0
0
0
0
0
0
0
0
0
0
0
0
0
0
0
0
0
0
0
0
0
0
0
0
0
0
0
0
0
0
0
0
0
0
0
0
0
0
0
0
0
0
0
0
0
0
0
0
0
0
0
0
0
0
0
0
0
0
0
0
0
0
0
0
0
0
0
0
0
0
0
0
0
0
0
0
0
0
0
0
0
0
0
0
0
0
0
0
0
0
0
0
0
0
0
0
0
0
132
114
91
121
104
81
111
93
72
148
131
111
89
75
57
96
83
68
120
107
95
70
59
48
119
107
94
98
85
70
103
88
73
107
92
78
120
107
95
91
79
67
93
79
66
106
92
80
132
120
111
139
130
123
113
105
97
84
72
65
95
85
75
136
127
118
112
101
90
111
99
87
128
113
99
102
87
73
147
135
123
133
120
106
113
95
77
112
94
75
130
113
97
136
120
103
147
135
120
94
79
63
98
82
67
108
94
82
99
85
72
121
110
97
105
91
78
159
142
127
151
133
117
130
114
95
103
90
77
101
92
84
113
101
92
106
93
83
84
72
64
120
111
104
86
85
83
92
91
88
91
90
87
90
89
87
90
89
87
96
95
94
102
101
101
101
101
100
96
96
95
88
86
86
91
91
91
110
110
110
109
109
110
84
83
84
55
53
51
34
31
29
16
13
12
11
10
10
9
9
12
10
11
14
21
23
27
26
28
32
23
24
27
16
18
20
12
12
14
15
16
17
24
26
25
28
28
24
27
25
21
47
42
40
70
65
62
83
79
76
84
80
75
81
77
71
83
79
73
89
84
79
93
88
84
98
94
91
98
94
92
91
87
84
80
76
72
78
72
66
91
82
71
83
74
64
31
26
22
1
1
1
0
0
0
0
0
0
0
0
0
0
0
0
0
0
0
0
0
0
1
1
1
0
0
0
3
3
3
0
0
0
0
0
0
0
0
0
0
0
0
0
0
0
0
0
0
0
0
0
0
0
0
0
0
0
0
0
0
0
0
0
0
0
0
0
0
0
0
0
0
0
0
0
0
0
0
0
0
0
0
0
0
0
0
0
0
0
0
0
0
0
0
0
0
0
0
0
0
0
0
0
0
0
110
92
71
106
88
67
110
93
71
109
92
71
92
76
58
94
81
67
131
118
105
103
90
78
111
98
85
97
83
68
85
70
55
90
74
60
126
112
99
104
91
79
88
74
62
109
96
84
126
114
104
145
135
128
125
116
107
75
64
57
100
89
80
135
125
117
116
106
96
115
103
91
121
106
91
94
79
65
158
144
131
116
99
84
108
91
74
118
101
83
127
110
94
130
116
101
123
108
92
97
82
67
108
94
80
110
96
84
101
88
75
139
127
116
117
102
89
138
123
112
149
133
117
136
122
109
92
81
73
141
133
130
81
69
57
86
73
61
106
95
87
108
99
93
93
92
87
97
96
92
94
93
89
97
96
92
100
99
97
104
102
102
106
105
105
105
105
105
98
98
97
95
95
94
113
113
112
134
134
135
120
120
121
80
79
79
40
38
38
17
16
14
17
16
12
16
17
14
13
13
17
10
12
16
16
18
22
21
23
26
19
21
22
14
15
16
11
12
14
18
21
24
28
31
31
34
36
31
28
27
24
34
30
28
53
47
45
69
65
62
74
70
65
75
71
65
79
75
69
86
81
76
93
89
85
99
96
93
102
101
98
102
100
96
97
94
90
93
89
84
98
91
82
95
87
76
85
75
63
84
70
57
39
32
24
2
2
1
0
0
0
0
0
0
0
0
0
0
0
0
9
9
9
7
7
7
8
8
8
0
0
0
0
0
0
0
0
0
0
0
0
0
0
0
0
0
0
0
0
0
0
0
0
0
0
0
0
0
0
0
0
0
0
0
0
0
0
0
0
0
0
0
0
0
0
0
0
0
0
0
0
0
0
0
0
0
0
0
0
0
0
0
0
0
0
0
0
0
0
0
0
0
0
0
91
76
57
112
97
77
92
77
55
111
96
78
89
74
60
77
64
50
137
124
109
120
107
94
118
104
94
90
75
61
76
61
46
89
73
58
113
99
85
133
120
108
102
89
76
140
129
118
106
93
82
139
126
116
124
112
103
68
57
47
87
76
66
138
132
126
115
103
93
95
80
67
114
98
84
99
83
69
142
127
113
101
84
68
111
96
80
110
93
77
111
94
79
130
115
100
132
116
102
106
91
76
102
89
75
126
113
101
93
79
66
141
129
116
114
100
85
146
133
123
147
135
122
142
132
122
91
83
76
123
115
111
78
62
48
86
74
62
116
106
98
109
100
95
105
104
98
106
104
100
98
96
91
102
101
97
111
110
107
114
113
112
112
111
110
113
113
112
102
102
100
106
106
104
138
140
138
156
158
158
133
134
135
79
79
80
30
28
29
14
14
10
24
24
16
20
21
16
12
14
17
8
12
15
8
11
14
11
13
15
12
14
15
13
16
19
16
20
25
20
24
29
27
30
30
35
36
31
32
31
27
38
35
34
60
58
57
77
75
73
78
76
73
72
69
64
73
69
63
81
77
72
91
86
83
98
94
91
103
100
97
104
102
99
104
102
99
105
103
99
105
100
95
103
95
87
104
92
80
99
84
69
47
38
29
4
3
2
0
0
0
0
0
0
0
0
0
0
0
0
8
8
8
11
11
11
13
13
13
10
10
10
2
2
2
0
0
0
0
0
0
0
0
0
0
0
0
0
0
0
0
0
0
0
0
0
0
0
0
0
0
0
0
0
0
0
0
0
0
0
0
0
0
0
0
0
0
0
0
0
0
0
0
0
0
0
0
0
0
0
0
0
0
0
0
0
0
0
0
0
0
0
0
0
87
72
55
113
98
80
106
92
75
93
78
61
113
98
84
80
65
51
134
121
106
122
109
95
165
156
145
91
77
63
90
74
60
75
59
44
106
93
77
137
125
113
107
95
79
145
135
123
120
107
96
159
145
135
152
140
129
89
78
67
72
60
50
168
162
155
116
104
93
92
77
63
103
87
73
102
87
72
110
94
79
95
79
62
110
97
83
92
76
61
124
108
94
126
110
96
112
96
81
121
105
90
110
94
80
133
120
109
111
98
85
122
110
96
127
115
101
150
139
131
133
123
116
133
123
115
109
102
96
127
121
115
79
64
51
115
103
92
116
106
98
121
113
108
119
116
110
117
113
108
107
105
99
113
112
107
124
123
119
125
124
121
121
120
118
121
120
118
109
109
107
116
116
114
154
155
153
172
174
173
148
149
150
89
89
91
28
26
28
18
17
12
28
28
20
23
24
19
12
14
16
7
11
16
8
11
15
9
10
13
12
14
17
18
23
29
20
26
33
17
22
27
20
23
23
31
32
27
33
33
28
48
46
45
81
80
80
106
105
105
102
102
101
82
80
78
72
69
65
76
71
66
85
80
77
94
89
86
100
96
93
101
98
96
101
100
97
106
104
100
98
94
90
73
69
65
84
77
70
56
51
44
14
11
7
0
0
0
0
0
0
0
0
0
0
0
0
3
3
3
9
9
9
3
3
3
10
10
10
1
1
1
0
0
0
0
0
0
0
0
0
0
0
0
0
0
0
0
0
0
0
0
0
0
0
0
0
0
0
0
0
0
0
0
0
0
0
0
0
0
0
0
0
0
0
0
0
0
0
0
0
0
0
0
0
0
0
0
0
0
0
0
0
0
0
0
0
0
0
0
0
0
0
0
76
62
46
119
106
90
144
130
116
86
73
57
133
120
106
101
89
76
116
101
86
160
146
129
186
177
162
127
121
112
99
83
68
94
79
64
102
86
70
126
113
96
107
92
77
144
134
123
125
111
101
134
119
109
169
154
142
77
63
50
66
53
41
150
141
130
122
109
95
102
88
74
110
94
80
104
88
73
106
91
77
105
90
75
112
98
83
118
104
90
114
99
85
125
109
96
106
90
76
113
97
82
125
109
95
127
115
101
105
91
77
110
97
81
139
127
115
157
147
140
139
129
122
122
111
104
154
148
142
141
134
128
99
86
75
116
104
94
145
136
129
118
108
101
131
126
120
124
119
112
117
113
107
125
123
117
136
135
130
137
135
131
128
127
124
123
122
120
117
117
115
123
123
121
152
152
150
171
172
170
153
154
153
98
96
97
35
33
35
21
20
15
31
31
23
26
27
21
14
17
17
9
12
17
13
15
19
10
11
15
13
15
20
22
27
34
21
28
36
12
17
22
13
16
16
27
28
23
36
35
32
65
64
63
106
105
105
128
129
128
124
124
124
102
101
100
82
80
79
69
66
63
74
70
67
85
80
77
92
88
84
94
90
88
94
92
89
100
97
94
98
94
90
67
64
62
47
45
43
12
11
10
0
0
0
0
0
0
0
0
0
0
0
0
8
8
8
11
11
11
12
12
12
12
12
12
2
2
2
0
0
0
0
0
0
0
0
0
0
0
0
0
0
0
0
0
0
0
0
0
0
0
0
0
0
0
0
0
0
0
0
0
0
0
0
0
0
0
0
0
0
0
0
0
0
0
0
0
0
0
0
0
0
0
0
0
0
0
0
0
0
0
0
0
0
0
0
0
0
0
0
0
0
0
57
44
29
94
79
61
123
108
92
119
106
90
148
133
118
124
110
96
125
111
93
139
125
108
177
163
146
190
184
172
103
89
74
107
93
79
96
81
65
147
130
112
105
89
72
126
111
96
152
139
125
117
102
86
120
103
87
98
83
67
69
56
42
130
118
103
119
104
89
96
80
64
120
104
90
98
80
66
121
105
91
110
96
82
110
97
82
157
146
135
122
111
100
129
116
105
142
126
112
95
79
62
108
93
79
136
120
106
89
74
58
112
100
84
150
140
128
137
125
117
140
129
121
143
132
125
181
174
168
115
107
100
110
98
86
102
89
78
163
154
148
99
89
80
130
125
118
122
117
109
117
113
106
126
123
117
136
134
128
139
137
132
133
131
127
123
122
119
119
118
116
123
123
120
142
141
138
156
155
152
140
139
136
90
89
88
39
39
39
22
21
17
34
34
24
32
32
23
19
21
18
12
13
17
15
16
20
10
11
15
12
14
18
21
25
33
20
26
33
11
16
21
14
16
16
27
27
24
47
46
45
95
94
93
134
134
133
144
144
143
134
134
133
114
114
113
93
92
92
73
71
70
66
63
61
71
67
64
80
76
73
84
81
78
87
84
81
92
89
85
97
93
89
95
92
89
79
76
74
29
28
27
2
2
1
0
0
0
6
6
6
5
5
5
12
12
12
7
7
7
7
7
7
1
1
1
0
0
0
0
0
0
0
0
0
0
0
0
0
0
0
0
0
0
0
0
0
0
0
0
0
0
0
0
0
0
0
0
0
0
0
0
0
0
0
0
0
0
0
0
0
0
0
0
0
0
0
0
0
0
0
0
0
0
0
0
0
0
0
0
0
0
0
0
0
0
0
0
0
0
0
0
0
0
70
59
45
94
79
63
126
109
92
117
101
84
138
123
106
137
121
104
163
149
132
129
115
97
187
174
155
186
174
158
146
136
122
106
91
76
100
85
69
135
119
98
118
102
82
118
103
88
150
134
119
147
130
113
117
99
82
106
91
77
73
60
44
126
113
97
119
105
90
106
89
74
140
124
109
129
113
99
138
121
107
141
126
113
130
115
101
159
147
135
146
135
127
138
124
110
146
130
115
93
76
58
121
105
90
129
114
100
109
95
81
145
133
119
143
132
119
143
130
122
149
138
130
148
135
128
177
168
161
119
108
99
138
125
115
98
85
74
134
125
118
133
125
117
120
116
108
112
108
101
111
107
100
118
114
108
129
126
120
137
134
128
135
132
127
125
124
120
116
115
113
115
114
112
128
126
123
136
134
130
113
112
108
76
76
75
50
49
50
27
27
26
35
34
24
36
36
24
28
28
21
15
16
16
14
15
18
10
11
15
10
11
15
16
20
26
16
20
26
11
15
18
20
22
20
43
43
41
86
86
83
132
132
129
152
152
150
146
146
145
129
129
128
114
114
112
99
99
97
85
84
83
69
67
66
65
61
59
70
66
64
76
72
69
81
76
73
85
80
77
88
83
80
90
86
83
81
77
74
44
42
40
13
12
11
7
7
7
10
10
10
12
12
12
9
9
9
10
10
10
2
2
2
0
0
0
0
0
0
0
0
0
0
0
0
0
0
0
0
0
0
0
0
0
0
0
0
0
0
0
0
0
0
0
0
0
0
0
0
0
0
0
0
0
0
0
0
0
0
0
0
0
0
0
0
0
0
0
0
0
0
0
0
0
0
0
0
0
0
0
0
0
0
0
0
0
0
0
0
0
0
0
0
0
118
110
97
103
90
74
107
91
74
153
137
122
123
106
87
132
115
95
138
124
108
137
122
105
170
158
141
166
147
127
188
176
159
143
129
114
91
75
57
125
108
86
138
122
103
142
127
113
135
118
102
132
114
97
111
94
78
103
87
72
106
93
77
108
96
80
158
148
135
108
91
72
120
102
85
141
125
109
158
143
128
177
167
153
136
120
104
159
146
133
154
141
132
135
118
102
138
120
102
106
89
70
142
126
112
124
108
94
124
109
95
147
133
120
144
130
117
142
128
118
163
151
142
147
132
122
152
140
129
137
122
112
167
158
147
114
99
89
109
97
89
160
152
145
111
107
100
103
99
94
107
104
98
111
108
102
124
120
114
135
131
125
135
131
125
128
126
122
113
112
109
104
103
101
106
105
103
111
109
107
91
90
88
73
72
72
63
62
64
48
47
48
44
44
38
41
40
28
29
29
13
16
17
8
12
13
13
6
7
11
0
0
3
0
0
4
0
2
5
17
19
18
46
46
44
82
82
79
127
127
123
152
153
149
148
149
146
132
132
131
116
116
115
105
105
104
98
98
96
90
89
87
76
74
71
63
60
58
62
58
56
66
61
59
73
68
65
77
72
69
79
75
72
82
78
75
79
76
73
65
63
60
39
38
36
11
11
11
8
8
8
10
10
10
11
11
11
1
1
1
0
0
0
0
0
0
0
0
0
0
0
0
0
0
0
0
0
0
0
0
0
0
0
0
0
0
0
0
0
0
0
0
0
0
0
0
0
0
0
0
0
0
0
0
0
0
0
0
0
0
0
0
0
0
0
0
0
0
0
0
0
0
0
2
2
2
1
1
1
4
4
4
0
0
0
0
0
0
0
0
0
0
0
0
148
140
126
136
126
113
100
84
68
147
131
116
149
134
113
152
135
112
135
120
101
153
137
121
158
143
125
168
152
133
166
148
130
183
169
153
115
99
82
122
104
84
134
117
97
143
128
115
128
112
94
137
120
101
118
101
84
105
90
73
113
97
80
131
117
101
145
132
117
119
101
81
136
118
99
143
125
107
157
142
125
171
160
145
142
125
110
167
152
139
160
147
135
125
105
87
123
104
82
130
112
92
150
135
121
103
86
72
137
121
107
127
112
98
148
134
121
164
150
140
162
149
140
173
158
146
128
112
98
140
124
111
167
158
147
116
101
91
172
164
157
161
152
144
103
100
95
99
96
93
102
100
95
105
102
96
117
113
108
131
126
121
136
132
126
131
129
123
112
110
107
97
96
94
90
89
87
86
86
84
83
82
81
78
77
77
82
79
80
93
91
90
98
95
92
92
92
84
82
83
75
64
66
62
39
41
39
34
35
35
49
50
51
63
64
64
74
76
75
89
90
89
108
109
108
130
130
128
145
145
142
143
144
141
128
129
127
112
112
112
101
101
100
97
96
94
94
93
91
87
85
83
77
74
72
62
58
56
56
51
50
59
54
52
66
61
58
71
66
63
75
70
67
79
75
72
82
78
75
80
78
75
55
55
52
20
19
18
9
9
9
9
9
9
1
1
1
0
0
0
0
0
0
0
0
0
0
0
0
0
0
0
0
0
0
0
0
0
0
0
0
0
0
0
0
0
0
0
0
0
0
0
0
0
0
0
0
0
0
0
0
0
0
0
0
0
0
0
0
0
0
0
0
0
0
0
0
0
0
0
0
0
0
9
9
9
8
8
8
10
10
10
2
2
2
0
0
0
0
0
0
0
0
0
158
149
130
163
152
137
104
87
72
136
121
105
148
130
107
157
139
117
139
121
99
159
145
129
165
151
130
188
173
152
158
140
120
193
178
161
137
119
102
117
100
81
115
99
78
174
161
146
135
118
100
155
139
120
127
110
91
108
93
75
131
116
101
132
117
102
172
156
140
142
124
105
148
130
113
167
149
130
157
139
122
135
118
101
137
120
104
164
148
135
178
164
152
150
131
113
116
96
74
115
96
73
155
139
122
148
132
117
146
130
115
155
140
126
146
131
118
168
153
141
189
176
164
181
166
150
118
101
85
152
137
121
165
152
140
134
118
105
184
176
169
159
147
136
98
97
92
95
94
91
93
92
88
97
94
90
110
106
102
127
123
118
138
133
128
133
130
124
110
108
105
94
93
91
87
86
85
80
79
79
83
82
82
84
83
84
98
96
96
130
126
123
155
151
144
164
162
153
159
160
153
144
146
142
128
131
128
123
124
123
123
124
124
127
129
127
130
132
130
139
141
140
149
150
150
152
152
151
138
138
136
121
120
119
106
106
105
93
93
92
89
88
87
88
87
85
86
84
82
83
80
77
75
72
70
62
57
56
55
50
48
57
52
50
62
57
54
67
62
59
72
67
64
77
72
69
81
79
75
81
80
76
68
67
62
27
26
23
9
9
9
3
3
3
0
0
0
0
0
0
0
0
0
0
0
0
0
0
0
0
0
0
0
0
0
0
0
0
0
0
0
0
0
0
0
0
0
0
0
0
0
0
0
0
0
0
0
0
0
0
0
0
0
0
0
0
0
0
0
0
0
0
0
0
0
0
0
0
0
0
1
1
1
7
7
7
11
11
11
14
14
14
9
9
9
1
1
1
0
0
0
0
0
0
156
138
116
166
150
132
138
123
106
147
136
121
136
120
99
167
149
127
163
144
124
127
109
92
189
177
157
169
150
127
181
162
140
199
182
164
164
148
131
125
109
92
136
119
100
146
129
110
168
152
134
155
140
122
136
119
101
131
114
99
150
134
120
163
148
134
178
163
144
175
157
137
155
134
114
158
138
118
140
122
103
144
126
107
153
136
119
181
169
154
175
158
144
146
129
111
122
102
81
112
94
76
165
149
132
149
131
114
147
129
112
165
151
139
146
130
116
187
173
160
190
176
160
192
175
157
127
109
88
141
123
104
174
157
142
161
144
132
148
134
124
154
140
128
94
93
89
90
89
86
88
87
85
91
90
88
101
99
96
118
114
111
133
128
124
127
124
119
105
104
101
93
92
90
95
94
92
94
93
92
86
86
85
87
87
87
97
97
97
132
128
125
174
169
161
200
197
187
203
203
195
194
195
191
183
186
182
173
175
173
162
163
161
155
156
154
142
143
140
138
138
137
137
138
137
129
129
128
112
112
111
100
100
99
89
89
88
79
79
77
76
75
73
77
75
73
77
73
71
76
71
69
72
68
66
65
60
58
58
53
50
56
51
48
59
54
51
65
60
57
71
66
63
75
71
67
77
75
71
84
83
78
78
76
70
22
21
18
0
0
0
0
0
0
0
0
0
0
0
0
0
0
0
0
0
0
0
0
0
0
0
0
0
0
0
0
0
0
0
0
0
0
0
0
0
0
0
0
0
0
0
0
0
0
0
0
0
0
0
0
0
0
0
0
0
0
0
0
0
0
0
0
0
0
0
0
0
0
0
0
5
5
5
9
9
9
4
4
4
9
9
9
0
0
0
0
0
0
0
0
0
0
0
0
180
161
136
157
139
116
164
150
131
169
158
139
183
167
145
139
120
98
158
138
118
141
121
103
187
171
150
163
143
119
159
137
113
182
163
139
177
160
138
175
161
143
105
87
68
130
113
94
157
139
119
190
180
166
156
139
117
142
126
109
173
157
141
194
179
161
167
151
131
194
176
152
152
131
110
161
140
120
116
97
78
138
121
104
145
127
110
184
170
155
170
153
136
142
124
105
151
131
112
128
111
91
189
172
154
166
147
128
144
123
105
177
164
150
146
127
111
186
170
153
181
164
144
187
167
142
124
104
80
154
136
113
169
152
135
164
147
132
165
152
140
132
117
105
89
88
85
91
90
87
90
89
88
90
90
88
93
91
89
103
100
97
116
113
110
113
111
107
97
96
94
93
92
89
99
98
96
105
104
101
93
93
92
90
90
90
93
94
94
112
111
111
146
143
140
175
173
166
187
186
179
177
177
173
159
160
156
147
148
144
142
143
139
141
142
139
126
127
124
114
114
112
108
108
106
103
103
101
94
94
92
88
89
87
84
83
81
76
75
73
71
68
66
71
67
66
70
65
64
69
64
62
67
62
60
64
59
56
58
54
51
55
50
47
56
51
48
63
58
55
69
65
61
71
68
64
76
73
69
89
86
79
78
76
69
13
12
10
0
0
0
0
0
0
0
0
0
0
0
0
0
0
0
0
0
0
0
0
0
0
0
0
0
0
0
0
0
0
0
0
0
0
0
0
0
0
0
0
0
0
0
0
0
0
0
0
0
0
0
0
0
0
0
0
0
0
0
0
0
0
0
0
0
0
1
1
1
9
9
9
11
11
11
12
12
12
11
11
11
1
1
1
0
0
0
0
0
0
0
0
0
0
0
0
158
139
116
168
149
124
147
134
113
187
176
154
206
193
168
162
144
120
165
145
124
160
142
123
173
156
135
175
157
133
148
125
100
168
147
121
168
151
127
196
181
161
131
116
100
122
105
89
167
151
132
185
177
161
164
143
118
163
146
127
177
160
142
179
162
138
182
165
142
190
172
147
158
137
113
161
140
119
107
88
69
140
121
105
160
143
124
190
173
156
187
171
155
149
129
111
166
145
123
153
132
111
179
161
143
172
154
134
158
140
124
191
174
160
154
136
118
194
176
154
188
169
144
168
145
117
140
120
96
163
147
124
153
136
118
170
154
137
164
148
134
169
159
149
87
87
84
89
88
87
90
88
88
86
85
83
83
82
79
84
82
80
93
91
87
95
94
90
92
91
89
93
92
89
101
100
97
108
108
104
102
101
99
94
94
94
92
93
93
103
104
105
119
119
118
136
136
132
141
140
137
127
128
125
123
123
122
125
125
123
126
127
126
122
124
123
114
115
114
107
108
107
101
101
100
96
96
94
84
84
83
77
76
75
72
71
69
69
67
65
67
63
61
67
62
59
66
61
58
64
59
57
66
61
58
66
61
58
62
57
54
56
51
48
55
50
47
59
54
51
64
59
56
66
62
58
75
71
67
91
89
81
58
56
51
5
5
4
0
0
0
0
0
0
0
0
0
0
0
0
0
0
0
0
0
0
0
0
0
0
0
0
0
0
0
0
0
0
0
0
0
0
0
0
0
0
0
0
0
0
0
0
0
0
0
0
0
0
0
0
0
0
0
0
0
0
0
0
0
0
0
6
6
6
6
6
6
9
9
9
7
7
7
7
7
7
1
1
1
0
0
0
0
0
0
0
0
0
0
0
0
0
0
0
157
140
118
168
149
124
165
145
122
186
178
159
191
176
149
199
183
158
159
141
119
148
128
109
170
155
133
203
192
169
140
118
90
169
147
120
187
165
140
179
161
140
154
139
121
139
121
105
190
176
159
188
175
154
184
163
137
171
154
132
185
168
148
171
149
124
184
165
140
184
166
140
170
149
123
186
166
143
144
124
101
174
155
137
182
164
145
184
166
146
186
169
150
155
133
112
186
168
146
165
145
124
164
143
122
153
136
116
168
151
133
182
165
149
164
144
122
180
159
133
189
166
136
176
152
122
165
146
120
153
134
113
156
138
118
172
155
140
157
140
126
187
177
168
77
76
75
79
79
78
80
78
78
71
69
69
65
63
63
68
65
64
79
75
72
88
85
82
97
95
92
103
101
98
108
108
105
117
116
113
108
107
105
101
101
100
95
95
95
101
101
102
111
111
111
116
116
115
112
112
111
103
104
103
102
102
101
102
102
101
102
102
102
101
101
101
98
98
98
95
95
95
86
87
86
75
74
74
68
67
67
65
63
62
62
60
58
63
59
56
61
57
54
61
57
53
62
58
54
65
60
57
68
63
60
68
63
60
64
59
56
57
52
49
53
48
46
54
49
46
58
53
50
62
57
54
75
71
66
91
89
80
44
43
38
4
3
3
0
0
0
0
0
0
0
0
0
0
0
0
0
0
0
0
0
0
0
0
0
0
0
0
0
0
0
0
0
0
0
0
0
0
0
0
0
0
0
0
0
0
0
0
0
0
0
0
0
0
0
0
0
0
0
0
0
1
1
1
7
7
7
10
10
10
10
10
10
9
9
9
10
10
10
2
2
2
0
0
0
0
0
0
0
0
0
0
0
0
0
0
0
0
0
0
183
166
142
166
148
124
169
150
127
173
158
134
177
161
135
188
175
149
170
148
119
165
144
119
172
152
127
205
190
166
159
138
110
167
145
115
179
157
133
182
162
140
155
138
119
177
159
140
187
173
156
185
168
144
191
169
143
164
142
117
176
157
134
169
146
120
188
167
142
176
154
128
176
153
126
177
157
134
168
150
127
186
168
148
199
181
160
167
146
122
176
157
135
166
145
123
181
163
141
189
170
149
146
126
103
182
164
145
179
158
140
165
145
123
176
153
125
185
160
128
184
159
126
179
155
122
163
142
118
158
139
119
147
128
107
179
164
149
175
159
147
175
163
155
65
63
62
61
59
58
54
50
50
45
43
44
42
40
41
47
45
46
62
58
57
84
80
77
106
103
99
117
115
111
121
120
116
129
127
123
127
125
122
116
115
113
101
101
100
94
94
94
97
96
96
104
103
103
104
105
103
99
99
98
97
97
96
99
98
98
94
94
94
86
86
86
84
83
83
79
78
78
73
72
71
70
69
68
67
65
64
63
61
59
61
57
54
60
55
52
58
53
50
60
56
52
65
60
57
70
65
62
71
66
63
70
65
62
66
61
58
58
53
50
53
48
46
52
47
45
56
51
48
62
57
53
77
73
68
92
91
80
39
39
33
4
3
3
0
0
0
0
0
0
0
0
0
0
0
0
0
0
0
0
0
0
0
0
0
0
0
0
0
0
0
0
0
0
0
0
0
0
0
0
0
0
0
0
0
0
0
0
0
0
0
0
0
0
0
0
0
0
0
0
0
7
7
7
8
8
8
8
8
8
10
10
10
10
10
10
1
1
1
0
0
0
0
0
0
0
0
0
0
0
0
0
0
0
0
0
0
0
0
0
154
134
110
172
154
132
188
175
153
157
141
118
177
164
142
187
167
138
150
128
100
195
172
145
170
146
120
189
170
143
174
154
126
171
149
119
180
157
130
173
151
128
187
173
155
175
160
140
194
179
160
191
175
152
192
169
139
146
123
98
177
156
132
170
147
122
170
147
121
175
151
124
178
155
127
194
174
149
189
174
149
175
156
133
181
163
141
173
151
127
163
141
118
172
151
128
201
183
160
186
169
148
152
133
109
189
171
153
182
161
142
164
144
120
183
158
127
189
163
128
188
162
127
186
162
128
139
120
98
161
144
126
153
136
119
184
170
159
194
183
172
162
150
136
57
52
50
53
47
45
45
39
38
39
33
33
34
29
31
34
30
31
50
47
46
82
78
75
111
107
102
126
122
117
136
132
127
146
142
137
145
143
138
135
134
130
119
119
116
100
100
100
90
89
90
87
86
86
87
86
85
88
87
85
89
88
86
92
91
90
92
91
90
80
79
78
75
73
73
72
70
69
65
63
61
62
60
58
64
62
60
64
61
59
59
54
52
57
52
49
59
54
51
65
60
57
71
66
63
75
70
67
74
69
66
73
68
65
69
64
61
62
57
55
56
51
49
55
50
48
59
54
51
63
58
55
79
74
68
92
90
79
38
37
32
4
3
3
0
0
0
0
0
0
0
0
0
0
0
0
0
0
0
0
0
0
0
0
0
0
0
0
0
0
0
0
0
0
0
0
0
0
0
0
0
0
0
0
0
0
0
0
0
0
0
0
0
0
0
0
0
0
0
0
0
3
3
3
8
8
8
7
7
7
8
8
8
1
1
1
0
0
0
0
0
0
0
0
0
0
0
0
0
0
0
0
0
0
0
0
0
0
0
0
191
173
146
149
128
103
186
171
149
160
143
119
174
163
144
159
140
115
145
122
95
168
144
117
173
149
122
170
149
121
153
132
102
180
159
130
188
170
146
183
165
141
187
172
152
201
187
167
188
170
147
206
196
176
174
153
123
154
132
107
177
158
134
171
150
126
179
158
132
162
139
111
171
147
120
186
165
139
184
162
136
166
142
117
176
155
129
185
164
138
168
145
122
184
163
139
207
190
164
171
151
128
171
151
128
187
167
147
181
161
138
175
153
128
174
148
116
182
156
123
176
151
119
164
143
119
178
161
145
169
154
141
164
147
134
180
168
155
202
191
180
188
176
163
49
41
38
48
39
37
46
38
36
44
36
36
41
33
33
35
29
28
48
44
42
81
77
73
104
100
94
122
118
112
141
137
131
148
145
140
146
145
139
145
144
139
136
136
132
115
114
113
99
98
99
89
88
88
83
83
81
80
79
77
76
75
74
76
74
74
73
72
71
70
68
66
67
63
63
64
60
59
62
58
56
60
55
53
61
58
56
62
58
55
58
53
51
61
56
53
68
63
60
71
66
63
73
68
65
77
72
68
79
74
71
76
71
68
71
66
63
67
62
59
62
57
55
62
58
55
58
53
50
61
56
52
80
76
68
96
94
82
27
26
22
0
0
0
0
0
0
0
0
0
0
0
0
0
0
0
0
0
0
0
0
0
0
0
0
0
0
0
0
0
0
0
0
0
0
0
0
0
0
0
0
0
0
0
0
0
0
0
0
0
0
0
0
0
0
1
1
1
7
7
7
4
4
4
2
2
2
9
9
9
2
2
2
0
0
0
0
0
0
0
0
0
0
0
0
0
0
0
0
0
0
0
0
0
0
0
0
0
0
0
172
152
126
165
145
123
157
143
120
174
158
134
185
172
153
137
118
96
145
122
95
147
123
96
162
139
109
156
134
104
182
161
135
160
140
114
178
160
133
177
160
136
190
178
158
198
182
159
183
163
139
183
167
145
189
177
156
160
139
115
180
161
137
176
157
132
183
162
135
159
135
107
177
154
126
180
157
131
171
146
120
161
136
109
180
157
130
165
141
116
169
145
120
198
177
150
197
179
152
182
162
138
189
170
147
197
178
155
191
170
145
173
150
122
186
159
129
178
154
125
168
147
121
175
157
140
169
154
138
186
171
156
181
163
146
196
183
167
183
170
155
192
180
166
40
31
29
42
32
30
42
33
31
39
31
29
38
29
28
40
31
29
43
38
36
59
55
52
80
76
73
120
116
112
144
140
134
149
145
139
143
141
135
143
142
136
138
137
133
128
127
125
115
114
114
99
99
98
87
86
85
84
83
82
79
78
78
73
72
71
75
74
72
74
73
72
64
61
60
59
55
54
58
53
52
54
50
48
53
50
48
57
53
51
62
58
54
70
65
62
73
68
64
69
63
60
68
63
59
74
69
66
80
75
72
78
73
70
74
69
66
72
67
65
64
59
57
56
51
48
54
49
46
64
60
54
86
83
72
95
95
82
27
26
22
0
0
0
0
0
0
0
0
0
0
0
0
0
0
0
0
0
0
0
0
0
0
0
0
0
0
0
0
0
0
0
0
0
0
0
0
0
0
0
0
0
0
0
0
0
0
0
0
0
0
0
0
0
0
7
7
7
11
11
11
7
7
7
1
1
1
0
0
0
0
0
0
0
0
0
0
0
0
0
0
0
0
0
0
0
0
0
0
0
0
0
0
0
0
0
0
0
0
0
155
138
114
150
131
107
138
120
99
161
142
119
169
157
135
153
138
118
117
94
66
142
119
91
147
125
95
168
145
116
169
146
118
162
142
114
177
160
134
201
187
165
197
187
169
193
180
160
168
147
124
192
172
147
193
173
148
182
165
142
181
163
138
155
134
110
173
152
124
163
140
111
171
147
119
172
147
122
159
133
107
154
128
101
174
150
123
163
141
113
194
175
151
180
155
129
180
157
129
192
173
148
193
173
147
176
154
126
192
171
141
164
137
105
172
144
114
184
166
142
192
175
156
171
154
141
169
152
139
171
154
139
189
173
156
181
164
148
196
182
167
194
180
166
36
26
24
38
28
27
32
24
23
20
14
13
21
15
14
31
24
23
35
30
29
61
58
55
101
98
94
143
141
136
152
149
144
146
143
137
139
137
131
136
134
129
135
134
129
131
131
127
121
120
118
101
101
99
84
84
82
82
82
80
80
80
79
74
73
72
73
72
71
69
68
66
62
60
58
58
55
53
57
54
51
59
57
55
59
58
55
62
59
55
66
61
57
67
61
57
61
56
51
57
52
47
61
56
52
70
66
62
77
73
70
78
74
71
79
74
71
77
72
69
66
61
58
55
50
47
58
53
49
72
68
61
88
87
76
39
38
33
4
4
3
0
0
0
0
0
0
0
0
0
0
0
0
0
0
0
0
0
0
0
0
0
0
0
0
0
0
0
0
0
0
0
0
0
0
0
0
0
0
0
0
0
0
0
0
0
2
2
2
7
7
7
9
9
9
10
10
10
13
13
13
11
11
11
1
1
1
0
0
0
0
0
0
0
0
0
0
0
0
0
0
0
0
0
0
0
0
0
0
0
0
0
0
0
0
0
0
0
0
0
121
103
81
190
172
145
128
110
84
161
143
120
137
118
97
179
164
141
156
143
122
119
98
73
135
112
84
168
148
119
146
124
94
152
128
97
195
179
153
189
172
148
195
185
167
211
201
183
144
122
100
183
161
135
200
181
155
184
166
141
177
157
131
196
176
152
170
149
121
156
131
101
167
141
112
158
133
106
152
127
101
163
137
109
164
139
112
166
142
114
204
189
166
187
162
135
181
156
128
182
159
131
177
152
122
178
153
123
183
158
127
172
146
114
164
138
108
176
158
135
181
162
142
169
152
140
174
157
144
167
150
135
169
152
134
196
179
162
195
180
164
189
174
158
32
23
22
35
26
25
20
15
14
7
5
4
15
12
11
35
30
29
61
57
55
105
103
98
138
135
129
153
150
143
153
150
144
145
142
136
134
132
126
128
127
121
127
126
121
124
123
120
117
116
114
108
107
106
91
91
89
78
78
76
74
73
72
73
71
70
71
70
69
70
69
68
72
71
69
74
73
70
70
67
64
61
57
54
60
55
51
65
59
55
68
62
57
65
59
55
56
52
47
55
50
46
63
59
55
74
71
67
80
77
74
82
78
75
81
76
73
79
74
71
72
67
64
65
60
56
71
66
61
82
79
70
38
37
32
3
3
2
0
0
0
0
0
0
0
0
0
0
0
0
0
0
0
0
0
0
0
0
0
0
0
0
0
0
0
0
0
0
0
0
0
0
0
0
0
0
0
0
0
0
0
0
0
0
0
0
1
1
1
9
9
9
10
10
10
10
10
10
4
4
4
1
1
1
0
0
0
0
0
0
0
0
0
0
0
0
0
0
0
0
0
0
0
0
0
0
0
0
0
0
0
0
0
0
0
0
0
0
0
0
94
75
53
138
121
99
181
163
134
151
133
111
174
156
135
155
136
112
167
153
127
165
153
131
118
94
69
144
125
95
170
154
128
162
145
121
164
143
116
194
176
151
163
150
128
204
191
173
164
146
125
163
138
113
207
189
162
171
146
118
168
144
118
189
167
142
181
160
132
178
154
124
153
128
98
149
125
97
182
163
138
181
158
131
177
151
123
176
151
123
211
195
170
177
152
125
185
159
132
177
151
123
177
150
120
202
178
146
174
148
118
164
138
109
154
134
111
181
163
143
161
142
124
190
175
162
184
168
156
167
150
135
179
161
144
184
166
148
202
186
169
181
164
144
28
20
19
30
22
22
19
15
13
19
16
14
40
36
34
66
62
59
99
95
91
135
132
127
148
146
139
145
141
134
144
140
132
136
132
126
115
114
108
99
99
93
102
101
97
107
106
102
102
101
98
100
99
97
102
102
99
98
98
96
88
88
86
88
87
85
84
82
81
83
81
80
78
77
75
73
72
69
70
66
62
69
65
60
73
69
63
80
77
72
87
83
78
86
83
79
76
74
70
65
62
58
65
62
58
70
66
63
75
71
68
79
75
72
83
78
75
84
79
76
76
71
68
71
66
63
79
75
70
89
88
79
34
33
28
2
2
1
0
0
0
0
0
0
0
0
0
0
0
0
0
0
0
0
0
0
0
0
0
0
0
0
0
0
0
0
0
0
0
0
0
0
0
0
0
0
0
0
0
0
1
1
1
1
1
1
9
9
9
11
11
11
10
10
10
11
11
11
1
1
1
0
0
0
0
0
0
0
0
0
0
0
0
0
0
0
0
0
0
0
0
0
0
0
0
0
0
0
0
0
0
0
0
0
0
0
0
0
0
0
97
80
58
83
65
43
151
134
112
138
119
97
165
146
123
173
154
130
170
150
123
174
154
126
158
139
115
130
109
81
162
139
110
159
142
115
158
138
108
196
176
151
143
125
102
179
161
136
196
179
156
153
132
108
187
164
139
170
145
117
173
150
121
188
166
138
197
174
142
185
162
131
156
130
99
170
146
116
182
165
139
184
163
136
166
140
111
183
159
129
202
182
152
197
173
144
172
147
117
176
150
120
174
148
118
183
159
127
162
136
107
161
139
110
150
131
111
172
155
138
171
155
139
168
151
137
189
172
158
165
148
135
185
168
151
160
141
120
202
184
166
173
153
132
18
14
14
20
16
15
26
23
21
44
40
38
68
65
61
96
91
87
120
116
111
137
133
127
140
137
131
140
136
129
146
142
135
147
145
139
127
127
122
103
103
99
109
109
104
117
117
112
108
108
104
103
103
98
127
127
122
122
123
120
98
98
97
97
96
95
84
81
81
82
80
78
85
84
81
85
83
80
94
92
88
102
99
94
101
98
92
104
100
95
102
98
93
96
91
87
83
78
73
67
62
58
56
52
49
57
52
49
65
61
58
74
70
66
83
78
75
88
83
80
80
75
71
74
69
64
80
77
72
91
91
82
93
93
82
26
26
21
0
0
0
0
0
0
0
0
0
0
0
0
0
0
0
0
0
0
0
0
0
0
0
0
0
0
0
0
0
0
0
0
0
0
0
0
0
0
0
1
1
1
9
9
9
5
5
5
11
11
11
7
7
7
7
7
7
2
2
2
0
0
0
0
0
0
0
0
0
0
0
0
0
0
0
0
0
0
0
0
0
0
0
0
0
0
0
0
0
0
0
0
0
0
0
0
0
0
0
0
0
0
107
90
70
101
84
63
108
91
71
133
115
95
136
116
93
174
155
132
166
145
120
158
137
110
171
151
125
155
134
108
129
106
78
149
127
97
148
126
98
143
120
95
173
152
127
150
130
103
173
155
131
168
152
134
172
147
123
165
141
114
186
163
133
180
155
123
196
172
138
190
169
138
157
133
101
169
142
113
182
157
128
189
168
141
159
134
105
185
160
130
190
165
134
182
156
126
187
160
130
167
140
112
168
144
114
154
129
102
163
138
110
169
149
126
187
171
154
176
159
145
183
169
155
162
145
131
195
181
167
153
137
127
183
165
147
137
118
92
211
198
179
169
147
126
12
10
11
24
22
22
50
46
45
75
70
68
94
90
86
111
107
101
125
121
115
135
132
126
133
129
123
134
130
123
139
135
128
141
138
133
134
133
128
128
126
122
132
131
127
141
139
134
140
139
134
149
148
141
162
161
155
150
150
146
124
124
121
107
106
102
99
98
94
96
95
90
99
98
93
97
95
91
100
98
93
107
103
98
110
105
99
110
104
99
104
98
93
98
92
87
87
82
77
70
65
61
54
50
48
50
46
43
56
51
48
66
62
58
81
76
73
92
87
83
85
80
76
76
72
67
82
80
74
91
93
85
100
101
90
28
28
25
0
0
0
0
0
0
0
0
0
0
0
0
0
0
0
0
0
0
0
0
0
0
0
0
0
0
0
0
0
0
0
0
0
0
0
0
0
0
0
1
1
1
9
9
9
12
12
12
10
10
10
9
9
9
2
2
2
0
0
0
0
0
0
0
0
0
0
0
0
0
0
0
0
0
0
0
0
0
0
0
0
0
0
0
0
0
0
0
0
0
0
0
0
0
0
0
0
0
0
0
0
0
80
63
46
102
85
67
132
120
103
132
120
104
125
108
88
145
126
105
169
151
128
146
126
103
131
110
87
168
148
123
131
109
80
146
124
95
137
113
85
128
105
79
155
133
106
176
158
135
155
135
113
163
149
132
173
157
136
156
129
103
188
170
143
174
149
117
180
154
121
167
142
110
180
156
126
166
139
109
171
144
115
183
158
129
177
151
123
189
162
133
170
143
113
170
144
114
172
145
116
164
137
108
159
134
105
159
134
107
149
125
97
179
159
137
186
172
156
167
152
138
153
137
124
169
154
140
204
191
179
179
165
152
169
151
132
159
140
117
191
178
158
169
146
125
20
20
21
45
44
44
75
72
71
96
91
90
106
102
98
113
109
103
118
114
108
123
119
113
127
122
116
127
123
116
126
122
114
121
117
111
116
112
105
113
109
104
121
118
113
130
126
120
131
128
121
141
138
130
158
156
148
161
160
154
150
149
143
138
137
132
115
114
110
98
95
90
101
98
92
107
104
99
110
106
101
113
109
103
115
110
105
109
102
97
99
93
87
93
86
81
83
77
72
69
64
60
57
52
50
52
47
46
52
48
46
62
58
54
79
74
70
90
84
80
85
80
75
80
76
70
87
84
78
94
95
87
99
101
92
40
41
38
21
23
23
15
15
17
6
6
7
2
2
2
1
1
1
2
2
3
5
5
6
8
8
10
8
8
9
6
6
6
3
3
3
2
2
2
5
5
5
2
2
2
10
10
10
7
7
7
10
10
10
0
0
0
0
0
0
0
0
0
0
0
0
0
0
0
0
0
0
0
0
0
0
0
0
0
0
0
0
0
0
0
0
0
0
0
0
0
0
0
0
0
0
0
0
0
0
0
0
0
0
0
126
117
103
116
97
78
107
93
77
179
173
158
155
142
123
133
117
97
141
126
105
181
168
148
192
182
164
150
130
108
198
187
167
167
149
126
139
117
92
125
102
75
148
126
100
193
179
162
137
115
92
155
137
117
173
158
136
160
135
110
172
152
128
191
169
139
178
152
120
156
130
97
173
148
116
169
143
112
177
151
120
172
146
116
172
146
116
179
152
122
165
138
109
172
146
115
170
144
113
167
144
117
164
144
119
177
155
129
176
157
133
171
152
131
190
176
161
179
165
150
167
154
142
197
181
168
187
172
158
205
193
181
180
166
151
175
155
134
167
147
126
174
153
133
33
32
34
59
58
58
82
79
78
96
91
90
102
97
95
107
103
99
111
106
102
116
112
106
125
121
113
131
127
120
130
127
120
123
119
112
109
105
99
105
101
95
111
106
101
112
108
103
115
111
106
119
115
109
129
126
119
137
134
127
146
143
137
152
151
146
135
133
130
117
113
109
116
113
108
119
115
111
124
121
116
129
127
122
125
121
117
114
110
105
107
103
97
97
92
87
81
76
71
74
69
65
63
58
55
54
49
48
49
44
43
56
51
48
72
67
62
84
79
74
83
79
73
86
81
75
90
86
79
97
95
87
100
101
91
28
28
25
1
0
1
6
6
6
20
20
20
25
25
25
23
24
24
18
19
19
10
10
10
1
1
1
0
0
0
0
0
0
0
0
0
4
4
4
13
13
13
12
12
12
10
10
10
9
9
9
1
1
1
0
0
0
0
0
0
0
0
0
0
0
0
0
0
0
0
0
0
0
0
0
0
0
0
0
0
0
0
0
0
0
0
0
0
0
0
0
0
0
0
0
0
0
0
0
0
0
0
0
0
0
214
201
176
182
170
145
144
125
107
172
156
137
141
133
120
168
152
134
147
131
112
160
147
124
204
192
171
162
145
126
177
165
147
189
178
160
160
141
118
109
88
62
134
113
85
184
175
159
161
148
133
175
161
140
164
144
118
148
123
98
152
127
102
202
182
151
197
171
139
162
136
104
164
138
106
164
138
108
178
152
120
192
166
134
177
150
120
163
137
107
155
129
99
165
139
107
161
138
109
183
164
141
194
179
157
167
148
121
185
168
145
167
150
133
175
157
141
170
154
137
182
171
157
200
184
167
172
156
141
209
195
182
171
156
140
185
166
147
179
160
141
176
157
136
40
39
40
61
60
60
77
74
73
84
79
79
88
83
83
96
92
89
107
102
98
115
110
104
123
119
111
133
130
122
136
132
126
135
131
125
131
127
121
128
124
117
128
123
116
127
123
117
126
122
116
129
125
118
131
128
121
133
129
122
142
139
132
149
147
141
143
141
136
139
135
131
131
129
125
132
129
125
136
133
130
136
133
130
129
125
121
124
120
114
117
113
107
105
101
96
101
98
94
92
90
86
78
74
71
64
60
58
51
46
43
53
48
45
68
62
58
78
73
68
86
81
75
91
85
80
91
86
79
97
94
86
99
100
89
28
28
24
0
0
0
0
0
0
0
0
0
0
0
0
0
0
0
0
0
0
0
0
0
0
0
0
0
0
0
0
0
0
0
0
0
1
1
1
10
10
10
10
10
10
7
7
7
1
1
1
0
0
0
0
0
0
0
0
0
0
0
0
0
0
0
0
0
0
0
0
0
0
0
0
0
0
0
0
0
0
0
0
0
0
0
0
0
0
0
0
0
0
0
0
0
0
0
0
0
0
0
0
0
0
158
139
112
194
177
148
190
171
143
190
173
147
175
160
140
143
127
110
181
164
144
140
120
98
178
160
137
199
182
159
148
128
106
193
183
161
184
166
143
116
96
74
124
104
76
133
113
88
157
141
124
135
116
93
176
154
125
148
124
97
182
162
136
171
149
121
193
168
138
166
140
111
155
128
100
162
136
107
180
155
122
187
162
127
186
164
134
172
148
119
153
127
97
153
127
95
172
152
127
170
152
131
190
173
152
184
167
147
170
153
136
179
164
149
146
127
111
151
133
116
200
190
177
176
158
139
170
154
137
203
188
173
182
166
148
178
161
143
176
157
138
173
155
133
42
40
42
58
56
58
74
70
71
81
76
77
84
79
79
91
86
84
99
93
91
106
100
96
113
108
102
120
115
108
122
118
111
125
121
114
126
121
115
124
119
112
129
123
117
137
132
125
142
137
130
141
137
129
142
138
130
146
142
135
145
141
133
139
136
128
136
134
126
140
136
132
137
134
130
141
138
134
143
140
137
141
138
135
138
136
132
128
125
119
119
115
110
108
104
99
106
102
98
100
98
93
99
97
93
86
84
81
78
76
74
65
62
59
68
64
59
77
72
66
90
85
80
95
90
85
92
86
81
94
90
82
96
95
86
30
29
26
0
0
0
0
0
0
0
0
0
0
0
0
0
0
0
0
0
0
0
0
0
0
0
0
0
0
0
0
0
0
0
0
0
0
0
0
4
4
4
8
8
8
0
0
0
0
0
0
0
0
0
0
0
0
0
0
0
0
0
0
0
0
0
0
0
0
0
0
0
0
0
0
0
0
0
0
0
0
0
0
0
0
0
0
0
0
0
0
0
0
0
0
0
0
0
0
0
0
0
0
0
0
156
136
111
176
156
128
172
152
122
183
166
138
185
163
137
149
130
104
156
136
116
148
127
107
160
140
115
184
165
141
203
183
158
191
174
151
167
149
125
195
178
154
150
130
107
131
111
85
143
123
99
144
124
100
175
152
123
156
131
102
169
150
125
161
137
110
188
165
136
174
148
119
151
125
98
163
137
110
174
150
117
177
151
116
185
161
132
155
131
101
135
109
80
157
134
104
165
145
120
174
158
135
201
184
166
201
184
167
187
173
158
178
165
151
151
137
123
134
117
101
206
196
183
137
120
102
148
131
115
182
166
154
194
177
161
211
200
188
165
147
132
159
140
120
33
31
33
46
45
46
63
60
61
74
70
71
82
77
77
89
84
83
93
87
85
94
88
85
100
94
90
104
98
93
100
94
88
102
97
90
105
99
92
103
97
91
108
102
96
120
114
107
126
121
113
122
117
109
132
127
119
144
139
130
143
138
130
142
139
130
138
136
128
132
128
121
133
129
122
136
131
125
139
134
130
137
134
130
133
130
125
129
125
120
124
120
114
117
112
108
117
114
109
110
108
103
106
103
98
100
97
93
93
91
87
87
85
81
85
83
79
85
82
78
96
91
88
97
91
88
92
86
81
90
85
78
95
92
83
79
78
69
20
20
16
0
0
0
0
0
0
0
0
0
0
0
0
0
0
0
0
0
0
0
0
0
0
0
0
0
0
0
0
0
0
0
0
0
0
0
0
1
1
1
0
0
0
0
0
0
0
0
0
0
0
0
0
0
0
0
0
0
0
0
0
0
0
0
0
0
0
0
0
0
0
0
0
0
0
0
0
0
0
0
0
0
0
0
0
0
0
0
0
0
0
0
0
0
0
0
0
0
0
0
148
129
106
138
119
95
160
140
114
155
135
107
154
132
107
164
142
112
115
97
75
119
100
79
146
129
106
176
157
129
182
159
133
160
137
113
172
149
126
172
152
126
203
183
155
169
148
123
127
107
84
119
99
76
166
144
115
185
159
130
143
120
93
162
139
113
171
148
119
159
136
107
146
122
96
159
136
110
173
151
121
152
127
96
158
134
107
173
149
123
143
118
89
145
123
96
149
128
104
175
157
136
189
172
153
190
173
155
179
163
150
168
154
143
168
155
142
118
104
90
183
172
159
152
139
125
126
110
94
135
119
108
177
163
150
203
191
181
146
130
115
133
115
98
17
16
17
29
27
28
46
44
45
60
57
58
72
67
68
82
77
76
89
84
82
89
83
81
94
88
84
96
90
85
88
82
76
91
85
78
95
89
82
94
88
82
101
96
89
111
105
99
121
117
111
111
107
101
114
111
104
121
117
108
127
122
113
137
134
125
140
137
129
132
128
121
125
120
112
124
118
110
127
122
115
127
121
115
124
119
113
125
121
116
120
117
111
121
117
111
118
116
111
115
112
107
116
114
108
111
109
104
108
106
102
104
103
99
93
91
88
100
99
97
106
104
102
99
95
92
90
84
79
87
81
76
93
88
80
95
93
82
24
23
19
0
0
0
0
0
0
0
0
0
0
0
0
0
0
0
0
0
0
0
0
0
0
0
0
0
0
0
0
0
0
0
0
0
0
0
0
0
0
0
0
0
0
0
0
0
0
0
0
0
0
0
0
0
0
0
0
0
0
0
0
0
0
0
0
0
0
0
0
0
0
0
0
0
0
0
0
0
0
0
0
0
0
0
0
0
0
0
0
0
0
0
0
0
0
0
0
0
0
0
110
92
70
117
99
76
119
100
78
113
95
72
104
86
64
128
109
85
118
102
81
94
78
57
118
102
80
130
112
88
141
121
96
154
134
108
138
118
95
163
140
114
183
158
129
184
164
134
113
95
72
157
138
115
151
129
105
166
140
112
142
119
93
131
109
82
180
159
131
181
162
135
158
138
114
173
154
130
169
149
120
152
127
101
156
132
108
187
166
140
165
146
120
163
142
119
169
149
128
173
153
134
172
154
137
162
147
131
151
136
123
150
137
128
152
139
128
120
109
96
136
126
112
154
145
133
121
108
94
114
100
91
124
111
103
167
154
146
136
122
111
116
100
84
17
13
15
19
16
18
28
27
28
41
40
41
56
53
54
70
65
64
81
76
73
85
79
75
88
82
78
89
83
79
85
79
73
89
83
77
93
87
80
95
89
81
102
96
88
113
107
99
126
122
116
130
127
123
129
129
126
121
121
116
117
114
107
122
117
109
130
126
119
126
122
116
120
115
108
120
114
106
122
116
108
121
115
107
120
114
107
116
111
104
112
108
100
114
110
103
109
106
99
111
108
102
112
109
103
108
105
99
110
108
104
105
103
100
105
104
101
114
114
113
118
118
118
116
115
114
101
99
96
88
83
78
90
84
77
92
89
79
71
71
59
12
12
8
0
0
0
0
0
0
0
0
0
0
0
0
0
0
0
0
0
0
0
0
0
0
0
0
0
0
0
0
0
0
0
0
0
0
0
0
0
0
0
0
0
0
0
0
0
0
0
0
0
0
0
0
0
0
0
0
0
0
0
0
0
0
0
0
0
0
0
0
0
0
0
0
0
0
0
0
0
0
0
0
0
0
0
0
0
0
0
0
0
0
0
0
0
0
0
0
103
84
64
112
95
76
100
83
63
99
82
61
97
80
61
96
81
62
115
100
83
79
66
49
84
69
51
119
102
80
121
103
80
142
123
99
106
85
64
126
105
83
149
127
100
153
132
106
104
87
66
111
93
70
113
94
71
149
126
100
141
120
95
102
83
57
198
180
160
199
185
165
171
156
138
191
177
159
172
154
130
130
107
82
151
128
104
167
145
118
165
146
123
203
188
167
160
140
120
168
150
131
165
150
134
154
140
127
138
125
114
141
129
119
165
153
143
121
110
100
103
93
82
100
88
80
115
105
97
112
101
95
95
83
75
121
108
99
107
95
85
115
102
92
32
26
28
29
25
27
28
24
26
30
28
30
41
38
39
55
50
49
67
62
60
76
70
66
81
75
71
85
79
75
83
77
72
84
78
73
86
79
74
89
82
75
94
86
78
101
94
86
111
104
96
126
122
117
137
136
132
142
143
140
138
139
136
130
129
124
125
122
117
131
129
125
131
129
124
127
123
116
121
115
108
119
112
105
113
107
100
104
98
90
101
96
87
100
95
86
97
93
85
98
94
87
94
89
83
95
90
85
93
89
85
91
89
85
105
104
102
123
122
122
130
130
130
126
126
126
118
117
116
107
106
103
97
94
89
96
93
84
100
100
86
73
73
62
17
18
13
0
0
0
0
0
0
0
0
0
0
0
0
0
0
0
0
0
0
0
0
0
0
0
0
0
0
0
0
0
0
0
0
0
0
0
0
0
0
0
0
0
0
0
0
0
0
0
0
0
0
0
0
0
0
0
0
0
0
0
0
0
0
0
0
0
0
0
0
0
0
0
0
0
0
0
0
0
0
0
0
0
0
0
0
0
0
0
0
0
0
0
0
0
91
74
56
82
66
53
100
83
67
70
54
35
81
65
47
63
48
32
77
63
46
90
77
60
61
46
32
107
92
72
102
87
68
111
94
72
98
80
61
103
85
65
120
100
76
113
95
74
94
77
58
97
80
57
101
82
60
122
101
77
117
97
73
111
93
70
188
170
151
183
165
149
179
162
146
179
164
147
184
167
147
160
139
115
139
117
93
169
146
119
161
139
117
182
163
142
162
142
119
172
156
136
164
149
134
135
120
108
165
152
140
120
108
99
149
137
128
102
90
83
102
90
82
121
111
101
75
66
59
120
111
105
97
87
81
106
94
86
107
95
86
92
80
71
44
37
39
45
39
40
44
38
39
42
37
38
41
37
36
46
41
40
52
47
46
62
56
54
71
66
62
80
74
70
83
76
72
82
76
71
82
75
70
87
80
74
93
87
81
92
85
78
92
84
75
104
96
88
119
115
108
137
135
131
149
150
147
152
154
153
145
145
143
143
142
140
145
145
141
141
139
134
130
127
121
115
110
103
105
100
93
93
87
80
87
82
74
86
81
73
84
78
72
80
74
68
78
72
67
81
75
70
75
69
65
81
77
73
104
102
101
136
135
135
136
136
136
117
116
116
113
111
109
110
108
105
104
101
97
75
72
66
75
74
65
70
70
59
16
16
12
0
0
0
0
0
0
0
0
0
0
0
0
0
0
0
0
0
0
0
0
0
0
0
0
0
0
0
0
0
0
0
0
0
0
0
0
0
0
0
0
0
0
0
0
0
0
0
0
0
0
0
0
0
0
0
0
0
0
0
0
0
0
0
0
0
0
0
0
0
0
0
0
0
0
0
0
0
0
0
0
0
0
0
0
0
0
0
0
0
0
0
0
0
87
71
56
61
45
31
68
53
37
72
58
40
58
43
29
51
35
20
52
36
22
59
45
32
70
56
42
91
77
61
71
57
40
86
71
52
75
59
41
77
62
44
91
73
52
74
58
38
75
59
40
86
70
52
104
88
69
99
82
60
109
91
69
107
89
68
139
122
103
141
125
109
148
131
116
168
152
135
193
176
158
192
176
157
175
156
135
164
142
117
162
141
119
187
167
146
151
132
106
161
145
126
180
166
150
138
123
110
185
172
159
130
120
111
147
136
126
106
96
88
138
129
118
110
102
94
99
90
83
161
152
146
65
55
50
86
76
66
95
86
77
83
74
65
52
45
47
56
49
50
57
50
50
57
51
51
56
51
50
56
50
49
51
46
44
48
43
41
54
49
47
67
61
58
79
72
68
83
76
71
82
76
70
90
84
77
103
99
93
105
100
94
104
99
94
107
101
95
109
102
95
115
108
101
131
127
123
152
152
150
164
165
166
155
157
155
148
150
145
145
144
139
140
139
134
125
122
116
104
100
94
88
82
76
78
72
66
75
70
64
72
66
61
68
62
57
66
61
56
67
61
56
69
64
60
84
81
77
122
120
119
152
152
153
142
143
144
112
111
111
94
91
87
91
87
80
98
93
88
66
63
59
60
58
52
0
0
0
0
0
0
0
0
0
0
0
0
0
0
0
0
0
0
0
0
0
0
0
0
0
0
0
0
0
0
0
0
0
0
0
0
0
0
0
0
0
0
0
0
0
0
0
0
0
0
0
0
0
0
0
0
0
0
0
0
0
0
0
0
0
0
0
0
0
0
0
0
0
0
0
0
0
0
0
0
0
0
0
0
0
0
0
0
0
0
0
0
0
3
3
3
8
8
8
119
102
86
69
53
40
57
41
27
48
34
20
75
63
53
51
39
26
83
74
66
54
40
27
81
67
51
71
57
41
55
41
24
72
58
43
57
43
24
69
55
39
70
55
37
64
50
30
77
62
44
89
73
56
119
104
87
88
72
54
117
100
78
103
86
69
125
109
91
128
112
95
122
105
90
143
127
110
171
155
138
168
150
133
194
177
157
163
141
118
174
154
132
169
148
127
149
130
108
136
120
103
148
133
118
182
167
155
171
158
144
166
157
148
127
116
107
88
77
69
153
142
131
74
65
57
145
135
127
134
125
119
70
62
54
79
69
61
55
46
37
93
85
76
59
52
54
61
54
55
65
58
58
70
63
63
70
64
64
71
65
63
66
59
57
55
50
47
49
43
42
53
47
46
71
64
61
81
74
69
83
77
71
90
83
76
104
98
92
117
112
107
128
126
122
120
118
114
124
121
119
115
110
104
116
110
103
132
128
123
156
156
154
164
167
165
151
155
151
139
140
135
133
133
128
130
129
124
115
113
108
96
92
88
76
71
66
66
60
56
63
57
53
62
56
51
63
57
52
66
61
56
76
71
67
100
97
95
138
137
137
161
162
164
153
156
158
122
123
125
92
90
87
84
80
74
87
81
75
91
86
80
96
92
83
72
67
60
69
62
52
17
15
11
0
0
0
0
0
0
0
0
0
0
0
0
0
0
0
0
0
0
0
0
0
0
0
0
0
0
0
0
0
0
0
0
0
0
0
0
0
0
0
0
0
0
0
0
0
0
0
0
0
0
0
0
0
0
0
0
0
0
0
0
0
0
0
0
0
0
0
0
0
0
0
0
0
0
0
0
0
0
2
2
2
2
2
2
11
11
11
5
5
5
112
95
78
104
87
70
55
40
25
57
41
29
45
30
18
71
59
49
106
96
87
72
60
51
94
80
64
38
24
12
52
38
23
53
39
24
59
47
32
57
44
29
56
41
25
48
33
17
78
64
50
111
94
78
128
111
95
106
91
72
103
89
69
99
84
67
124
107
90
127
111
94
134
118
103
127
111
95
131
114
100
131
114
98
144
125
106
167
146
124
161
143
122
163
148
129
134
118
101
117
102
89
116
101
88
145
129
117
142
128
115
102
93
83
132
122
113
108
97
87
114
103
91
74
65
54
127
118
108
80
71
63
63
53
45
57
48
40
88
79
68
103
92
82
63
56
57
64
57
58
71
64
63
78
71
71
78
71
70
80
73
71
79
72
70
74
68
65
68
62
59
63
57
54
72
64
61
82
75
70
88
82
76
95
88
81
101
94
88
118
112
108
135
134
130
130
128
126
143
144
144
134
133
130
126
122
117
123
117
110
130
127
121
145
147
143
148
152
150
139
142
141
124
125
122
114
113
109
118
116
111
107
106
101
91
89
85
76
72
67
66
61
56
65
59
54
66
60
55
72
66
61
92
88
85
122
121
120
151
151
153
166
169
172
161
164
169
133
135
138
99
97
96
85
81
77
81
76
69
83
78
71
92
87
80
103
96
87
107
98
83
31
27
22
0
0
0
0
0
0
0
0
0
0
0
0
0
0
0
0
0
0
0
0
0
0
0
0
0
0
0
0
0
0
0
0
0
0
0
0
0
0
0
0
0
0
0
0
0
0
0
0
0
0
0
0
0
0
0
0
0
0
0
0
0
0
0
0
0
0
0
0
0
0
0
0
0
0
0
4
4
4
8
8
8
13
13
13
8
8
8
12
12
12
91
76
59
87
70
55
73
57
42
46
31
16
47
32
21
86
74
63
105
92
81
99
85
73
135
120
101
72
62
52
42
27
12
60
47
32
94
82
68
94
83
71
50
35
21
46
33
20
95
81
66
139
123
106
166
149
132
107
92
72
105
91
72
80
66
48
92
78
61
120
105
89
118
104
92
121
108
96
129
115
104
88
73
58
123
106
89
126
109
92
147
133
120
142
131
120
122
109
98
102
90
80
103
91
78
124
112
101
122
109
99
76
67
57
103
94
85
113
102
93
79
67
56
63
52
41
92
83
70
80
71
62
75
66
58
100
90
80
163
150
136
103
91
81
68
61
61
69
62
62
74
67
66
81
73
72
81
74
72
85
76
74
89
82
79
91
84
81
89
82
79
86
79
76
87
79
76
93
86
82
101
94
89
108
102
96
112
106
100
119
115
108
131
129
124
140
140
136
147
149
146
148
148
148
141
140
138
123
118
112
116
110
103
114
110
103
123
124
122
133
136
136
128
130
130
107
107
105
100
97
93
104
103
98
106
106
101
101
100
94
87
84
79
75
70
64
72
66
61
83
78
73
112
109
106
140
140
140
159
161
163
169
173
176
164
168
172
141
144
146
108
108
107
87
85
81
80
76
69
78
72
66
82
76
70
94
87
80
106
95
83
31
27
24
5
5
5
0
0
0
0
0
0
0
0
0
0
0
0
0
0
0
0
0
0
0
0
0
0
0
0
0
0
0
0
0
0
0
0
0
0
0
0
0
0
0
0
0
0
0
0
0
0
0
0
0
0
0
0
0
0
0
0
0
0
0
0
0
0
0
0
0
0
0
0
0
3
3
3
10
10
10
5
5
5
9
9
9
12
12
12
3
3
3
77
63
49
73
58
42
62
48
33
59
44
30
60
45
32
57
44
37
127
112
100
90
74
58
152
137
118
99
86
70
59
45
33
84
69
55
121
107
90
134
122
105
65
53
43
62
53
44
101
85
70
134
118
102
157
141
121
128
112
91
114
100
82
75
61
43
69
56
40
138
125
113
107
95
85
134
125
116
119
109
99
71
58
46
131
121
110
116
101
87
137
123
111
150
141
132
140
128
119
109
99
91
85
74
65
95
83
75
76
63
55
67
55
46
81
70
62
96
85
76
49
38
25
55
44
32
87
77
64
81
71
59
69
59
51
126
113
100
170
156
141
136
126
118
75
69
68
74
68
67
77
70
69
85
77
75
90
81
78
92
83
80
98
91
87
103
97
93
104
98
94
105
98
94
105
98
94
107
101
97
112
106
102
118
112
107
121
117
111
123
119
113
128
124
118
138
137
132
141
141
137
147
149
147
148
150
149
126
125
122
102
97
91
91
85
79
88
83
78
106
105
102
124
126
125
117
119
118
91
88
85
89
85
81
102
99
94
114
112
107
111
109
104
101
98
95
90
86
82
101
97
94
127
125
123
149
149
150
163
165
166
168
173
176
165
170
173
147
152
153
117
118
117
92
90
86
83
78
72
78
72
67
79
73
68
84
78
71
100
89
80
66
58
50
14
11
8
0
0
0
0
0
0
0
0
0
0
0
0
0
0
0
0
0
0
0
0
0
0
0
0
0
0
0
0
0
0
0
0
0
0
0
0
0
0
0
0
0
0
0
0
0
0
0
0
0
0
0
0
0
0
0
0
0
0
0
0
0
0
0
0
0
0
0
0
0
2
2
2
12
12
12
10
10
10
11
11
11
3
3
3
0
0
0
78
65
46
83
68
50
75
62
49
78
63
49
116
105
92
53
42
33
121
107
93
116
100
84
122
105
84
105
90
72
82
69
57
107
92
78
144
128
110
153
139
120
81
70
55
99
89
76
146
131
115
121
105
89
142
126
108
129
113
97
161
151
137
76
63
49
59
46
31
130
119
110
114
102
94
100
88
80
95
83
75
95
83
74
110
101
92
108
95
84
131
119
105
155
145
135
101
91
82
134
124
116
69
58
50
69
57
48
71
58
50
50
38
29
53
41
33
79
67
58
47
35
22
59
49
39
80
68
59
62
51
41
108
95
82
114
99
84
129
115
103
157
146
139
85
80
77
81
75
73
82
76
73
90
83
80
98
90
87
102
95
91
107
101
96
111
105
100
114
108
103
117
111
106
117
112
107
118
113
108
121
115
110
123
118
112
124
120
114
125
121
114
124
121
115
125
122
116
129
128
123
137
138
135
136
137
134
132
135
134
87
85
80
72
66
59
65
57
49
72
65
59
97
95
90
122
124
121
116
116
114
91
88
84
90
85
79
103
99
91
116
114
108
128
126
124
125
123
122
128
127
126
142
142
142
153
155
156
164
165
167
169
173
175
168
173
175
153
158
159
123
125
125
98
97
93
88
84
78
81
76
70
80
74
69
82
75
69
92
83
75
106
94
80
30
26
21
0
0
0
0
0
0
0
0
0
0
0
0
0
0
0
0
0
0
0
0
0
0
0
0
0
0
0
0
0
0
0
0
0
0
0
0
0
0
0
0
0
0
0
0
0
0
0
0
0
0
0
0
0
0
0
0
0
0
0
0
0
0
0
0
0
0
2
2
2
2
2
2
1
1
1
8
8
8
8
8
8
0
0
0
0
0
0
145
135
114
116
103
84
106
93
79
139
124
103
83
70
58
112
99
86
84
73
61
126
109
91
121
104
86
114
98
78
78
63
49
81
65
48
144
124
105
159
140
118
127
114
96
96
86
70
152
136
119
144
128
111
125
109
92
118
102
85
124
109
94
129
117
104
86
73
63
133
121
112
160
149
141
78
67
58
73
61
53
103
94
86
143
135
128
95
82
73
141
128
115
131
119
107
94
83
75
99
87
79
79
66
58
85
73
64
51
38
30
59
48
39
107
95
87
85
73
63
48
38
29
74
64
55
67
56
48
65
54
41
102
90
73
100
86
70
167
154
144
105
95
87
99
93
88
93
87
84
94
88
84
100
94
90
108
101
97
113
107
103
115
109
106
117
111
106
118
112
107
123
118
113
124
119
114
124
119
114
124
118
113
123
117
112
121
116
110
118
114
107
113
109
102
106
102
95
107
103
97
118
118
114
112
112
109
133
137
137
98
98
96
73
68
62
69
62
53
73
65
57
82
75
65
107
104
97
133
134
131
120
119
115
102
97
92
94
88
79
104
98
91
124
120
116
149
149
147
154
156
156
160
162
164
161
163
166
166
168
171
169
174
176
167
173
175
152
156
158
123
124
125
102
100
98
95
91
87
89
85
80
86
81
77
83
79
74
88
82
74
98
89
78
28
24
20
0
0
0
0
0
0
0
0
0
0
0
0
0
0
0
0
0
0
0
0
0
0
0
0
0
0
0
0
0
0
0
0
0
0
0
0
0
0
0
0
0
0
0
0
0
0
0
0
0
0
0
0
0
0
0
0
0
0
0
0
0
0
0
2
2
2
11
11
11
10
10
10
2
2
2
1
1
1
1
1
1
0
0
0
0
0
0
157
140
117
154
142
123
155
137
115
155
137
114
146
132
113
98
84
67
55
43
30
135
118
99
161
144
124
133
117
96
145
127
110
105
91
74
128
108
90
179
158
135
169
151
129
117
101
82
137
121
102
170
156
136
120
104
85
127
111
95
149
134
118
166
153
138
117
105
94
134
121
112
144
133
125
107
97
89
87
76
67
142
133
122
118
110
101
96
82
73
152
139
128
116
102
91
115
102
92
104
93
84
99
88
78
100
88
77
74
62
55
97
86
78
103
92
82
84
73
65
105
94
87
54
42
34
92
81
73
75
63
51
72
59
45
98
85
72
148
134
121
77
63
50
109
103
99
106
100
96
107
101
97
112
106
101
116
110
106
120
114
111
121
115
112
122
116
112
120
114
110
122
117
112
122
118
112
121
116
110
119
113
108
114
109
103
109
104
97
105
99
92
96
90
82
87
80
72
85
78
70
98
95
90
104
103
100
125
127
125
119
121
119
96
94
89
84
78
70
89
81
73
94
87
78
100
94
85
124
122
116
135
135
131
125
123
119
110
106
100
111
107
102
124
123
119
141
140
139
159
160
160
167
170
171
168
171
173
170
174
177
170
175
178
166
172
174
152
156
159
126
128
129
108
106
105
103
99
96
97
92
89
88
84
80
80
76
71
82
76
69
92
86
74
25
23
18
0
0
0
0
0
0
0
0
0
0
0
0
0
0
0
0
0
0
0
0
0
0
0
0
0
0
0
0
0
0
0
0
0
0
0
0
0
0
0
0
0
0
0
0
0
0
0
0
0
0
0
0
0
0
0
0
0
4
4
4
4
4
4
7
7
7
13
13
13
11
11
11
5
5
5
0
0
0
0
0
0
0
0
0
0
0
0
143
126
106
137
122
103
154
133
112
172
149
126
132
114
88
144
128
105
96
83
66
101
86
69
172
153
131
160
142
121
164
143
123
145
128
110
114
97
77
166
145
120
173
152
128
131
114
95
171
152
129
158
141
121
133
117
98
133
118
102
131
117
101
158
145
130
108
95
83
123
111
101
114
102
91
169
162
152
66
57
48
136
127
116
132
123
113
88
75
65
138
124
114
99
86
76
96
83
72
130
117
105
142
131
118
145
134
122
164
151
138
89
76
68
138
126
115
153
142
130
77
65
56
115
104
95
125
115
105
63
52
37
87
74
62
134
121
108
132
118
106
112
99
86
106
100
95
108
102
97
109
103
98
113
107
103
116
111
106
119
114
110
120
114
111
118
112
109
113
107
103
112
107
101
112
108
101
107
102
96
103
97
91
97
91
85
92
86
79
89
83
75
83
76
67
77
69
60
76
66
58
83
75
67
103
101
97
113
112
108
128
129
127
121
120
117
100
95
89
101
97
89
106
101
94
109
104
96
115
110
103
134
133
128
140
141
138
130
131
129
126
126
123
137
137
136
145
145
144
151
151
150
158
160
160
166
169
171
167
170
174
165
168
172
166
169
172
155
158
161
125
126
126
99
97
94
93
88
83
89
82
77
78
71
66
67
61
56
68
62
55
81
75
65
33
31
29
1
1
1
0
0
0
0
0
0
0
0
0
0
0
0
0
0
0
0
0
0
0
0
0
0
0
0
0
0
0
0
0
0
0
0
0
0
0
0
0
0
0
0
0
0
0
0
0
0
0
0
0
0
0
0
0
0
9
9
9
12
12
12
9
9
9
9
9
9
4
4
4
0
0
0
0
0
0
0
0
0
0
0
0
0
0
0
155
136
113
149
130
108
143
123
103
156
133
112
142
125
104
105
89
69
105
89
70
104
88
71
169
152
130
162
144
122
135
118
96
135
119
101
162
151
138
156
144
126
152
133
109
134
117
96
153
134
111
131
114
95
146
129
113
120
104
89
128
113
97
166
157
143
138
128
117
79
65
53
88
76
64
151
142
132
137
127
118
133
123
114
137
129
119
105
95
85
114
101
91
86
74
65
87
74
61
124
110
97
102
88
76
123
110
98
119
105
92
85
72
61
143
130
118
140
127
114
127
112
97
167
153
138
77
67
57
77
65
53
143
130
117
110
96
84
120
106
94
129
115
103
89
83
76
91
85
79
90
84
76
97
91
84
101
94
88
104
98
93
103
97
92
99
93
87
94
88
81
94
89
82
96
90
83
92
86
80
88
82
76
87
81
74
85
78
71
82
75
66
81
73
64
81
72
63
81
73
63
83
76
65
100
95
87
108
105
99
124
123
120
134
135
132
121
119
115
112
108
103
116
112
107
119
116
109
121
118
112
129
127
122
143
144
141
152
155
155
139
140
140
145
145
145
149
149
149
151
151
151
154
156
156
162
164
166
168
171
176
165
169
173
161
165
169
150
152
155
121
122
121
95
92
87
89
84
78
88
82
77
77
71
66
62
57
52
58
53
47
71
64
56
25
24
21
22
21
21
0
0
1
0
0
0
0
0
0
0
0
0
0
0
0
0
0
0
0
0
0
0
0
0
0
0
0
0
0
0
0
0
0
0
0
0
0
0
0
0
0
0
0
0
0
0
0
0
0
0
0
4
4
4
8
8
8
11
11
11
11
11
11
6
6
6
0
0
0
0
0
0
0
0
0
0
0
0
0
0
0
0
0
0
143
123
103
133
118
99
155
137
118
139
124
107
183
174
152
174
163
143
104
95
83
74
59
41
168
152
130
162
144
122
110
93
74
129
112
95
153
140
125
155
142
128
161
149
132
135
119
100
118
99
76
141
125
103
144
130
113
153
138
124
120
105
91
108
94
82
157
145
135
97
83
71
86
73
62
100
89
80
125
113
104
117
106
98
122
111
102
121
111
101
80
67
57
85
72
62
103
90
78
108
94
82
105
91
79
132
118
106
129
114
99
125
111
97
137
122
108
136
121
108
117
101
86
164
149
135
67
55
44
118
105
94
137
126
115
153
140
130
124
110
98
157
143
130
78
72
65
78
71
63
78
71
63
80
72
63
80
72
63
84
76
69
87
80
72
85
79
71
85
79
71
87
81
74
86
80
73
84
78
71
84
78
71
84
78
71
84
78
71
83
76
67
83
76
67
85
78
69
87
81
71
89
83
73
96
90
80
107
103
96
125
123
119
137
138
134
136
137
135
122
119
115
123
120
115
126
123
118
129
126
121
132
131
128
141
141
139
158
160
160
151
154
156
150
150
150
151
151
151
152
152
152
153
154
154
158
159
160
165
167
170
172
176
179
166
170
174
152
155
157
126
126
125
103
100
95
93
89
83
91
85
80
81
75
70
67
62
57
59
54
48
66
59
53
16
14
11
16
16
15
20
20
19
0
0
0
0
0
0
0
0
0
0
0
0
0
0
0
0
0
0
0
0
0
0
0
0
0
0
0
0
0
0
0
0
0
0
0
0
0
0
0
0
0
0
6
6
6
4
4
4
11
11
11
7
7
7
9
9
9
5
5
5
1
1
1
0
0
0
0
0
0
0
0
0
0
0
0
0
0
0
0
0
0
185
170
152
154
139
123
159
142
124
179
170
155
166
154
136
178
160
137
182
172
155
116
110
99
136
120
100
144
127
103
133
117
94
154
141
125
128
113
98
149
136
120
134
119
105
152
139
123
140
127
108
110
94
73
136
121
103
148
134
118
124
111
97
93
81
68
124
111
101
86
74
59
133
127
117
81
71
61
93
81
69
98
86
76
89
77
67
97
85
76
88
76
65
90
77
67
120
107
96
94
81
67
120
107
95
126
113
101
99
87
72
111
96
81
132
116
101
124
107
91
136
120
100
129
113
97
107
93
82
136
123
111
147
136
129
150
140
133
167
156
146
124
110
96
83
77
70
82
75
68
81
74
66
80
72
64
81
74
65
85
79
71
87
81
74
88
82
74
89
83
75
88
83
76
85
80
73
84
79
72
84
79
73
87
81
74
89
84
77
88
82
75
88
82
74
90
83
76
92
86
78
92
87
78
94
88
79
103
99
90
124
122
116
132
132
127
148
152
150
133
132
130
130
128
124
131
129
125
133
131
129
137
136
136
142
142
141
151
151
150
161
164
166
155
156
157
151
151
151
152
152
152
154
155
154
157
158
159
162
164
166
169
173
175
170
176
179
157
160
163
128
128
127
103
100
95
94
89
83
90
85
79
82
76
71
70
65
59
61
56
51
63
58
53
15
12
11
1
1
1
11
11
11
18
18
18
0
0
0
0
0
0
0
0
0
0
0
0
0
0
0
0
0
0
0
0
0
0
0
0
0
0
0
0
0
0
0
0
0
0
0
0
0
0
0
5
5
5
13
13
13
10
10
10
11
11
11
6
6
6
0
0
0
0
0
0
0
0
0
0
0
0
0
0
0
0
0
0
0
0
0
0
0
0
161
147
132
120
104
89
153
137
122
144
129
114
161
143
124
172
155
134
154
138
118
157
147
129
159
152
136
119
104
83
126
109
88
121
108
89
134
118
102
151
136
120
125
111
100
129
117
104
173
163
147
116
106
91
110
96
78
128
115
99
112
100
85
124
113
102
74
62
48
103
91
75
95
85
73
124
121
111
75
65
52
85
72
61
85
72
61
84
72
61
64
52
41
136
125
115
100
89
78
97
84
69
109
96
85
139
126
115
80
68
54
127
113
98
102
88
70
126
110
92
124
107
91
141
125
109
150
134
119
113
100
88
132
120
109
156
151
145
180
172
165
126
115
102
89
85
77
88
83
76
89
83
76
88
82
74
87
81
74
87
82
75
88
82
75
89
83
76
89
85
77
89
84
78
88
85
79
89
86
80
88
84
79
90
85
79
93
89
82
94
90
83
94
90
83
96
91
83
96
91
83
97
92
84
98
93
84
105
100
92
123
120
114
129
127
121
152
156
154
146
149
148
138
138
137
136
135
134
138
138
137
142
142
142
145
145
145
148
148
148
163
166
166
160
163
163
153
154
154
152
153
152
154
156
155
158
160
160
163
167
168
167
172
174
172
177
180
165
169
171
139
141
141
107
104
100
93
87
81
89
83
77
80
74
69
69
64
59
63
58
53
62
57
53
14
12
10
0
0
0
0
0
0
9
9
9
17
17
17
1
1
1
0
0
0
0
0
0
0
0
0
0
0
0
0
0
0
0
0
0
0
0
0
0
0
0
0
0
0
2
2
2
1
1
1
10
10
10
5
5
5
13
13
13
2
2
2
0
0
0
0
0
0
0
0
0
0
0
0
0
0
0
0
0
0
0
0
0
0
0
0
0
0
0
142
127
110
147
131
114
159
148
133
169
158
146
137
123
105
124
107
84
107
92
71
120
107
89
158
146
129
150
139
127
104
91
73
113
99
84
127
112
96
136
121
105
132
120
109
131
118
107
144
132
118
155
145
132
87
76
63
100
88
74
102
89
74
101
89
74
80
68
54
90
78
64
87
73
60
81
71
61
67
55
42
83
71
58
110
98
86
109
100
90
107
96
84
118
106
97
134
124
115
108
94
80
136
126
115
118
105
95
118
109
96
116
100
86
137
124
110
111
95
78
142
126
111
139
123
108
128
114
101
114
101
88
121
110
97
158
149
141
164
157
150
141
132
123
93
89
83
93
89
83
94
90
83
92
88
81
90
85
79
90
85
79
92
88
82
93
90
84
95
92
86
96
93
88
96
94
90
95
93
88
92
90
86
92
89
84
96
93
87
99
96
89
100
97
90
100
97
90
102
97
90
102
97
90
104
99
92
109
104
98
123
120
115
131
129
125
150
151
150
155
158
158
146
148
147
140
140
140
142
142
142
145
145
145
146
146
146
148
148
148
157
159
159
162
165
165
158
161
161
153
154
153
155
157
156
158
162
161
164
169
170
169
174
177
170
175
178
170
174
176
160
162
163
126
125
123
101
95
90
91
85
79
80
74
68
69
63
58
62
57
52
56
52
48
20
17
16
0
0
0
0
0
0
1
1
1
10
10
10
17
17
17
0
0
0
0
0
0
0
0
0
0
0
0
0
0
0
0
0
0
0
0
0
0
0
0
1
1
1
13
13
13
10
10
10
8
8
8
12
12
12
8
8
8
0
0
0
0
0
0
0
0
0
0
0
0
0
0
0
0
0
0
0
0
0
0
0
0
0
0
0
0
0
0
115
101
85
134
119
102
143
128
114
155
145
133
178
173
163
138
129
115
108
95
81
91
77
63
131
119
104
159
151
136
147
138
124
81
68
55
125
112
99
121
109
97
79
67
56
121
108
96
86
74
61
131
119
105
119
110
98
111
102
90
90
78
63
89
76
62
72
59
47
82
69
58
70
58
46
60
47
35
106
92
80
107
93
81
151
140
129
117
107
97
128
116
105
110
99
88
108
96
86
89
76
65
147
138
127
100
86
76
134
123
113
99
84
70
147
133
120
107
93
79
138
123
108
120
105
90
133
121
108
89
76
62
129
116
104
151
142
131
156
148
138
148
139
130
100
98
94
99
98
95
99
98
93
97
95
89
96
93
88
97
94
90
99
97
94
99
98
95
100
99
96
102
102
100
103
103
100
100
99
96
96
96
91
96
95
91
99
98
94
103
102
97
105
103
98
106
104
98
109
106
100
111
108
102
112
109
103
115
113
108
124
122
118
134
133
131
149
150
150
157
161
162
151
153
153
144
144
144
145
145
145
146
146
146
147
147
147
148
148
148
152
152
152
160
162
161
162
166
166
154
156
155
156
158
157
160
163
163
164
169
170
170
175
177
171
176
177
170
174
175
166
169
170
145
146
145
111
108
103
95
90
84
80
74
68
67
61
56
61
55
51
55
51
46
19
17
15
1
1
1
0
0
0
0
0
0
1
1
1
11
11
11
14
14
14
0
0
0
0
0
0
0
0
0
0
0
0
0
0
0
0
0
0
0
0
0
0
0
0
9
9
9
11
11
11
11
11
11
5
5
5
0
0
0
0
0
0
0
0
0
0
0
0
0
0
0
0
0
0
0
0
0
0
0
0
0
0
0
0
0
0
0
0
0
163
149
134
108
95
83
131
122
110
90
79
68
162
152
140
168
157
145
125
113
99
110
97
85
130
120
109
136
124
110
130
122
109
177
173
164
154
147
141
106
93
78
108
97
87
94
84
74
148
140
127
89
78
65
89
77
63
127
120
109
85
76
64
77
64
49
96
83
71
53
39
28
53
40
28
89
76
64
118
104
92
99
86
73
151
134
122
94
80
69
113
100
89
139
128
117
83
71
59
99
86
76
144
133
120
117
103
91
126
113
103
85
72
60
140
128
113
119
107
93
110
95
81
113
99
84
143
131
121
84
69
54
101
86
71
135
123
111
146
136
125
131
120
109
109
109
109
108
108
106
105
105
102
103
102
100
104
103
100
105
104
103
105
105
104
104
104
103
105
105
104
108
108
108
108
108
107
103
103
101
99
99
96
101
100
97
104
104
102
108
108
106
111
110
108
112
111
108
115
114
111
119
118
116
121
120
117
123
123
120
129
128
126
136
136
135
147
149
148
158
162
163
155
157
157
145
146
146
145
145
145
147
147
147
148
148
148
149
149
149
150
150
150
156
157
157
163
165
165
158
160
160
157
159
159
161
163
164
164
169
170
170
175
176
170
175
176
167
170
171
160
162
163
149
150
149
118
116
113
98
93
88
81
75
70
68
62
57
59
54
49
52
47
44
17
15
14
1
1
1
0
0
0
0
0
0
0
0
0
1
1
1
12
12
12
16
16
16
1
1
1
0
0
0
0
0
0
0
0
0
0
0
0
0
0
0
0
0
0
2
2
2
11
11
11
1
1
1
0
0
0
0
0
0
0
0
0
0
0
0
0
0
0
0
0
0
0
0
0
0
0
0
0
0
0
0
0
0
0
0
0
0
0
0
145
131
117
142
129
117
147
135
121
138
126
114
137
125
115
112
99
87
165
159
147
113
101
89
94
82
70
106
95
83
125
113
100
133
125
116
192
188
183
126
116
108
67
54
40
72
61
51
82
70
59
121
109
96
69
56
41
70
60
46
124
117
106
90
77
64
62
50
37
35
22
7
43
30
18
88
74
62
102
88
76
119
105
93
136
121
109
100
86
74
98
84
72
106
93
82
81
68
56
93
78
65
139
123
109
139
125
112
149
139
128
93
80
70
140
128
115
103
91
77
109
97
82
111
98
84
149
138
127
93
79
65
92
77
63
128
116
104
115
103
92
113
103
91
117
119
118
115
116
115
111
112
111
109
110
109
110
111
109
110
110
110
109
110
110
110
111
111
112
113
113
112
112
113
110
110
110
106
106
105
103
103
102
105
105
104
110
110
110
114
114
113
117
117
116
118
118
117
122
122
120
126
126
125
128
128
127
129
129
128
133
133
133
139
139
138
145
146
146
157
160
160
157
159
159
147
148
148
147
147
147
148
148
148
149
149
149
150
150
150
150
150
150
154
154
154
158
160
159
162
166
166
160
163
162
162
163
163
163
167
168
167
171
172
166
170
171
160
162
163
150
151
151
136
136
135
119
117
114
100
96
92
78
73
68
66
60
55
58
52
47
35
31
28
8
6
6
1
0
0
0
0
0
0
0
0
0
0
0
0
0
0
0
0
0
14
13
13
13
13
13
1
1
1
0
0
0
0
0
0
0
0
0
0
0
0
0
0
0
0
0
0
3
3
3
0
0
0
0
0
0
0
0
0
0
0
0
0
0
0
0
0
0
0
0
0
0
0
0
0
0
0
0
0
0
0
0
0
0
0
0
0
0
0
101
87
74
130
115
101
126
112
97
111
97
85
132
119
106
155
144
130
141
134
124
118
107
96
107
95
85
62
51
39
128
116
103
116
105
95
120
112
104
137
126
118
98
89
79
54
41
27
80
70
61
127
116
103
80
69
56
71
59
48
136
127
117
111
102
94
50
38
24
39
26
10
51
38
27
77
63
51
88
74
62
126
111
98
98
85
72
109
95
83
92
79
68
100
87
75
76
62
49
77
61
47
124
109
94
122
106
93
119
107
95
125
113
103
167
154
141
101
90
77
83
71
57
119
107
94
145
134
123
146
133
122
123
108
97
145
131
122
118
107
97
146
134
122
121
123
122
118
119
118
115
116
115
113
115
114
114
116
115
115
117
116
116
117
117
116
118
117
112
113
113
108
109
109
111
112
112
109
110
110
107
107
107
111
111
111
116
116
116
119
120
119
121
123
122
124
125
124
126
127
127
129
130
130
133
133
133
134
135
134
137
137
137
141
141
141
145
145
145
154
157
156
157
160
160
150
152
152
148
148
148
148
148
148
149
149
149
151
151
151
152
152
152
154
155
154
157
158
158
163
166
166
162
165
164
161
163
162
162
165
165
164
167
167
161
164
164
155
157
156
143
144
143
126
126
123
117
115
110
103
101
97
79
74
70
64
58
53
57
51
46
25
22
19
2
2
2
0
0
0
0
0
0
0
0
0
0
0
0
0
0
0
0
0
0
1
1
1
14
14
14
8
8
8
0
0
0
0
0
0
0
0
0
0
0
0
0
0
0
0
0
0
0
0
0
0
0
0
0
0
0
0
0
0
0
0
0
0
0
0
0
0
0
0
0
0
0
0
0
0
0
0
0
0
0
0
0
0
0
0
0
0
0
0
106
93
82
120
109
96
122
110
98
88
78
68
116
103
90
132
121
107
134
122
107
154
140
129
120
106
97
103
92
82
80
68
56
103
93
80
124
116
107
141
134
128
86
74
61
60
48
33
84
71
57
118
107
94
76
64
51
68
56
44
82
70
58
159
152
143
84
79
71
53
42
30
94
84
75
72
59
47
87
72
60
97
83
70
91
78
66
87
73
61
100
87
74
85
72
61
72
58
46
67
53
40
102
86
70
108
92
77
86
72
58
97
85
73
106
93
82
88
76
64
85
72
60
107
94
82
137
124
111
116
102
90
150
134
122
152
136
126
157
144
132
138
123
110
122
124
123
118
120
119
117
119
119
118
120
121
120
122
121
121
123
122
121
123
122
117
119
118
107
108
108
108
109
109
114
116
115
114
115
114
112
112
112
116
117
116
120
121
121
122
124
123
125
127
126
128
130
129
130
132
131
132
134
133
135
136
135
137
138
137
139
140
139
141
141
141
144
144
144
151
154
153
154
157
156
152
154
154
149
150
151
148
148
148
149
149
149
151
151
151
153
153
153
155
156
156
156
158
158
162
164
164
164
166
166
160
162
161
161
163
163
160
163
162
157
159
158
149
150
149
136
136
134
117
116
112
107
104
98
103
99
95
87
83
79
66
60
56
57
52
47
27
24
21
2
1
1
0
0
0
0
0
0
0
0
0
0
0
0
0
0
0
0
0
0
0
0
0
1
1
1
14
14
14
4
4
4
0
0
0
0
0
0
0
0
0
0
0
0
0
0
0
0
0
0
0
0
0
0
0
0
0
0
0
0
0
0
0
0
0
0
0
0
0
0
0
0
0
0
0
0
0
0
0
0
0
0
0
0
0
0
0
0
0
81
70
63
75
64
54
75
64
52
83
73
64
111
101
93
110
98
86
104
93
80
106
96
84
159
146
134
125
114
103
106
96
84
73
61
48
86
75
63
135
126
118
91
81
70
50
37
24
54
41
26
64
54
41
86
75
62
61
47
35
57
46
32
104
94
83
94
85
78
56
45
35
68
59
49
115
105
95
83
71
59
70
57
44
87
74
61
74
63
52
117
107
95
96
85
73
108
97
86
77
64
52
104
89
74
94
81
66
101
89
75
88
75
61
99
86
76
64
52
41
98
85
73
85
73
59
134
118
104
115
100
86
125
110
96
124
109
96
125
111
98
106
90
77
120
122
122
119
122
122
122
125
126
124
126
127
124
127
128
124
127
127
121
124
123
112
114
113
106
107
107
114
115
114
119
121
120
118
120
119
117
118
118
120
121
121
124
125
125
126
128
127
128
130
129
130
132
131
132
134
133
134
136
135
136
138
137
138
139
139
140
140
140
141
141
141
143
144
144
149
151
150
152
154
153
152
153
154
153
154
156
148
148
148
149
150
149
152
152
152
153
154
153
156
156
156
157
158
158
159
162
162
164
167
167
159
161
161
159
161
160
157
159
158
151
153
152
141
141
139
126
125
121
109
106
101
97
93
87
98
93
87
94
91
87
72
68
64
59
53
48
35
31
27
2
1
1
0
0
0
0
0
0
0
0
0
0
0
0
0
0
0
0
0
0
0
0
0
0
0
0
1
1
1
14
14
14
3
3
3
0
0
0
0
0
0
0
0
0
0
0
0
0
0
0
0
0
0
0
0
0
0
0
0
0
0
0
0
0
0
0
0
0
0
0
0
0
0
0
0
0
0
0
0
0
0
0
0
0
0
0
0
0
0
76
68
59
63
52
43
45
32
23
64
52
43
76
65
58
83
72
65
104
93
85
74
62
50
70
58
44
93
83
73
81
70
60
69
57
45
62
50
37
67
56
47
87
77
69
57
46
33
47
34
22
36
23
13
63
51
40
51
37
25
50
38
24
140
132
120
69
59
54
80
72
65
118
109
100
139
129
122
71
60
49
83
71
61
70
57
47
68
57
46
125
118
109
115
106
96
140
132
124
69
56
45
92
79
65
94
81
66
67
54
40
88
76
61
114
102
91
58
46
36
89
77
66
98
86
72
109
96
81
111
97
83
110
95
81
123
109
95
95
81
66
99
86
70
123
125
126
125
130
130
127
132
133
128
132
133
128
132
134
125
129
130
117
121
120
108
110
109
110
111
111
119
121
120
122
124
123
121
123
122
120
122
121
123
125
124
126
128
127
128
130
129
129
131
130
132
134
133
134
136
135
135
137
136
137
139
138
139
140
139
140
140
140
141
141
141
143
143
143
148
149
148
154
154
153
151
152
152
156
158
160
150
150
150
150
151
150
151
153
152
153
154
153
155
156
156
156
157
157
157
159
158
164
167
166
158
160
160
155
157
156
151
153
152
145
146
145
133
133
130
117
115
111
103
99
94
92
86
80
91
86
79
97
94
89
82
79
75
57
53
48
41
37
33
3
2
2
0
0
0
0
0
0
0
0
0
0
0
0
0
0
0
0
0
0
0
0
0
0
0
0
0
0
0
2
2
2
12
12
12
2
2
2
1
1
1
0
0
0
0
0
0
0
0
0
0
0
0
0
0
0
0
0
0
0
0
0
0
0
0
0
0
0
0
0
0
0
0
0
0
0
0
0
0
0
0
0
0
0
0
0
0
0
0
82
75
70
76
69
64
85
80
72
60
53
46
76
70
65
44
33
27
56
46
41
71
61
54
78
68
61
52
39
27
80
70
61
60
49
37
53
42
30
53
42
33
39
27
17
57
46
35
46
33
23
33
21
11
71
61
52
48
37
25
71
62
52
106
98
88
111
104
100
132
125
121
65
56
48
118
110
101
70
60
49
66
54
43
76
65
55
88
78
69
131
123
115
69
58
49
128
119
111
107
97
90
92
79
68
99
87
76
51
38
23
63
50
35
86
74
63
76
64
54
71
59
47
84
72
57
86
74
59
89
76
62
86
73
59
119
105
91
61
49
34
92
80
64
128
132
134
130
135
137
131
136
138
131
136
138
130
135
137
124
128
129
114
117
116
108
110
109
115
117
116
122
124
123
125
127
126
124
126
125
123
125
124
125
127
126
129
131
130
131
133
132
132
134
133
133
135
134
135
137
136
136
138
137
138
139
138
139
139
139
141
140
141
142
142
142
143
143
143
147
147
147
154
155
154
151
152
151
158
161
161
151
152
152
150
152
151
151
153
152
152
154
153
154
156
155
154
156
155
155
157
155
162
164
162
157
160
158
151
153
152
143
144
143
135
134
133
121
119
117
107
103
100
97
92
87
90
84
77
87
81
73
94
90
85
89
87
85
61
57
53
40
36
33
5
5
4
0
0
0
0
0
0
0
0
0
0
0
0
0
0
0
0
0
0
0
0
0
0
0
0
0
0
0
0
0
0
4
3
3
14
13
13
1
1
1
0
0
0
0
0
0
0
0
0
0
0
0
0
0
0
0
0
0
0
0
0
0
0
0
0
0
0
0
0
0
0
0
0
0
0
0
0
0
0
0
0
0
0
0
0
0
0
0
65
56
52
64
56
51
98
90
80
65
58
52
64
59
54
91
85
83
27
16
10
34
22
15
47
35
27
40
28
20
38
26
17
47
36
24
37
26
14
40
28
17
33
20
11
31
19
9
39
27
16
59
49
40
66
58
49
81
73
64
80
72
64
70
61
54
107
99
94
85
76
70
41
31
22
70
62
54
113
106
98
55
44
34
61
50
40
114
106
98
108
100
91
54
41
30
68
56
46
93
82
71
65
52
40
83
70
59
56
42
29
72
60
50
116
105
94
80
67
56
58
45
34
69
56
44
80
68
56
79
66
52
68
54
42
109
97
83
56
44
33
87
75
60
131
136
138
133
138
140
133
138
141
132
137
140
129
134
136
121
125
125
111
114
113
110
112
111
120
121
121
125
127
126
126
128
127
126
128
127
124
126
125
126
128
127
131
133
132
133
135
134
134
136
135
135
137
136
137
139
138
137
139
138
139
140
139
140
140
140
141
141
141
142
142
142
142
143
142
146
147
147
154
156
155
152
153
152
157
160
160
153
154
154
151
153
152
151
153
152
152
154
153
154
156
155
154
156
155
154
156
154
158
160
157
154
157
156
145
147
147
136
135
135
123
122
121
108
105
103
95
90
85
89
84
78
87
81
75
85
79
71
89
84
77
94
92
88
70
66
63
39
36
33
9
8
6
0
0
0
0
0
0
0
0
0
0
0
0
0
0
0
0
0
0
0
0
0
0
0
0
0
0
0
0
0
0
0
0
0
6
5
5
11
10
10
0
0
0
0
0
0
0
0
0
0
0
0
0
0
0
0
0
0
0
0
0
0
0
0
0
0
0
0
0
0
0
0
0
0
0
0
0
0
0
0
0
0
0
0
0
0
0
0
25
14
9
89
82
78
49
39
32
93
83
75
61
52
45
49
41
37
51
43
37
30
19
14
92
85
81
38
26
18
27
15
9
49
39
31
33
21
13
33
20
12
29
16
7
28
16
9
69
58
47
74
65
54
61
53
48
83
75
67
90
83
76
77
69
62
94
85
77
69
61
54
36
27
18
82
73
63
74
64
57
47
36
25
56
45
34
148
141
131
95
87
77
70
59
49
61
49
38
74
63
53
57
45
33
79
67
58
52
39
27
70
58
46
95
83
74
79
66
55
66
53
43
67
54
44
66
52
40
63
49
37
52
37
25
98
88
74
76
65
53
70
60
47
133
138
139
135
140
142
135
140
142
132
137
139
126
130
131
118
121
121
112
114
113
114
116
116
124
125
126
127
129
129
129
131
130
128
130
129
126
128
127
128
130
129
133
135
134
135
137
136
136
138
137
137
139
138
138
140
139
139
141
140
140
142
141
141
142
141
141
142
142
142
143
142
142
144
143
146
148
147
154
156
155
154
155
154
155
157
157
153
154
154
151
153
152
151
153
152
152
154
153
154
156
155
153
155
154
152
154
153
152
155
153
150
153
152
141
142
142
128
128
127
116
115
113
101
98
94
87
81
76
81
75
69
82
76
70
83
77
70
84
78
71
92
89
84
79
76
72
44
42
39
11
9
8
0
0
0
0
0
0
0
0
0
2
2
2
3
3
3
3
3
3
0
0
0
0
0
0
0
0
0
0
0
0
0
0
0
1
1
1
8
7
7
8
7
7
0
0
0
0
0
0
0
0
0
0
0
0
0
0
0
0
0
0
0
0
0
0
0
0
0
0
0
0
0
0
0
0
0
0
0
0
0
0
0
0
0
0
0
0
0
35
25
19
51
42
39
48
39
35
63
52
44
31
19
12
41
31
23
87
77
70
31
20
13
64
57
52
41
33
28
57
48
41
64
54
47
56
47
44
58
50
45
56
45
39
70
59
49
59
48
39
40
31
25
68
60
54
101
91
84
78
70
65
55
45
37
87
79
70
69
61
54
29
22
13
103
97
86
53
44
37
60
51
42
47
36
25
85
74
63
77
67
58
54
41
31
85
74
64
45
33
22
48
36
24
101
90
81
47
35
23
54
42
31
64
52
41
56
43
33
59
46
35
80
68
58
70
57
45
47
32
21
58
45
34
87
78
67
115
106
96
77
68
58
136
141
143
137
142
143
134
139
141
129
134
135
123
127
127
118
120
120
115
118
117
120
124
124
127
130
131
130
132
132
131
133
134
130
132
132
128
130
129
130
132
131
134
136
135
136
138
137
137
139
138
138
140
139
139
141
140
140
142
141
141
143
142
141
143
142
142
144
143
142
144
143
143
145
144
147
148
147
153
154
153
155
156
156
155
156
156
151
153
152
151
153
152
151
153
152
152
154
153
153
155
154
153
155
154
150
151
151
148
149
149
146
147
147
136
137
138
121
121
119
109
107
104
95
90
86
81
76
71
75
69
64
77
71
65
80
74
68
80
74
67
85
82
76
84
82
77
54
52
49
12
11
9
0
0
0
0
0
0
1
1
1
11
11
11
9
9
9
7
7
7
3
3
3
0
0
0
0
0
0
0
0
0
0
0
0
0
0
0
1
1
1
5
5
4
1
1
1
0
0
0
0
0
0
0
0
0
0
0
0
0
0
0
0
0
0
0
0
0
0
0
0
0
0
0
0
0
0
0
0
0
0
0
0
0
0
0
0
0
0
104
99
89
25
12
8
73
66
62
55
43
32
32
19
11
34
21
13
75
62
50
38
29
21
23
13
7
61
54
44
48
40
33
81
71
63
73
63
56
68
59
52
85
75
66
56
46
37
27
16
8
28
16
11
94
84
76
92
83
75
53
45
42
60
50
42
79
70
62
72
64
55
16
7
3
87
79
67
67
59
50
45
36
29
43
32
24
56
45
34
65
54
44
55
44
34
60
49
38
47
34
23
49
37
26
74
64
55
44
32
22
44
33
21
53
42
30
45
33
21
48
34
23
54
41
31
59
46
36
75
64
55
80
69
59
89
80
70
99
89
78
93
84
75
138
143
145
136
141
142
132
137
138
127
132
133
122
127
127
121
123
123
121
124
124
126
131
131
129
134
135
131
135
136
133
135
137
132
133
134
130
132
131
131
133
132
135
137
136
137
139
138
138
140
139
139
141
140
140
142
141
141
143
142
142
144
143
142
144
143
142
144
143
142
144
143
143
145
144
146
148
147
150
152
151
153
155
154
155
157
156
150
152
151
150
152
151
150
152
151
151
153
152
152
154
153
151
153
152
146
147
147
143
143
143
141
141
141
129
129
128
113
111
109
98
94
90
85
80
76
76
69
64
72
66
60
73
67
61
77
71
64
78
72
65
78
74
67
85
82
77
64
61
58
14
13
12
0
0
0
0
0
0
4
4
4
7
7
7
12
12
12
11
11
11
6
6
6
0
0
0
0
0
0
0
0
0
0
0
0
0
0
0
0
0
0
1
1
1
1
1
1
1
1
1
0
0
0
0
0
0
0
0
0
0
0
0
0
0
0
0
0
0
0
0
0
0
0
0
0
0
0
0
0
0
0
0
0
0
0
0
0
0
0
144
137
124
74
66
55
87
80
77
69
57
46
33
20
12
29
15
8
60
49
34
43
34
25
24
12
7
46
36
25
86
76
63
77
65
55
82
70
60
74
64
55
115
104
91
62
54
44
48
40
35
72
60
49
105
96
85
99
90
83
67
59
54
54
45
38
85
75
67
98
89
80
29
19
13
52
42
35
73
65
58
67
59
51
77
71
62
42
31
20
50
39
28
67
55
45
38
26
16
35
22
11
47
34
24
81
71
64
59
48
39
34
22
12
52
40
31
75
65
57
42
28
18
47
34
23
55
42
33
118
108
98
88
76
66
62
49
36
81
70
59
106
94
82
137
142
143
134
139
141
131
136
137
128
133
134
124
129
130
123
127
128
126
131
131
130
135
136
130
135
136
132
136
137
134
136
138
133
134
135
131
132
132
132
134
133
135
137
136
138
140
139
139
141
140
140
142
141
140
142
141
141
143
142
142
144
143
142
144
143
142
144
143
142
144
143
143
145
144
145
147
146
147
149
148
149
151
150
155
158
157
149
152
151
150
152
151
150
152
151
150
152
151
150
152
151
148
150
149
142
144
143
137
138
137
134
134
132
120
118
117
103
100
97
88
82
78
76
69
64
70
63
57
70
63
56
71
65
59
73
67
61
75
69
63
74
68
60
82
79
73
70
69
64
19
19
17
0
0
0
0
0
0
9
9
9
4
4
4
6
6
6
6
6
6
0
0
0
0
0
0
0
0
0
0
0
0
0
0
0
0
0
0
0
0
0
0
0
0
0
0
0
3
3
2
3
3
3
0
0
0
0
0
0
0
0
0
0
0
0
0
0
0
0
0
0
0
0
0
0
0
0
0
0
0
0
0
0
0
0
0
0
0
0
139
127
111
96
86
75
120
109
97
83
71
58
64
54
45
42
29
19
62
53
40
47
38
29
26
13
6
64
53
41
103
91
76
110
98
84
109
99
89
155
144
133
105
94
84
36
27
20
72
61
52
104
92
80
97
87
76
105
96
89
81
72
66
49
40
32
92
83
73
108
98
85
81
72
62
49
38
30
70
61
52
90
82
74
54
47
39
86
77
67
49
38
27
58
46
35
32
19
9
47
34
24
84
71
61
107
97
86
92
80
70
32
20
12
94
82
74
114
105
99
74
67
60
43
30
19
42
29
18
101
92
83
62
51
41
46
32
18
84
71
57
113
101
87
135
140
141
134
139
141
132
137
138
128
133
134
125
130
131
126
131
132
130
135
136
131
136
137
131
136
137
132
137
138
133
137
138
133
134
135
131
133
133
132
135
134
137
139
138
139
141
140
140
142
141
140
142
141
141
143
142
141
143
142
142
144
143
143
145
144
143
145
144
143
145
144
144
146
145
145
147
146
145
147
146
147
149
149
155
158
157
149
152
151
149
151
150
149
151
150
148
150
149
147
149
148
144
146
145
138
140
139
132
133
131
129
129
127
113
111
109
95
90
87
81
74
69
71
63
57
68
60
53
69
62
55
71
64
58
72
65
60
72
66
60
70
64
57
78
75
68
73
72
66
24
23
21
3
3
3
12
12
12
12
12
12
11
11
11
7
7
7
1
1
1
0
0
0
0
0
0
0
0
0
0
0
0
0
0
0
0
0
0
0
0
0
0
0
0
0
0
0
1
1
1
1
1
1
1
1
1
0
0
0
0
0
0
0
0
0
0
0
0
0
0
0
0
0
0
0
0
0
0
0
0
0
0
0
0
0
0
0
0
0
124
110
97
109
93
80
95
81
70
77
63
50
94
83
70
62
50
34
34
23
15
61
49
35
31
18
6
95
82
68
113
98
84
100
87
72
124
111
99
101
90
79
134
123
112
33
27
22
103
88
74
129
117
106
100
91
82
110
102
95
71
62
53
70
58
49
73
63
51
124
117
105
76
66
55
43
34
26
71
62
55
121
111
101
32
21
13
127
119
113
69
60
51
60
50
42
45
34
24
67
57
48
116
103
91
105
94
83
100
89
81
66
54
45
114
100
90
88
77
69
32
19
8
60
48
40
65
55
49
142
133
123
48
34
19
53
39
26
83
68
54
86
72
57
134
139
141
134
139
140
132
137
138
127
132
133
126
131
132
129
134
135
131
136
137
131
136
137
133
138
139
133
138
139
133
137
137
132
134
134
132
134
133
133
136
135
138
140
139
140
142
141
141
143
142
141
143
142
141
143
142
141
143
142
143
145
144
143
145
144
144
146
145
144
146
145
145
147
146
146
148
147
146
148
147
147
149
149
154
157
157
150
153
153
148
150
149
147
149
148
146
148
147
144
146
145
140
141
140
134
135
134
128
128
127
124
123
122
109
107
105
89
83
79
75
67
62
69
60
54
67
59
52
70
62
55
72
64
57
71
64
58
69
63
58
66
60
54
73
69
62
68
68
62
26
26
23
9
9
9
7
7
7
11
11
11
2
2
2
0
0
0
0
0
0
0
0
0
0
0
0
0
0
0
0
0
0
0
0
0
0
0
0
0
0
0
0
0
0
0
0
0
0
0
0
0
0
0
0
0
0
0
0
0
0
0
0
0
0
0
0
0
0
0
0
0
0
0
0
0
0
0
0
0
0
0
0
0
0
0
0
0
0
0
70
56
44
100
85
71
133
117
103
103
88
73
94
82
70
111
103
91
41
28
16
80
68
54
65
51
35
62
48
30
109
95
79
84
69
53
99
83
65
84
71
54
110
96
83
90
80
69
87
72
59
128
117
105
105
95
84
107
101
94
90
77
66
92
81
70
85
71
59
84
70
57
89
76
64
85
77
69
46
35
28
149
141
131
102
95
88
95
86
76
89
80
69
57
46
34
76
69
60
70
59
48
99
85
70
113
98
84
88
76
69
117
102
87
122
108
94
77
66
58
48
38
31
50
37
27
104
95
88
115
106
98
49
36
22
67
53
39
69
53
39
80
65
50
133
138
140
133
138
139
130
135
136
126
131
132
129
134
135
131
136
137
131
136
137
132
137
138
134
139
139
134
138
138
132
136
135
132
134
133
133
135
134
135
137
136
138
140
139
139
141
140
141
143
142
141
142
142
141
143
142
141
143
142
142
144
143
144
146
145
145
147
146
145
147
146
145
147
146
146
148
147
146
148
147
149
151
150
152
155
156
150
152
152
147
149
148
145
147
146
143
145
144
141
143
142
137
138
138
131
131
130
123
123
121
118
117
116
108
105
103
86
81
77
71
63
57
66
58
52
67
59
52
70
62
55
71
63
57
71
63
56
68
61
55
65
58
53
64
59
52
57
54
49
22
22
20
7
7
7
10
10
10
7
7
7
0
0
0
0
0
0
0
0
0
0
0
0
0
0
0
0
0
0
0
0
0
0
0
0
0
0
0
0
0
0
0
0
0
0
0
0
0
0
0
0
0
0
0
0
0
0
0
0
0
0
0
0
0
0
0
0
0
0
0
0
0
0
0
0
0
0
0
0
0
0
0
0
0
0
0
0
0
0
102
92
85
93
79
67
88
73
60
106
91
75
92
78
63
126
118
108
42
32
24
99
87
72
64
49
31
55
41
22
108
95
79
97
82
65
111
97
82
124
109
92
101
84
67
117
102
87
71
56
41
93
79
64
87
75
61
156
151
143
123
110
99
114
103
94
81
68
57
72
57
42
88
74
63
110
100
92
113
101
91
120
107
93
139
128
113
46
36
22
132
125
114
43
31
21
129
124
114
113
98
83
82
66
52
127
111
96
78
63
49
116
101
86
102
89
78
54
42
35
82
69
59
85
72
62
86
74
63
70
58
47
41
27
13
51
36
22
104
90
77
89
73
59
133
138
139
131
136
137
127
132
133
127
132
133
130
135
136
132
137
138
132
137
138
133
138
139
133
138
139
133
137
136
133
135
134
133
135
134
134
136
135
136
138
137
138
140
139
139
141
140
140
141
141
140
142
141
140
142
141
141
143
142
142
144
143
144
146
145
145
147
146
145
147
146
146
148
147
146
148
147
147
149
148
150
152
152
152
155
155
148
151
150
146
148
147
144
146
145
141
143
142
138
140
139
134
135
134
128
128
127
119
118
117
111
108
108
103
100
98
88
83
79
70
63
57
66
58
51
68
60
53
71
63
56
72
64
57
70
62
56
68
60
53
64
56
50
56
51
45
45
41
36
15
14
13
10
10
10
6
6
6
0
0
0
0
0
0
0
0
0
0
0
0
0
0
0
0
0
0
0
0
0
0
0
0
0
0
0
0
0
0
0
0
0
0
0
0
0
0
0
0
0
0
0
0
0
0
0
0
0
0
0
0
0
0
0
0
0
0
0
0
0
0
0
1
1
1
2
2
2
4
4
4
2
2
2
0
0
0
0
0
0
112
99
87
91
78
67
93
79
67
90
78
67
70
56
40
69
56
41
71
59
46
101
88
71
87
76
63
56
42
25
128
113
97
123
109
92
64
50
34
140
126
105
132
117
102
149
135
122
70
56
42
86
72
57
114
103
92
132
118
106
174
160
148
137
125
115
122
112
101
83
73
62
93
79
67
122
111
99
135
122
109
108
94
79
147
131
111
46
34
19
128
120
108
52
37
25
143
132
120
121
106
92
98
82
69
98
82
68
102
86
71
122
107
93
106
91
79
54
40
28
106
92
81
101
89
77
60
46
34
85
75
65
61
48
36
94
81
69
101
88
76
117
102
89
132
137
139
129
134
135
127
132
133
129
134
135
131
136
137
133
138
139
133
138
139
133
138
139
133
138
137
132
136
135
133
136
135
134
136
135
134
137
136
136
138
137
138
140
139
138
140
139
139
140
140
139
141
140
140
142
141
140
142
141
142
144
143
144
146
145
145
147
146
146
148
147
146
148
147
146
148
147
147
149
148
151
153
152
152
154
154
148
150
149
145
147
146
142
144
143
139
141
140
134
136
135
130
131
131
125
125
124
117
115
114
106
103
101
97
93
91
89
85
82
72
66
61
67
59
53
69
61
54
73
65
58
75
67
60
71
63
57
66
58
52
64
55
48
51
45
40
17
15
13
11
10
10
3
3
3
0
0
0
0
0
0
0
0
0
0
0
0
0
0
0
0
0
0
0
0
0
0
0
0
0
0
0
0
0
0
0
0
0
0
0
0
0
0
0
0
0
0
0
0
0
0
0
0
0
0
0
0
0
0
0
0
0
0
0
0
0
0
0
0
0
0
2
2
2
12
12
12
9
9
9
7
7
7
3
3
3
0
0
0
101
86
72
89
75
62
132
119
106
113
100
88
50
34
21
69
54
38
59
45
31
68
55
38
117
108
96
96
83
70
103
88
73
78
64
49
100
85
69
114
100
83
135
121
106
147
133
118
143
133
119
74
59
44
119
109
96
116
102
89
141
126
111
149
133
118
98
88
78
164
157
145
72
58
43
80
66
52
95
81
64
122
108
91
121
106
87
118
102
84
125
118
106
55
41
28
100
85
71
103
88
74
127
115
104
132
119
106
98
82
67
113
97
82
121
106
93
88
72
57
113
97
80
86
73
58
45
30
17
86
75
65
82
68
57
121
107
94
74
59
46
103
89
76
132
137
139
129
134
135
129
134
135
131
136
137
133
138
140
135
140
141
135
140
141
134
139
139
132
137
136
131
135
134
133
136
135
135
137
136
136
138
137
137
139
138
138
140
139
137
139
138
138
140
139
139
141
140
140
142
141
140
142
141
141
143
142
143
145
144
145
147
146
147
149
148
147
149
148
147
149
148
147
149
148
149
151
150
150
152
151
146
148
147
144
146
145
141
143
142
138
140
139
132
134
133
126
128
127
121
122
121
114
114
113
104
102
100
93
89
86
86
82
79
77
72
68
68
61
55
70
62
55
74
66
59
76
69
62
75
67
60
68
60
53
62
54
48
55
46
38
13
11
10
7
7
7
0
0
0
0
0
0
0
0
0
0
0
0
0
0
0
0
0
0
0
0
0
0
0
0
0
0
0
0
0
0
0
0
0
0
0
0
0
0
0
0
0
0
0
0
0
0
0
0
0
0
0
0
0
0
0
0
0
0
0
0
0
0
0
0
0
0
0
0
0
5
5
5
8
8
8
12
12
12
10
10
10
4
4
4
0
0
0
128
117
104
125
114
101
173
161
146
150
138
124
153
142
128
41
28
17
66
52
37
86
73
61
135
123
110
122
109
97
92
77
63
80
66
54
141
125
109
93
78
65
135
120
105
115
101
88
173
165
150
90
76
64
146
135
123
83
67
55
131
115
100
160
145
129
167
153
136
126
110
96
150
139
128
76
62
49
82
68
51
119
102
84
154
141
123
123
103
82
115
105
92
74
61
45
105
91
76
119
106
92
110
94
80
141
130
117
121
108
96
107
92
77
154
140
126
100
86
72
119
103
87
71
58
43
41
27
13
99
87
75
112
99
89
104
90
77
127
111
97
117
103
90
135
140
142
134
139
140
134
139
140
134
139
140
136
141
142
137
142
144
136
141
142
134
139
140
132
136
136
132
136
135
134
137
136
136
138
137
137
139
138
138
140
139
138
140
139
138
140
139
139
141
140
139
141
140
140
141
141
141
143
142
141
143
142
143
145
144
145
147
146
147
149
148
147
149
148
147
149
148
147
149
148
149
151
150
147
149
148
144
146
145
142
144
143
140
142
141
137
139
138
132
134
133
125
127
126
118
119
118
111
111
110
103
101
100
92
89
86
83
79
76
79
74
71
71
64
59
70
62
56
74
66
59
76
69
62
76
69
62
70
62
56
62
55
49
57
50
43
13
10
9
1
1
1
0
0
0
0
0
0
0
0
0
0
0
0
0
0
0
0
0
0
0
0
0
0
0
0
0
0
0
0
0
0
0
0
0
0
0
0
0
0
0
0
0
0
0
0
0
0
0
0
0
0
0
0
0
0
0
0
0
0
0
0
0
0
0
0
0
0
1
1
1
9
9
9
3
3
3
7
7
7
5
5
5
0
0
0
0
0
0
63
49
37
96
84
72
138
124
107
155
139
120
132
118
98
128
114
98
106
92
78
96
82
69
129
114
101
120
106
92
112
98
86
141
129
116
145
131
118
116
103
90
102
87
73
93
79
65
134
122
108
131
117
104
143
128
118
123
108
99
138
122
106
153
137
119
175
157
139
167
154
135
151
138
126
151
138
125
71
56
41
126
108
89
155
140
123
159
140
119
87
70
53
95
80
65
108
93
78
127
113
98
101
86
71
131
120
106
109
94
80
125
110
94
137
122
108
144
132
118
102
86
70
49
35
20
51
38
26
124
111
99
123
111
100
144
126
110
119
104
88
111
98
85
140
145
146
140
145
146
137
142
143
136
141
143
138
143
145
139
144
146
137
142
144
134
139
140
133
137
137
134
137
136
136
139
138
137
139
138
138
140
139
139
141
141
139
141
141
140
142
141
140
142
141
139
141
140
140
142
141
141
143
142
142
144
143
143
145
144
145
147
146
146
148
147
146
148
147
146
148
147
147
149
148
149
151
150
146
148
147
143
145
144
140
142
141
138
140
139
135
137
136
131
133
132
125
127
126
118
119
118
109
110
109
101
101
99
92
90
88
83
79
75
78
72
69
74
68
64
71
63
57
73
65
58
76
68
61
76
69
62
72
64
58
64
57
51
58
51
45
37
30
22
15
9
6
1
1
0
0
0
0
0
0
0
0
0
0
0
0
0
0
0
0
0
0
0
0
0
0
0
0
0
0
0
0
0
0
0
0
0
0
0
0
0
0
0
0
0
0
0
0
0
0
0
0
0
0
0
0
0
0
0
0
0
0
0
0
0
5
5
5
11
11
11
12
12
12
9
9
9
5
5
5
0
0
0
0
0
0
0
0
0
52
40
29
91
78
66
115
105
95
140
132
119
152
137
116
156
137
116
151
134
113
143
127
110
177
158
140
149
132
114
148
136
121
139
128
116
132
118
104
137
125
111
61
46
31
75
60
44
112
97
83
128
113
99
166
154
143
162
150
137
98
81
64
128
109
90
143
123
102
166
149
128
152
137
119
152
144
128
126
116
106
88
72
55
123
105
86
140
120
102
116
99
80
77
61
44
81
65
48
134
119
105
68
52
38
105
89
74
108
92
74
123
107
91
130
114
99
161
152
136
90
74
60
68
54
40
55
40
27
135
120
106
150
133
118
126
109
93
122
108
92
118
105
91
141
146
148
141
146
148
138
143
145
138
143
144
140
145
147
139
144
146
137
142
143
135
139
140
134
138
138
135
138
137
137
139
138
137
139
138
139
141
140
140
142
142
140
142
141
140
142
141
140
142
141
140
142
141
139
141
140
140
142
141
142
144
143
143
145
144
145
147
146
145
147
146
145
147
146
146
148
147
147
149
148
148
150
149
145
147
146
142
144
143
139
141
140
136
138
137
133
135
134
130
132
131
126
127
126
119
120
119
110
111
109
101
101
99
92
90
88
84
80
76
78
73
69
76
70
66
71
64
59
73
65
58
75
67
60
76
68
61
72
65
58
66
59
53
58
52
45
31
26
22
4
2
2
2
1
1
0
0
0
0
0
0
0
0
0
0
0
0
0
0
0
0
0
0
0
0
0
0
0
0
0
0
0
0
0
0
0
0
0
0
0
0
0
0
0
0
0
0
0
0
0
0
0
0
0
0
0
0
0
0
4
4
4
9
9
9
10
10
10
7
7
7
10
10
10
1
1
1
0
0
0
0
0
0
0
0
0
0
0
0
37
28
18
43
30
22
66
54
42
63
51
37
103
95
83
128
113
95
145
127
104
137
118
98
99
79
60
122
106
89
158
142
122
150
138
120
142
127
111
129
114
100
106
92
79
62
46
32
85
70
57
99
82
67
162
154
142
163
148
133
148
138
125
83
65
48
96
78
59
114
96
78
163
145
128
166
156
141
148
144
135
91
75
63
111
92
73
110
92
73
98
82
63
80
64
46
99
83
67
127
111
97
112
97
84
82
67
53
114
98
82
108
92
74
126
111
95
134
118
102
115
100
84
118
104
91
63
50
39
114
97
81
144
127
111
98
81
63
125
111
96
109
96
83
139
144
145
139
144
145
138
143
144
138
143
144
139
144
145
138
143
144
136
140
140
135
139
138
133
137
136
133
137
136
136
138
137
138
140
139
139
141
140
140
142
141
140
142
141
140
142
141
139
141
140
138
140
139
139
141
140
140
142
141
142
144
143
143
145
144
144
146
145
145
147
146
144
146
145
145
147
146
146
148
147
146
148
147
144
146
145
142
144
143
139
141
140
135
137
136
130
132
131
127
128
127
124
125
124
119
120
118
112
112
110
102
102
100
92
91
88
84
81
77
77
72
68
76
70
66
74
67
63
73
65
58
75
67
60
76
68
61
73
65
59
66
59
53
59
53
46
32
27
23
0
0
0
0
0
0
0
0
0
0
0
0
0
0
0
0
0
0
0
0
0
0
0
0
0
0
0
0
0
0
0
0
0
0
0
0
0
0
0
0
0
0
0
0
0
0
0
0
0
0
0
0
0
0
0
0
0
6
6
6
7
7
7
12
12
12
9
9
9
9
9
9
5
5
5
0
0
0
0
0
0
0
0
0
0
0
0
0
0
0
52
43
32
44
33
26
40
29
25
73
63
57
49
38
30
48
36
28
108
101
96
73
59
45
95
80
65
68
52
37
86
72
58
126
114
100
125
110
95
119
103
88
96
81
67
67
52
38
68
54
40
76
60
46
128
118
105
147
131
115
155
141
126
119
106
90
65
49
31
85
68
51
148
130
113
149
133
117
181
170
157
104
87
71
91
76
62
138
120
99
116
99
82
81
66
49
137
121
103
96
80
64
125
109
94
84
69
56
78
63
49
106
91
77
119
103
88
146
130
113
159
143
125
88
73
58
85
70
54
109
92
76
115
97
82
93
77
59
141
127
113
164
152
142
133
138
140
135
140
141
134
139
140
134
139
140
137
142
142
137
141
141
136
140
139
133
138
137
131
135
134
132
136
135
136
139
138
138
140
139
139
141
140
140
142
141
140
142
141
140
142
141
140
142
141
139
141
140
140
142
141
141
143
142
142
144
143
143
145
144
144
146
145
145
147
146
145
147
146
145
147
146
146
148
147
145
147
146
144
146
145
141
143
142
138
140
139
134
135
134
128
129
127
123
123
121
119
119
117
115
115
113
111
110
108
104
103
100
93
92
89
83
81
77
76
72
67
74
69
63
76
69
65
73
65
59
75
67
60
75
67
60
73
65
59
67
60
54
58
52
45
27
23
19
0
0
0
0
0
0
0
0
0
0
0
0
0
0
0
0
0
0
0
0
0
0
0
0
0
0
0
0
0
0
0
0
0
0
0
0
0
0
0
0
0
0
0
0
0
0
0
0
0
0
0
0
0
0
0
0
0
12
12
12
9
9
9
10
10
10
9
9
9
5
5
5
0
0
0
0
0
0
0
0
0
0
0
0
0
0
0
0
0
0
87
76
65
98
85
72
99
85
71
72
59
45
56
44
36
58
48
41
78
70
65
114
106
99
86
74
66
56
42
32
73
60
50
81
68
57
89
75
65
106
94
84
127
114
100
93
79
62
68
52
38
74
59
44
69
55
42
82
66
50
138
121
103
103
85
64
81
65
45
92
78
63
130
114
97
85
69
52
133
117
100
125
107
88
156
136
115
154
133
111
148
131
113
142
124
108
116
100
83
121
105
87
139
123
109
105
90
77
90
76
63
135
120
108
128
111
98
158
142
126
120
104
87
96
82
68
95
79
61
71
56
40
94
77
60
113
98
82
148
134
121
169
160
153
124
128
130
127
132
134
128
133
135
130
135
136
132
137
138
134
137
138
133
137
137
130
135
135
130
135
134
131
136
135
135
138
137
137
139
139
139
141
140
140
142
141
140
142
141
140
142
141
140
142
141
140
142
141
140
142
141
142
144
143
143
145
144
144
146
145
145
147
146
146
148
147
145
147
146
145
147
146
145
147
146
145
147
146
144
146
145
141
143
142
138
140
139
132
134
132
126
126
124
119
118
116
113
112
109
108
107
104
104
103
100
100
98
95
94
91
88
85
82
78
76
72
67
72
66
61
75
69
64
75
68
63
74
66
59
75
67
60
74
66
59
67
60
54
59
52
45
15
12
8
0
0
0
0
0
0
0
0
0
0
0
0
0
0
0
0
0
0
0
0
0
0
0
0
0
0
0
0
0
0
0
0
0
0
0
0
0
0
0
0
0
0
0
0
0
0
0
0
0
0
0
0
0
0
0
0
0
4
4
4
5
5
5
11
11
11
3
3
3
0
0
0
0
0
0
0
0
0
0
0
0
0
0
0
0
0
0
0
0
0
55
43
30
68
56
43
99
88
75
130
116
98
114
100
84
82
71
57
106
95
82
92
79
69
69
57
48
68
56
46
71
58
49
89
76
66
97
83
72
105
90
78
107
93
79
81
66
50
86
73
58
78
64
50
68
54
40
62
46
31
68
53
38
103
87
69
82
67
49
73
59
45
100
86
70
78
63
45
72
56
36
117
98
77
156
136
111
138
118
96
136
120
103
147
129
112
128
110
94
108
90
76
145
130
115
122
107
95
90
76
62
146
130
115
173
161
146
144
130
115
116
100
82
111
96
82
66
51
33
100
91
81
90
75
60
124
109
96
113
98
85
94
81
69
115
119
121
120
124
126
123
128
130
127
132
134
128
133
135
130
134
135
129
134
135
129
134
134
129
134
133
130
135
134
132
136
135
136
138
139
138
140
141
140
142
141
140
142
141
141
143
142
140
142
141
141
143
142
141
143
142
142
144
144
144
146
145
145
147
146
146
148
147
146
148
147
145
147
146
145
147
146
146
148
147
145
147
146
144
146
145
141
143
142
138
139
138
132
133
132
124
124
123
116
115
112
109
107
104
102
99
96
97
94
90
93
90
86
89
85
81
84
80
75
77
72
67
71
66
60
70
64
59
77
70
65
75
67
62
76
68
61
74
66
59
69
61
54
55
49
42
11
7
5
4
3
3
0
0
0
0
0
0
0
0
0
0
0
0
0
0
0
0
0
0
0
0
0
0
0
0
0
0
0
0
0
0
0
0
0
0
0
0
0
0
0
0
0
0
0
0
0
0
0
0
5
5
5
9
9
9
2
2
2
4
4
4
5
5
5
1
1
1
0
0
0
0
0
0
0
0
0
0
0
0
0
0
0
0
0
0
0
0
0
134
121
104
96
84
71
73
61
48
91
78
65
85
70
56
124
111
94
125
110
95
102
88
74
89
75
61
103
91
80
66
54
43
79
66
55
74
62
52
95
81
68
128
115
102
62
49
38
40
28
17
59
46
35
69
54
40
80
65
51
101
86
72
144
130
118
79
65
49
89
75
58
82
69
53
92
81
67
73
58
38
115
96
74
115
95
72
119
104
84
145
130
114
151
136
116
130
113
95
112
95
80
128
111
97
112
96
80
95
80
65
111
95
78
152
135
118
170
153
135
129
113
95
137
121
103
72
57
40
90
75
61
139
124
110
109
95
81
128
115
102
87
75
62
107
110
111
114
118
119
119
123
125
123
127
129
125
130
132
127
132
133
127
132
133
127
131
133
129
132
133
129
132
133
130
134
133
133
137
136
136
138
138
139
141
140
140
142
141
140
142
141
141
143
142
141
143
142
142
144
143
143
145
144
144
146
145
145
147
146
146
148
147
146
148
147
145
147
146
146
148
147
146
148
147
146
148
147
144
146
145
141
143
142
137
138
138
131
132
131
124
124
122
115
114
112
107
105
101
100
97
92
94
90
84
88
84
79
84
79
74
80
76
70
76
71
65
72
67
60
70
64
58
73
67
61
79
72
66
76
68
62
75
67
60
71
63
56
59
52
42
20
15
11
4
3
2
0
0
0
0
0
0
0
0
0
0
0
0
0
0
0
0
0
0
0
0
0
0
0
0
0
0
0
0
0
0
0
0
0
0
0
0
0
0
0
0
0
0
0
0
0
1
1
1
11
11
11
11
11
11
7
7
7
0
0
0
0
0
0
0
0
0
0
0
0
0
0
0
0
0
0
0
0
0
0
0
0
0
0
0
0
0
0
88
75
59
99
86
72
92
79
65
93
81
66
81
68
54
91
78
63
101
86
70
119
105
91
74
61
49
85
73
61
118
105
91
87
73
60
97
84
73
97
84
73
87
74
62
88
74
62
81
67
54
74
61
51
73
62
55
88
74
62
95
81
68
119
104
91
88
74
61
89
75
58
110
96
80
110
100
91
71
55
40
101
84
64
76
58
39
106
89
72
129
113
98
112
97
82
95
78
63
128
110
96
118
100
86
125
110
96
115
101
86
94
78
61
119
102
84
140
121
100
155
137
116
147
130
109
122
107
92
151
136
121
141
126
112
98
84
72
63
48
34
118
103
89
102
103
103
111
112
114
116
118
121
120
123
125
122
126
128
124
128
129
125
129
130
126
128
130
128
129
131
128
130
131
129
131
131
131
134
133
134
136
136
138
140
139
140
142
141
140
142
141
141
143
142
142
144
143
142
144
143
143
145
144
143
145
144
144
146
145
145
147
146
146
148
147
146
148
147
146
148
147
147
149
148
146
148
147
145
147
146
142
144
143
136
137
137
129
129
128
122
121
119
114
113
110
107
105
100
99
96
91
93
89
83
88
83
77
84
79
73
81
76
69
79
73
66
77
71
64
75
69
62
75
69
62
79
72
66
81
74
68
78
70
64
72
64
57
47
40
33
33
26
18
2
2
1
0
0
0
0
0
0
0
0
0
0
0
0
0
0
0
0
0
0
0
0
0
0
0
0
0
0
0
0
0
0
0
0
0
0
0
0
0
0
0
6
6
6
8
8
8
10
10
10
11
11
11
11
11
11
6
6
6
0
0
0
0
0
0
0
0
0
0
0
0
0
0
0
0
0
0
0
0
0
0
0
0
0
0
0
0
0
0
97
84
70
90
78
64
67
56
41
84
72
58
76
64
50
61
48
35
113
100
86
98
83
70
118
103
89
85
73
60
66
54
44
65
50
39
69
55
43
92
79
68
114
102
92
137
127
118
79
69
60
56
41
30
79
67
57
67
55
45
85
72
61
123
110
98
102
87
72
74
59
43
92
78
63
89
74
61
88
73
60
60
43
29
47
30
15
80
64
49
128
112
97
86
70
58
141
124
111
123
107
94
105
87
73
149
135
121
163
149
136
74
59
42
96
81
64
135
117
97
122
105
85
126
109
90
121
104
85
121
105
90
122
108
95
81
66
52
139
123
109
112
96
83
